P3
80 80
255
38 20 3 38 20 1 42 24 4 43 26 6 44 29 8 45 33 11 48 36 14 51 37 16
51 37 16 59 42 14 74 48 15 70 44 13 53 34 9 40 27 7 27 18 4 21 14 1
37 24 8 39 29 12 49 42 21 100 81 48 128 103 64 136 108 68 120 95 56
120 94 51 159 127 81 186 153 107 198 165 122 199 166 123 191 158 113
177 145 98 159 129 84 146 119 76 155 128 86 176 150 109 194 156 112
200 146 93 202 136 79 204 128 67 200 115 53 196 103 37 200 102 33
219 122 48 224 134 58 211 124 47 205 116 39 175 100 36 123 72 26
89 54 16 81 53 20 73 58 29 87 67 36 84 62 32 70 47 20 59 35 9 55 30 5
41 22 3 27 16 2 17 10 0 20 12 2 34 20 3 45 26 3 52 29 3 55 30 4
59 31 5 57 31 3 55 31 5 56 32 6 57 33 7 56 33 7 55 34 7 55 34 7
56 33 7 57 33 7 56 33 6 51 29 6 45 25 4 38 21 2 34 19 3 31 18 2
30 18 1 41 20 2 41 22 2 44 24 3 43 26 4 47 30 8 48 34 12 51 37 16
54 39 17 56 41 18 59 43 17 62 44 18 63 44 15 62 42 16 51 35 11
30 20 5 21 14 2 36 24 8 38 28 11 48 40 21 93 75 46 119 97 60
128 103 65 116 92 54 119 94 53 156 125 80 183 150 104 197 164 119
199 165 121 190 157 112 176 144 98 158 128 83 148 120 78 167 135 90
175 119 70 173 87 32 163 68 14 161 63 10 158 59 7 143 49 1 138 45 2
136 45 3 142 48 1 158 60 6 170 69 11 183 81 18 211 106 31 233 129 46
237 139 55 221 137 60 163 104 46 109 74 33 78 59 32 72 50 21 63 38 9
58 32 7 45 25 4 30 17 2 18 11 1 25 15 3 41 26 6 52 32 8 57 33 6
49 26 2 48 24 3 54 29 2 57 29 4 55 29 4 55 30 5 56 32 6 57 34 7
58 34 8 58 34 8 59 35 9 59 35 9 57 34 8 50 30 5 42 24 3 37 21 4
32 18 2 29 16 1 49 22 2 47 22 2 45 23 3 45 26 3 47 29 6 49 33 10
52 37 16 55 40 18 56 41 18 62 45 18 70 48 19 74 50 19 73 49 18
60 40 14 33 23 7 22 15 2 35 23 7 37 27 11 48 40 20 90 72 42 118 94 58
129 104 65 119 96 57 119 95 55 153 122 77 179 145 100 192 159 114
194 160 115 187 152 107 172 138 93 154 127 85 163 121 72 151 74 25
128 39 0 129 40 0 132 43 3 138 47 5 147 54 10 143 50 7 130 42 4
126 41 4 125 40 3 125 41 3 127 41 3 135 43 3 141 47 2 156 57 4
192 83 15 233 127 45 255 163 78 226 139 64 151 95 40 84 51 16 58 33 9
61 35 9 50 28 5 33 20 3 19 12 2 27 17 4 48 31 9 64 40 11 67 40 8
77 41 2 83 43 1 59 29 2 50 24 3 57 29 3 53 28 3 53 28 3 56 31 5
58 34 8 59 34 8 60 35 10 60 35 10 61 37 11 55 34 9 48 30 8 48 31 11
46 31 9 42 29 9 90 41 0 125 62 0 93 46 0 45 24 2 46 29 6 49 32 10
50 35 14 52 37 16 52 37 15 57 40 14 69 45 16 74 49 17 71 47 15
59 39 12 35 24 7 23 16 2 36 23 7 37 27 11 49 40 20 95 75 44 123 97 61
134 107 67 125 101 62 119 97 58 146 118 75 172 139 94 183 150 105
184 153 109 183 152 108 175 142 97 172 121 69 141 62 15 110 30 0
123 41 4 126 41 4 128 41 4 134 43 5 142 48 6 145 50 6 137 45 4
127 41 4 124 40 4 127 42 4 128 43 5 128 41 3 127 41 4 133 44 4
144 47 3 164 60 4 217 112 31 253 157 73 254 150 64 206 116 41
135 71 17 62 33 6 55 32 8 37 22 3 21 14 1 30 19 3 58 36 10 76 45 12
122 70 10 185 105 16 197 112 19 173 96 12 90 45 2 49 24 2 51 24 1
46 23 2 48 25 3 53 29 3 57 31 6 59 33 8 60 35 9 62 38 11 60 39 14
58 41 16 68 50 24 84 65 34 91 71 39 206 117 23 234 146 48 214 130 36
82 43 3 43 26 6 49 32 11 48 32 12 47 32 11 45 30 10 46 30 8 55 34 10
63 40 12 62 40 12 54 36 10 35 23 6 24 16 2 38 24 7 37 27 10 49 41 20
96 77 45 123 98 61 134 105 66 127 101 62 119 99 60 138 113 72
155 128 86 172 143 101 194 147 97 196 132 75 176 97 42 141 54 7
102 27 0 118 39 4 125 40 3 124 38 3 123 38 3 123 38 3 135 45 4
141 48 5 136 45 4 131 42 4 128 41 5 126 41 4 128 42 5 131 42 5
127 39 3 127 40 4 136 46 4 142 47 4 162 59 3 215 110 33 246 148 65
232 124 40 238 131 43 149 82 23 56 29 5 41 26 6 24 16 2 37 24 5
67 42 13 94 56 14 181 104 21 214 124 30 211 122 30 217 124 26
185 100 11 75 35 1 40 19 1 38 18 2 38 19 2 45 23 2 52 26 3 56 30 4
59 33 6 62 36 9 65 44 17 70 53 27 86 68 38 113 92 57 129 103 67
240 160 73 239 161 77 246 164 72 132 76 15 40 22 2 49 32 9 47 31 10
45 30 10 44 28 8 42 25 4 44 27 4 50 30 7 54 34 9 54 35 10 37 24 6
25 16 1 38 25 7 37 27 11 46 39 21 93 75 43 123 97 59 129 102 64
123 99 62 120 98 61 132 109 70 152 126 85 168 109 60 166 74 20
156 59 6 131 41 0 107 31 0 111 35 4 126 40 3 118 35 2 117 35 3
118 36 3 117 36 3 129 41 4 136 44 4 136 45 4 135 44 5 132 42 4
128 42 4 128 40 3 129 41 4 131 42 4 123 38 3 128 41 4 130 41 4
135 43 3 160 58 3 219 113 34 234 135 51 213 102 21 242 138 52
155 82 23 41 19 0 26 18 4 42 28 8 73 46 15 102 60 16 185 107 24
215 124 30 210 120 27 209 119 25 201 110 14 119 57 1 38 18 1 27 13 0
31 15 1 39 20 1 47 24 1 54 28 3 59 32 3 61 34 7 63 41 14 74 57 30
101 84 51 130 108 72 147 120 85 238 158 73 234 155 70 243 160 68
119 67 13 39 22 2 50 31 8 49 31 8 52 32 7 53 31 6 55 31 4 61 34 6
64 36 7 66 39 9 65 40 11 44 28 7 25 17 2 41 25 8 38 28 11 43 36 18
81 65 38 112 89 54 117 94 58 113 92 56 112 92 57 135 112 72 153 89 41
138 45 0 138 47 4 139 49 10 128 44 7 120 40 5 126 41 3 117 35 1
111 31 1 113 32 3 115 34 2 119 37 3 124 38 3 129 41 4 135 43 4
138 44 5 134 43 6 130 41 5 132 42 5 131 41 5 131 42 5 128 40 5
126 39 4 122 38 3 127 40 3 139 46 3 170 65 5 221 116 33 226 123 38
228 122 38 255 154 64 139 70 16 25 14 1 45 31 10 76 49 18 96 59 19
146 86 20 211 121 30 217 125 32 216 124 29 191 102 11 115 55 1
38 19 2 23 11 1 30 15 1 40 21 2 49 26 3 54 28 3 57 30 4 58 31 4
59 35 9 67 48 22 97 78 46 134 111 75 154 127 92 240 163 77 248 166 75
202 126 39 66 32 1 42 26 6 49 30 5 52 32 5 62 34 5 68 35 5 72 36 4
78 40 5 82 44 7 85 48 10 78 45 11 50 30 6 27 18 3 42 26 8 37 28 10
43 36 17 72 59 34 94 76 45 102 84 51 98 81 48 111 90 53 141 78 31
126 38 0 131 43 4 136 48 8 137 48 8 134 46 7 122 39 4 108 31 3
106 31 3 109 32 2 113 33 3 113 32 2 115 35 3 118 36 4 120 37 3
126 39 5 129 41 3 130 41 4 131 41 4 133 43 5 133 42 4 135 44 6
136 44 5 134 43 5 127 40 4 126 39 3 134 43 4 150 50 4 179 72 6
211 102 22 224 118 33 245 149 63 247 140 50 103 51 10 28 21 6
75 50 20 89 59 24 95 61 22 135 79 21 175 101 25 176 99 19 146 73 6
79 40 3 35 18 2 28 14 1 33 17 1 43 24 2 54 29 3 56 30 3 53 28 3
52 27 2 54 31 5 69 49 21 94 73 40 123 96 59 143 112 74 182 112 31
168 100 24 77 39 0 39 21 2 44 26 3 48 28 3 54 30 3 66 34 4 76 37 3
83 39 3 91 43 4 95 49 8 97 52 11 83 47 10 52 31 5 29 18 3 41 27 8
37 27 10 43 36 18 73 58 33 92 74 43 96 80 47 100 82 48 127 67 25
117 34 0 116 35 2 121 39 3 120 38 3 118 36 3 112 33 2 102 29 2
101 28 2 105 30 2 105 30 2 108 32 3 110 31 3 114 33 3 116 34 3
119 35 3 119 36 3 120 37 4 123 39 4 129 41 5 132 42 5 136 44 5
139 46 5 138 46 6 139 46 5 139 46 6 136 44 4 137 45 4 140 46 4
153 55 5 180 74 8 220 112 27 248 152 67 231 125 41 224 122 38
84 48 12 60 44 20 86 59 27 82 56 25 74 50 20 83 52 16 91 54 15
82 48 13 56 34 8 41 22 3 29 15 1 34 17 3 44 24 2 51 28 4 51 27 3
49 27 1 44 23 0 51 30 5 83 58 24 115 85 47 135 101 61 140 106 65
48 21 0 40 18 0 34 18 2 39 21 2 42 24 1 49 29 4 56 30 4 65 35 4
75 37 4 83 39 2 88 42 4 91 47 6 93 49 9 81 45 10 51 29 5 29 19 2
40 26 7 36 27 10 43 37 18 74 60 35 94 76 45 101 84 52 123 68 29
114 32 0 99 28 1 111 33 2 108 31 2 101 28 2 96 26 2 96 27 1 96 27 2
98 28 2 102 28 2 104 29 3 107 31 3 111 32 3 112 33 3 113 34 3
115 35 3 113 34 3 114 34 4 113 34 4 116 35 3 121 37 4 126 40 4
126 40 3 131 43 5 138 46 5 143 48 5 146 50 6 147 50 7 142 47 5
142 48 3 158 57 4 213 104 23 249 150 64 222 123 44 217 99 15
215 120 38 77 51 20 82 61 31 86 62 30 77 53 23 73 47 20 77 49 20
82 52 21 72 43 13 48 27 5 26 16 1 44 23 2 93 46 2 104 52 2 72 37 2
45 24 2 42 22 1 56 33 7 100 69 31 132 97 55 149 113 71 151 116 74
36 19 3 37 20 2 36 19 2 36 19 3 43 24 1 45 25 2 51 27 2 57 30 2
63 32 3 66 33 2 68 34 3 73 37 3 76 40 6 69 38 7 45 25 5 27 18 3
40 26 7 36 27 10 43 37 17 79 64 37 101 85 53 121 77 38 114 35 1
96 26 1 96 27 2 106 30 2 105 29 2 95 25 2 88 23 3 90 24 3 93 26 2
97 26 2 98 26 3 104 30 3 108 31 3 105 31 3 104 31 2 101 30 3 97 27 2
89 26 2 76 21 3 71 20 2 71 19 2 75 20 3 81 22 2 88 26 3 100 29 3
110 33 3 123 39 4 140 48 6 152 54 7 156 58 7 152 55 6 156 56 4
194 86 12 238 135 48 240 143 61 197 82 6 238 123 34 173 102 37
77 59 30 93 67 32 86 60 26 88 57 22 98 62 23 103 65 26 88 53 17
58 34 8 30 17 1 84 41 1 129 64 2 139 69 3 130 64 4 67 34 2 41 21 1
62 36 9 115 79 39 146 109 65 158 122 79 159 122 80 33 16 1 33 17 2
34 17 2 35 18 1 42 21 1 101 52 3 152 80 6 139 71 6 74 39 3 53 28 3
55 30 1 56 31 2 61 33 4 59 34 6 40 25 4 26 18 2 39 25 8 36 26 9
44 36 17 80 67 40 115 82 44 120 43 5 101 27 0 95 26 1 95 26 2
104 30 2 104 29 2 92 25 1 89 24 2 90 24 3 93 25 3 100 28 2 100 29 3
102 29 3 97 27 2 86 24 2 75 21 2 61 17 2 40 12 2 33 8 0 49 16 2
58 21 3 61 22 3 62 21 3 57 18 3 45 12 0 38 10 0 48 14 1 63 17 2
86 25 3 115 37 4 145 52 6 165 65 9 180 77 10 186 78 7 220 112 27
247 155 71 216 108 29 226 114 29 233 137 54 101 69 31 101 72 36
102 68 29 104 67 25 113 73 29 116 76 31 100 63 21 66 40 10 37 20 3
98 49 3 126 64 5 134 70 8 139 73 8 96 51 5 43 23 1 63 38 11 118 82 42
155 116 73 167 129 86 160 124 82 30 15 1 34 17 2 44 21 1 50 21 1
107 53 4 201 108 8 200 106 6 205 108 7 151 80 6 49 26 2 48 27 4
43 24 3 50 27 2 46 26 3 35 22 4 26 17 2 38 25 8 36 26 9 43 36 17
82 65 37 118 51 13 107 28 0 101 29 3 97 27 1 95 26 1 103 29 2
101 28 2 90 24 2 88 24 1 90 24 2 94 26 2 96 27 2 93 27 2 83 23 3
66 17 2 42 11 2 24 7 1 14 6 1 29 12 2 99 49 17 145 79 34 156 89 44
162 92 47 163 93 47 156 87 42 140 78 38 97 47 17 52 22 5 31 14 5
30 10 3 44 12 1 76 22 2 121 39 5 165 65 9 177 74 8 187 80 6
239 141 55 250 161 79 238 135 49 253 154 68 161 102 43 106 74 36
116 77 34 117 74 29 127 83 35 127 84 35 106 67 23 73 45 11 34 20 2
86 46 4 132 71 11 136 75 16 143 79 18 100 56 11 44 25 4 64 40 12
115 80 39 151 112 69 164 125 82 154 116 74 34 17 1 45 21 1 64 29 1
78 31 1 167 86 6 200 108 8 190 102 8 198 107 9 174 95 10 87 44 3
99 49 3 117 61 5 157 89 9 140 78 7 53 30 4 23 15 3 39 25 8 37 26 9
42 37 19 97 54 19 111 32 0 100 28 2 101 28 2 97 27 2 97 27 1 108 31 1
104 29 2 88 23 3 87 23 2 88 24 3 87 24 2 82 22 2 65 17 2 41 12 2
17 6 1 12 7 1 22 12 3 39 17 3 124 63 24 174 102 51 177 108 61
181 116 69 186 121 74 188 126 80 187 125 78 188 123 78 178 110 63
132 65 25 82 34 10 55 27 11 41 21 9 31 12 4 54 14 1 104 32 3 140 48 4
164 62 4 215 105 17 246 147 61 249 155 73 255 163 78 195 123 54
112 76 34 120 79 34 117 75 28 132 87 37 130 87 38 107 69 25 78 48 13
35 21 2 62 37 7 127 75 18 146 87 26 142 85 25 83 52 14 44 27 7
63 41 13 117 81 41 148 109 66 158 119 76 146 106 62 40 19 1 56 25 1
79 34 2 87 35 1 163 84 6 207 115 13 199 109 12 210 117 16 165 89 11
121 56 0 154 79 5 220 128 21 223 129 19 230 133 15 155 87 8 25 14 2
39 25 8 35 27 11 60 39 14 109 38 4 102 29 0 104 30 1 103 30 1
101 28 1 107 30 1 115 33 2 102 28 3 83 21 2 82 21 2 78 21 2 71 19 1
51 14 2 24 7 2 11 5 1 20 10 2 34 17 5 40 18 4 91 41 11 163 93 43
178 109 60 184 114 65 189 122 75 190 126 79 191 128 82 196 135 90
195 135 91 192 129 85 180 111 63 140 70 25 89 35 9 75 34 13 77 36 14
59 24 9 51 15 6 91 27 2 137 46 3 179 73 6 222 115 27 243 142 55
255 157 72 218 134 55 117 78 33 120 78 33 114 73 27 129 85 35
130 85 38 109 70 27 78 49 14 38 23 3 54 35 10 98 65 25 126 83 34
115 77 30 79 53 19 50 32 8 65 44 15 121 86 45 151 111 67 156 115 70
135 95 48 43 22 0 61 29 1 87 38 2 91 39 2 116 54 2 187 101 11
197 108 14 161 86 8 128 62 4 123 58 1 186 105 19 225 135 32
210 123 21 215 125 18 189 109 11 34 19 1 37 23 7 36 28 11 76 37 7
108 31 1 100 29 2 106 30 2 106 30 2 110 32 1 115 34 1 112 33 2
91 24 2 77 20 2 71 18 1 62 17 1 40 11 2 14 5 1 15 7 1 25 12 2 35 16 4
40 17 5 61 23 5 134 65 21 170 100 48 184 114 63 190 122 73 196 135 91
194 131 85 196 133 87 197 136 92 196 136 91 194 131 87 189 124 78
179 108 58 137 67 22 85 31 4 85 37 14 130 60 21 113 52 17 60 20 10
85 25 3 141 47 2 206 96 16 240 138 47 250 149 61 223 139 60 121 79 32
117 77 31 109 70 25 120 79 34 125 83 37 105 70 27 77 49 15 36 23 2
59 39 11 103 70 30 122 84 40 119 83 37 92 61 25 55 35 11 68 45 18
124 89 49 155 115 71 157 116 71 130 91 46 42 21 1 53 26 1 72 34 3
79 38 2 73 37 4 82 43 4 83 44 4 70 38 6 119 60 8 126 60 3 189 107 20
229 138 35 212 124 20 227 133 18 154 89 9 20 12 2 38 24 7 40 29 10
93 35 5 104 29 3 98 28 2 103 28 1 106 31 2 113 33 2 111 32 1 98 27 2
77 20 2 63 16 1 51 13 2 29 9 1 11 5 1 21 9 2 25 11 2 34 16 4 34 14 2
44 16 1 106 46 12 157 85 35 177 106 54 190 121 71 194 127 80
195 134 89 195 130 85 199 135 91 199 137 94 199 139 95 195 130 84
193 128 83 191 128 83 178 107 57 139 68 21 77 27 4 94 38 15 194 96 27
178 97 35 88 34 16 100 28 0 203 97 18 241 138 44 242 140 51
247 154 67 143 89 35 100 66 26 94 60 19 107 72 28 120 82 36 106 70 28
76 49 15 36 23 2 61 41 13 105 72 29 132 90 40 128 88 38 95 64 25
58 37 12 68 45 18 125 89 49 156 117 74 161 120 77 134 95 53 34 18 1
39 20 2 51 28 5 59 35 7 61 38 11 54 37 14 49 36 14 49 35 13 88 51 12
121 63 10 137 73 8 193 111 19 211 123 20 183 104 13 62 34 3 17 12 2
34 23 7 54 32 7 107 34 2 95 26 2 95 26 1 96 28 1 97 28 1 99 28 0
94 25 1 78 20 1 64 17 1 49 12 2 22 7 2 9 4 1 23 10 1 25 10 1 31 13 3
29 12 3 33 11 2 87 36 6 154 83 33 178 110 58 185 117 66 194 129 83
198 138 94 200 141 100 199 139 96 198 138 95 198 132 88 199 137 95
198 136 91 197 135 92 195 134 91 189 126 80 178 111 60 133 65 20
64 21 4 101 38 12 215 115 35 212 124 51 103 36 13 176 76 9 242 135 39
236 130 38 245 148 62 145 90 32 138 87 29 149 91 26 127 82 28
120 82 36 110 72 29 78 50 16 37 23 2 59 38 11 132 85 29 183 115 43
182 112 39 121 75 22 57 37 11 68 45 17 125 89 49 157 118 75
162 122 79 139 102 58 26 14 1 28 16 2 39 25 6 47 34 11 55 41 16
60 46 20 63 48 21 57 44 19 50 38 15 57 39 11 57 34 7 79 42 3 90 49 4
57 30 2 26 16 2 22 14 1 30 22 7 72 32 5 105 30 1 91 26 1 86 24 2
88 25 2 85 23 2 80 22 1 72 18 1 57 15 0 44 12 1 19 7 1 9 5 1 19 8 1
24 10 2 29 11 2 28 11 3 26 8 3 72 26 4 144 74 27 179 113 62
186 121 70 191 127 78 196 134 87 200 140 97 200 141 100 198 139 96
195 134 90 194 128 83 195 133 89 195 130 85 195 131 86 195 132 87
192 131 88 184 123 77 163 94 44 99 42 6 48 14 4 118 44 11 228 130 44
212 129 59 169 73 16 238 130 36 228 119 26 237 138 51 184 113 40
201 123 43 211 128 45 201 124 43 146 96 36 107 71 27 82 52 16 37 22 4
72 44 10 174 104 32 195 120 46 199 121 43 178 102 24 77 46 9 65 43 18
125 89 49 158 119 75 162 123 80 141 105 61 22 12 1 25 16 2 36 26 8
47 37 14 62 49 23 72 58 31 76 60 32 72 58 29 64 50 23 51 37 13
47 31 9 49 31 6 52 31 4 50 30 4 34 20 3 19 13 1 34 22 6 92 33 4
96 26 1 88 25 2 82 23 1 78 21 1 72 19 2 67 18 2 58 15 1 43 12 1
17 6 1 11 6 1 19 8 1 20 9 1 27 11 2 27 11 3 25 9 3 59 21 2 127 62 20
175 106 54 168 105 58 166 105 59 162 102 58 168 108 62 178 116 71
186 123 77 189 125 79 188 122 74 188 124 77 191 127 80 189 121 74
189 122 74 188 122 74 187 121 75 185 123 76 175 109 60 145 77 29
77 31 4 53 18 7 139 56 14 229 135 54 218 128 47 222 115 25 227 116 22
219 125 38 186 114 43 201 123 47 201 123 46 211 130 50 196 122 48
116 76 29 84 53 18 36 22 3 82 48 10 179 105 32 192 118 44 197 120 44
190 109 29 107 61 11 63 42 18 126 90 49 157 118 75 162 123 81
143 106 64 22 12 1 27 16 2 40 28 9 53 41 16 69 55 27 82 65 35
85 68 38 82 65 35 72 55 24 57 39 13 50 32 7 56 34 5 62 35 4 58 33 4
35 21 2 17 12 2 38 23 4 97 32 3 92 26 2 85 24 2 83 24 1 82 23 1
73 20 1 62 17 1 50 14 2 22 7 1 10 5 1 26 11 1 18 8 1 24 10 2 29 11 2
27 10 3 53 19 3 114 54 14 159 93 43 135 75 33 116 58 23 100 49 19
90 43 15 81 38 11 92 43 15 111 56 22 131 69 29 152 85 38 174 103 52
183 114 64 182 111 61 180 108 59 172 103 52 156 90 45 139 80 39
118 68 33 95 52 21 82 37 8 40 15 0 48 16 4 161 68 19 241 151 69
214 116 32 220 106 13 195 109 31 165 102 39 201 122 45 198 120 43
204 126 49 208 129 51 127 83 32 83 53 18 40 24 6 69 41 8 173 102 31
198 121 45 198 123 48 197 115 34 107 62 12 62 42 17 126 89 48
157 118 75 163 124 81 144 107 65 23 13 1 26 15 1 36 24 6 48 36 12
63 49 22 76 60 29 81 63 31 81 60 27 75 52 18 58 37 8 50 30 5 56 32 5
63 37 4 59 36 5 36 22 3 15 11 1 43 23 3 99 32 2 87 24 0 84 24 1
86 24 1 83 22 2 74 19 2 56 16 1 32 10 1 11 5 1 28 12 1 23 9 2 19 8 1
30 12 2 38 14 3 53 18 1 97 43 7 139 72 25 131 69 27 126 69 31
112 61 32 95 51 25 90 48 25 81 42 22 69 35 19 68 33 15 87 39 11
122 58 15 154 83 33 169 99 48 170 98 48 165 91 41 138 70 25 101 46 11
72 32 9 53 23 7 60 29 12 71 37 17 63 30 14 28 14 8 37 9 3 154 73 25
237 146 64 224 118 27 156 84 20 127 81 30 193 116 40 203 122 45
211 129 50 192 120 47 111 73 27 79 51 17 39 24 6 52 34 10 130 81 27
193 121 47 206 128 52 173 104 31 69 45 12 64 44 18 123 88 47
155 118 74 162 124 82 143 108 65 23 14 1 26 15 1 35 22 3 43 29 6
54 39 12 68 49 18 78 55 20 81 55 18 77 49 11 61 37 5 54 31 4 62 36 4
74 43 6 66 39 5 36 22 3 15 10 1 37 22 3 90 30 2 86 24 1 86 24 1
84 23 1 79 21 1 69 18 2 41 11 0 16 5 1 28 11 2 29 12 2 16 7 2 29 12 3
38 14 3 47 17 3 68 27 3 102 48 13 98 48 18 82 37 15 81 39 19
106 56 24 132 74 33 139 78 35 133 72 29 119 61 22 103 50 18 80 39 17
111 52 14 156 80 26 175 100 45 180 105 50 157 83 32 123 57 14
82 37 12 70 35 17 105 57 25 134 78 38 140 82 39 102 53 23 56 30 17
50 29 21 43 12 4 185 99 36 239 151 65 148 80 21 94 61 22 119 74 25
152 94 33 164 104 40 132 87 36 99 67 27 74 49 16 35 23 5 54 36 10
98 67 26 136 94 42 147 99 44 101 68 27 55 38 15 66 45 18 121 87 48
154 117 74 162 125 83 142 108 65 24 15 0 28 16 1 41 24 2 56 34 4
59 39 7 65 42 9 74 47 10 80 49 8 79 47 5 67 38 4 60 34 3 74 43 4
93 53 8 87 50 6 45 26 2 16 10 1 26 19 3 76 28 1 86 25 1 78 21 1
77 21 1 73 20 1 54 14 1 23 7 1 25 10 1 31 12 2 23 9 2 33 12 2 30 11 2
24 9 2 34 14 4 52 21 7 54 22 10 37 14 7 44 14 5 106 51 16 116 57 18
94 44 12 80 41 16 71 37 18 79 35 9 112 50 10 128 61 16 79 36 14
90 43 15 95 48 22 103 53 25 98 47 16 76 36 14 83 38 13 125 58 16
139 73 28 144 77 31 150 79 30 111 52 14 26 9 0 54 25 12 45 23 13
54 18 3 211 133 64 195 122 55 128 74 26 85 54 19 75 49 16 91 62 25
107 74 33 99 66 28 72 47 16 33 22 5 57 38 13 107 72 31 127 89 45
120 86 44 89 64 31 55 39 16 65 45 18 121 87 48 154 117 75 162 125 83
143 108 66 24 15 1 33 19 1 59 35 4 77 46 6 81 50 8 73 46 9 78 47 8
86 51 7 85 49 5 75 43 4 70 40 4 92 52 7 105 60 9 96 54 6 58 31 3
18 11 1 21 17 3 60 25 3 82 23 2 74 21 1 73 21 2 65 17 1 42 12 1
32 11 2 32 12 2 33 13 2 37 14 3 27 11 3 28 10 2 79 31 2 116 50 6
129 60 10 140 72 19 76 35 12 69 30 11 90 39 10 44 15 2 58 33 16
44 28 15 18 10 3 29 12 4 73 26 4 128 61 16 120 63 21 29 8 3 83 34 10
93 34 9 37 11 3 52 22 7 122 59 17 92 49 21 56 32 16 47 21 9 71 29 7
93 40 8 22 9 2 26 10 1 57 30 15 67 21 5 191 94 24 241 155 70
166 102 45 103 59 18 82 51 18 92 60 25 106 71 32 94 62 26 68 45 15
32 22 4 59 38 12 100 67 30 122 87 45 121 87 46 92 67 32 54 39 16
63 45 17 121 87 47 155 118 76 162 125 84 144 109 69 23 15 1 39 24 2
66 39 6 79 47 7 90 55 9 85 53 11 85 53 10 96 58 9 91 54 7 79 46 6
77 44 5 99 58 9 108 63 11 99 55 8 57 32 2 18 11 1 24 18 3 37 23 5
70 21 2 67 18 1 66 18 1 57 16 0 39 12 2 31 12 1 38 15 2 35 14 3
19 8 1 11 5 1 50 20 2 119 55 9 144 70 17 152 79 24 160 88 27
109 56 22 91 40 13 99 43 9 79 35 9 111 60 27 91 53 27 68 34 14
81 39 16 105 49 17 156 90 38 122 68 29 68 28 10 181 109 60 187 113 64
86 34 9 88 43 17 129 71 34 105 67 39 39 16 4 36 16 5 38 15 3 77 33 7
21 9 2 36 11 0 64 31 16 97 38 9 173 66 2 229 133 51 221 139 62
134 76 25 108 64 22 87 56 21 98 65 28 89 58 22 64 41 13 33 21 4
57 36 11 96 65 28 117 84 45 115 83 44 90 65 32 53 38 16 64 44 18
120 88 50 153 118 78 161 126 86 146 111 71 23 14 0 40 24 3 63 38 6
78 47 8 90 56 12 87 55 12 90 57 11 101 63 12 95 59 11 82 49 7 74 44 6
92 54 8 108 63 11 97 55 9 50 29 3 17 11 1 23 17 2 28 22 6 51 26 5
66 19 0 63 17 1 52 16 2 28 11 1 36 13 2 32 12 2 15 7 2 13 6 1 18 7 1
78 33 4 139 65 13 156 78 22 165 87 31 174 98 38 128 67 28 118 58 23
157 83 28 151 79 27 148 78 29 142 72 28 139 71 28 132 63 24 142 76 34
167 100 51 96 50 22 87 40 17 184 110 60 203 132 86 106 50 25
112 63 34 152 82 38 149 79 35 148 83 41 137 76 34 113 54 15 107 50 13
26 12 3 32 8 0 74 36 18 59 22 7 146 50 1 195 95 22 241 148 59
174 106 45 113 63 19 103 62 20 93 61 23 81 52 18 57 36 9 29 19 2
51 34 10 93 63 28 112 81 42 110 81 42 85 62 31 52 38 17 64 44 19
120 87 49 153 119 78 162 127 87 145 111 72 22 15 0 32 20 2 57 36 5
73 46 10 81 53 13 83 54 13 95 60 15 104 65 16 97 61 13 83 51 9
70 43 7 75 46 9 91 56 11 80 50 10 40 25 4 16 11 1 34 20 3 27 20 5
36 28 11 65 30 6 59 18 0 36 13 2 31 12 1 31 13 2 14 7 1 14 7 1 16 7 1
30 11 0 95 42 6 153 76 21 161 82 26 164 84 28 179 99 42 158 84 39
136 64 29 172 97 44 164 94 43 155 85 38 149 81 39 149 84 41 156 91 50
169 106 61 163 97 53 73 32 15 130 64 27 183 96 41 209 136 89
157 91 54 122 64 36 159 92 47 145 74 30 147 74 26 152 82 32 156 83 33
148 73 22 41 17 3 26 9 2 89 44 23 72 20 2 127 44 3 172 67 1
220 125 39 206 125 51 119 67 20 92 53 15 99 62 21 73 47 16 50 32 8
26 19 2 44 31 10 79 56 25 101 75 39 98 73 39 78 58 29 51 38 16
63 45 19 120 87 49 154 119 78 162 127 88 145 111 74 23 16 0 27 18 1
40 27 6 52 36 10 60 43 11 75 51 14 91 59 15 99 64 17 93 59 14
76 49 10 65 41 7 65 42 10 73 48 12 66 43 11 39 26 5 15 12 1 48 25 4
37 21 3 40 25 7 64 33 7 51 19 1 31 12 1 32 13 2 18 8 1 14 7 2 13 6 2
38 15 2 55 22 1 106 50 10 155 80 25 155 77 21 164 84 27 176 97 40
183 103 49 140 64 29 171 91 43 181 108 58 182 111 66 182 112 68
181 114 70 181 115 73 190 119 71 146 82 46 82 37 18 172 92 40
180 94 41 205 135 90 196 124 79 130 62 34 186 122 75 172 106 62
170 104 59 177 109 64 177 105 59 179 95 39 79 33 7 47 25 15 70 32 16
73 20 0 109 36 3 156 54 3 200 94 11 225 133 49 145 81 26 89 53 16
94 59 20 71 45 15 47 30 8 28 19 2 44 32 11 74 53 25 94 71 37 95 72 39
75 56 27 49 37 15 61 44 18 119 87 49 154 119 78 162 128 88 146 112 74
25 16 1 28 19 3 32 25 6 36 31 8 52 38 12 65 45 14 75 52 13 83 56 14
79 52 13 66 43 9 57 38 8 60 41 11 68 47 14 61 42 12 38 25 5 19 13 1
21 14 3 54 27 3 69 32 3 54 25 2 43 16 2 37 14 1 25 11 1 15 6 1 13 6 3
12 4 0 66 29 4 84 35 3 104 48 10 152 77 21 156 80 24 166 86 30
174 93 37 186 104 48 164 86 43 139 65 33 189 114 64 195 118 71
193 122 75 193 121 75 193 119 70 177 107 60 101 49 28 141 71 30
179 95 39 183 98 46 199 125 79 220 152 105 148 68 32 158 88 52
200 130 80 189 120 73 192 121 73 198 128 81 207 130 76 146 76 30
65 37 22 31 10 2 59 18 2 91 26 2 144 49 4 190 82 2 212 112 25
193 112 39 109 64 19 90 56 20 75 46 15 46 29 8 30 19 3 45 32 11
74 55 25 95 71 38 95 71 38 75 55 28 49 35 16 61 43 18 117 86 48
153 120 78 161 128 88 146 112 74 26 17 2 28 19 3 32 25 6 35 30 9
45 35 12 53 38 11 61 42 11 67 46 11 64 43 10 56 38 9 50 35 8 55 40 11
64 47 15 58 41 14 37 26 7 16 12 2 28 16 3 67 31 4 70 33 3 45 21 2
46 17 2 42 16 2 22 9 1 19 8 2 13 6 1 36 15 3 83 38 7 105 47 9
113 53 11 151 78 23 158 81 27 169 91 36 178 97 42 182 99 45
190 106 52 159 81 42 124 62 29 153 89 51 171 102 62 168 100 57
146 82 45 104 49 24 131 58 19 174 88 34 170 85 32 183 98 45
196 119 72 216 152 111 202 131 85 119 39 7 159 89 52 193 118 67
191 113 63 188 118 70 188 119 75 149 82 43 25 9 1 25 9 1 46 14 2
87 25 3 139 47 3 196 93 12 185 80 5 191 101 24 131 75 21 88 55 17
74 45 14 46 29 9 31 20 3 44 31 10 74 54 26 95 72 40 94 72 40 75 57 29
49 36 16 61 44 19 118 86 48 153 119 79 161 127 89 145 111 73 26 17 0
29 19 3 33 25 7 35 29 9 42 32 10 43 31 8 47 33 8 52 36 8 51 35 8
47 33 8 43 32 8 52 39 13 63 46 18 60 42 15 33 25 8 32 18 2 52 25 2
82 39 4 56 27 3 50 21 2 50 18 1 40 16 2 25 10 1 26 11 1 15 6 1
50 22 4 104 47 8 101 45 6 119 59 12 149 77 23 156 82 27 167 92 36
178 98 43 185 103 51 188 108 58 196 114 64 174 96 53 139 68 35
132 63 31 126 58 25 119 50 13 133 52 9 170 87 32 184 99 44 179 92 35
181 96 43 196 122 76 196 121 74 215 144 96 161 82 34 134 49 9
163 70 27 155 71 32 142 65 29 176 101 60 208 153 111 40 18 4 22 7 1
43 12 2 91 26 2 154 58 4 182 96 20 180 79 6 163 74 8 131 73 21
105 61 18 64 40 11 46 29 8 32 21 4 43 31 10 75 55 27 99 76 43
98 75 41 77 58 29 50 37 16 62 45 18 117 86 48 152 119 79 161 127 89
145 111 72 27 16 0 32 19 3 36 25 6 40 29 6 44 31 7 40 26 5 39 27 5
43 31 6 45 32 8 43 32 10 42 32 12 52 40 15 63 48 19 64 45 15 51 31 7
39 19 2 54 27 2 96 46 5 79 35 2 60 22 1 42 16 1 38 15 2 32 13 2
29 11 1 23 10 2 39 16 1 106 45 6 124 57 11 114 56 11 144 74 21
155 82 27 164 90 34 172 93 39 177 96 43 183 100 47 186 103 54
188 109 61 190 107 58 180 93 44 152 69 21 151 76 25 150 76 27
157 74 23 164 81 31 141 64 20 150 72 23 171 88 34 165 83 31 179 98 46
167 92 46 141 61 14 167 83 36 175 93 47 190 109 63 205 132 84
220 161 113 57 28 11 36 9 0 48 12 3 119 39 1 174 82 11 151 86 26
173 79 8 159 71 6 109 59 12 109 60 17 60 36 10 42 27 6 33 22 5
46 32 11 75 55 26 100 76 42 101 77 43 79 60 31 51 39 17 64 47 20
119 87 49 153 119 78 160 126 87 143 109 71 28 15 0 33 20 2 41 27 4
45 29 3 46 29 4 39 24 2 38 25 5 44 31 8 48 36 12 49 38 16 49 41 16
57 46 20 65 49 21 67 46 17 61 35 7 39 21 2 62 28 2 128 59 4 102 43 2
56 20 2 34 13 1 32 13 1 41 15 2 33 14 2 30 14 2 29 12 1 68 29 3
69 30 5 91 43 8 142 73 20 154 82 27 161 87 31 160 83 29 164 85 32
170 90 38 175 93 42 174 91 39 158 77 28 126 52 11 128 58 13 162 93 41
172 101 49 146 72 24 119 47 8 115 46 9 122 51 11 135 60 14 136 63 17
143 72 28 156 86 38 129 59 16 139 60 14 170 88 40 177 97 50
189 110 59 195 129 78 55 20 5 63 19 1 87 24 0 180 82 10 186 110 39
135 79 25 180 85 11 145 67 5 93 52 12 76 45 13 57 34 8 37 24 5
33 21 5 48 33 12 76 55 26 99 75 42 101 77 44 80 61 32 52 40 18
64 47 21 119 87 49 153 118 77 160 125 86 142 108 70 27 16 0 34 20 2
44 26 3 47 30 3 45 27 3 36 20 1 39 23 6 49 34 12 57 42 18 58 47 21
57 47 22 58 48 23 65 50 23 78 48 14 44 27 5 61 31 4 109 48 3 114 50 2
86 33 2 44 16 2 28 11 1 23 10 2 47 18 2 36 15 2 31 14 2 27 12 2
10 5 2 0 0 0 57 28 6 140 69 18 152 81 26 159 87 31 153 80 25
152 76 23 155 78 27 156 79 27 138 63 18 113 47 9 133 67 23 165 95 46
173 104 51 175 104 53 178 109 56 164 95 41 149 78 24 130 59 10
123 55 10 149 83 36 175 113 65 166 104 57 141 76 29 111 44 6
136 59 14 149 70 23 183 100 41 133 81 43 82 26 0 114 38 3 168 71 6
197 111 30 172 106 43 153 89 29 164 75 4 111 55 6 75 44 11 56 35 10
46 27 5 35 23 5 29 19 3 47 32 12 74 55 27 98 74 43 101 76 45 80 61 31
53 40 18 64 47 22 118 87 49 152 118 78 158 124 87 141 107 69 28 16 1
33 19 2 43 25 3 45 27 2 38 24 2 27 17 1 35 23 5 51 36 13 62 48 22
66 56 27 61 53 27 55 48 24 66 49 21 73 43 11 35 21 4 58 26 2 109 47 2
101 43 2 64 24 2 38 14 2 23 9 2 20 9 1 46 18 1 37 15 1 26 11 1
22 10 2 18 9 1 7 5 0 36 18 4 129 64 16 149 77 23 157 86 29 155 84 29
147 75 21 146 73 21 133 61 15 103 42 6 127 62 18 156 82 32 164 91 43
171 100 51 173 102 52 175 104 56 175 103 56 168 95 48 165 96 48
175 107 60 185 118 73 185 122 78 179 114 68 154 88 41 115 54 12
115 47 7 142 65 13 185 109 50 45 24 12 118 49 4 151 57 2 210 113 30
204 122 47 144 88 32 171 93 23 161 76 6 85 49 13 73 44 12 56 34 11
45 26 6 33 22 5 28 19 3 44 31 12 73 54 28 97 74 43 97 75 43 78 60 31
53 40 18 64 48 22 117 86 49 150 116 77 157 123 85 138 106 67 28 16 0
33 18 2 37 22 3 37 23 2 30 18 1 21 14 0 31 21 5 50 36 13 62 48 22
66 55 28 58 52 27 51 45 22 66 45 18 59 36 9 48 25 2 118 48 1 109 45 2
80 33 1 50 19 2 32 13 2 23 9 1 25 10 2 36 15 2 32 14 1 20 9 1 19 9 1
20 9 2 12 6 0 17 10 2 112 55 13 146 74 19 154 82 26 158 86 31
151 79 24 150 77 24 145 75 27 124 61 17 76 27 5 71 26 5 112 45 11
119 43 10 127 47 11 133 48 13 139 51 15 143 52 16 149 59 25 152 61 27
147 58 23 146 61 24 123 57 25 97 42 14 125 61 15 137 66 19 185 106 45
169 110 58 17 2 0 113 47 5 181 81 8 217 124 37 215 130 50 150 87 28
178 92 16 144 77 16 76 48 16 76 46 15 63 39 12 45 29 8 33 22 5
27 19 2 43 31 11 69 53 26 93 72 41 92 71 40 75 57 30 51 40 19
63 47 22 114 84 47 147 113 74 153 120 82 133 102 62 28 16 1 31 17 2
34 20 4 32 20 3 25 16 1 19 12 1 26 18 3 44 32 9 58 44 18 62 50 23
53 46 22 44 39 19 72 46 14 55 33 7 83 37 3 133 56 2 91 37 2 65 25 3
41 16 2 26 11 1 29 12 1 19 8 1 31 13 1 26 10 1 17 8 2 19 8 1 22 9 2
20 9 1 7 4 1 86 42 10 140 70 17 150 78 24 159 86 32 157 84 29
156 82 28 164 91 39 150 80 30 126 63 25 76 30 9 106 61 25 138 83 36
156 92 42 162 97 50 161 96 51 163 100 58 145 71 32 146 77 39
150 86 43 129 76 38 57 13 2 117 55 18 154 84 33 167 95 43 215 137 73
114 70 35 19 1 0 126 55 7 220 119 27 223 131 45 215 127 46 191 109 36
167 94 26 118 69 20 79 50 16 81 50 17 69 44 15 50 33 11 36 25 7
28 19 4 42 31 11 67 52 24 89 69 37 88 69 38 73 56 30 50 38 17
62 46 20 112 81 44 143 109 70 149 115 78 129 97 58 28 16 2 31 18 3
34 21 5 32 20 3 26 17 0 22 13 0 29 17 3 44 28 6 56 39 12 60 43 17
53 39 16 48 36 13 61 38 10 46 26 5 120 54 2 126 56 2 81 33 4 56 20 1
30 11 1 28 10 1 20 8 1 18 9 1 29 12 1 22 8 1 19 7 1 15 7 1 21 9 2
28 11 1 5 3 0 49 25 6 131 64 14 145 74 21 154 81 27 161 86 32
156 81 25 165 93 39 162 92 41 164 96 43 155 81 38 115 47 20 111 54 26
118 62 32 133 84 47 170 126 83 196 158 114 188 148 105 188 152 114
162 118 77 136 73 40 138 65 29 172 106 55 168 102 53 182 112 56
169 100 45 38 18 7 36 12 2 102 37 3 206 106 23 232 137 43 213 126 44
201 116 38 148 88 31 136 80 25 111 67 22 85 54 19 80 51 17 61 39 12
41 28 9 28 20 5 42 31 11 70 53 26 88 68 37 88 68 36 71 54 28 47 37 17
61 45 20 109 78 41 134 100 60 139 105 66 124 92 51 28 16 1 33 20 2
39 23 3 39 22 3 38 21 2 35 18 1 39 20 1 47 25 2 56 35 7 60 38 9
58 37 9 67 39 10 69 38 8 55 26 3 145 67 4 124 59 3 95 38 3 60 22 2
28 10 1 22 9 1 18 8 2 29 12 2 34 13 1 23 8 1 22 9 1 13 6 1 19 8 2
31 13 2 12 6 1 14 7 1 97 46 10 139 69 18 149 76 24 157 84 31
154 82 26 157 86 31 168 98 46 166 100 48 170 100 49 168 91 44
155 67 30 152 60 25 150 62 30 147 67 36 149 77 46 144 75 48 163 90 60
163 85 56 170 84 46 175 106 63 173 113 64 169 106 57 160 90 36
75 40 14 10 2 0 41 16 3 61 18 2 138 52 4 203 99 13 220 125 38
216 126 43 149 90 34 102 63 22 128 76 24 88 55 18 81 51 17 64 40 13
43 27 8 29 20 4 42 29 10 79 55 25 107 76 37 107 76 36 79 56 26
47 36 16 58 42 19 100 70 34 121 87 45 126 91 48 118 83 41 32 16 1
39 20 1 49 26 3 54 28 3 55 28 3 55 27 2 52 25 1 52 25 2 58 32 4
62 35 5 60 34 6 56 31 5 75 40 7 89 40 2 157 76 9 144 70 9 106 39 2
60 23 3 22 8 1 23 10 1 23 9 2 44 16 3 34 14 1 26 9 2 21 8 1 13 6 2
14 7 1 30 12 2 16 8 3 10 4 2 50 21 2 116 57 12 145 74 22 151 79 27
155 84 30 155 83 29 167 97 45 173 103 51 168 98 46 170 101 49
169 98 49 162 76 32 168 72 34 180 80 45 179 78 45 181 84 48 185 93 57
188 100 62 180 105 63 177 117 72 175 115 67 160 93 40 110 59 20
18 7 2 23 9 1 35 13 2 63 20 2 90 29 3 157 58 3 187 82 7 206 109 23
179 106 40 121 74 28 101 59 17 112 66 18 81 49 13 65 38 10 49 28 7
29 19 3 44 29 9 93 61 24 124 83 37 122 81 35 94 61 24 53 37 14
52 37 15 88 59 25 114 77 33 129 87 40 133 88 39 32 16 1 38 19 2
51 26 2 61 29 1 64 32 2 64 32 3 60 29 1 58 29 2 58 31 3 60 33 4
60 33 5 59 31 5 52 28 5 107 49 2 147 67 4 129 56 4 110 41 3 51 18 3
25 10 2 28 10 2 41 16 1 47 17 2 32 13 2 27 11 1 18 8 1 15 7 2 15 6 1
30 12 1 18 9 1 11 4 2 41 16 1 77 34 2 123 60 13 146 75 23 154 83 30
157 87 33 160 91 36 173 105 53 173 105 52 168 98 46 167 98 46
166 97 44 155 77 32 148 62 24 149 61 25 150 61 23 151 64 25 160 85 42
174 113 67 181 123 78 174 112 62 133 72 27 30 14 5 20 8 1 33 12 2
42 14 1 69 22 2 82 25 3 111 38 4 180 76 2 213 114 25 201 114 39
177 103 36 134 79 27 103 59 15 100 57 14 55 33 8 36 23 6 25 16 3
48 30 8 99 61 21 125 79 32 124 78 31 96 61 22 54 37 12 48 33 12
79 50 18 110 69 26 134 84 34 143 89 35 33 17 1 35 18 1 44 22 1
52 27 2 56 29 3 56 29 2 53 27 3 51 28 4 51 29 4 50 29 4 66 36 6
64 33 6 54 29 3 119 57 3 139 65 4 101 44 3 105 39 4 55 20 3 32 12 2
37 13 2 48 17 1 38 14 2 37 15 1 32 13 1 15 7 2 20 9 2 17 8 2 31 13 2
22 10 1 10 5 1 40 17 1 76 33 2 83 37 4 116 56 11 146 77 24 155 85 30
155 85 28 166 98 44 175 107 54 176 108 55 170 100 48 167 97 45
163 94 43 156 89 41 151 83 36 150 84 37 154 92 44 164 102 54
176 114 67 185 126 81 159 94 44 46 23 7 15 5 0 29 12 2 38 13 1
82 27 2 72 22 2 92 29 2 119 42 5 120 42 0 209 114 30 237 156 78
187 109 40 198 122 51 145 89 33 77 44 9 66 39 9 33 22 5 23 15 2
45 27 5 91 54 17 118 72 26 117 71 25 85 53 17 46 32 12 45 30 10
68 43 13 96 59 19 121 73 24 132 80 26 35 18 2 35 18 2 42 22 1 47 25 2
47 25 3 44 24 2 41 24 4 40 24 4 40 23 3 40 23 4 43 25 5 51 29 4
50 27 4 133 67 7 149 74 7 90 38 2 102 39 3 91 35 3 43 15 1 43 15 2
38 14 2 38 15 2 41 16 2 25 10 2 14 6 1 26 11 2 24 10 3 31 13 3 21 9 1
11 6 1 31 13 1 80 35 4 92 40 5 81 35 3 114 55 11 145 77 23 152 84 29
161 92 38 171 101 49 180 110 58 180 110 60 178 108 59 174 105 55
174 106 59 176 110 65 177 116 71 180 119 74 184 122 77 188 129 85
184 119 70 79 42 15 6 2 0 28 11 2 25 9 2 41 14 2 95 31 3 137 50 3
96 33 4 145 56 4 160 69 4 142 53 0 236 145 60 226 151 79 141 83 28
170 103 37 107 62 18 52 33 8 35 22 5 22 14 2 36 22 5 68 40 11
97 59 19 95 58 20 61 38 13 37 27 10 43 29 9 60 38 11 84 51 16
111 65 19 122 73 23 39 20 2 37 19 2 42 21 1 42 21 1 37 20 2 30 18 2
27 17 3 28 18 3 27 17 3 28 18 3 32 20 4 48 26 4 62 32 5 79 40 5
153 75 6 100 44 2 89 34 3 112 47 3 61 22 2 33 12 1 32 12 1 40 15 2
27 11 2 14 7 2 16 7 1 26 11 1 31 14 3 32 14 3 18 8 1 13 6 1 24 10 0
70 31 4 98 46 8 89 41 5 87 40 4 111 53 8 132 67 16 149 81 28
162 91 39 175 104 52 186 116 67 185 116 71 187 122 77 190 125 84
194 131 90 195 133 93 198 141 99 196 140 99 198 134 88 120 70 34
8 1 0 19 8 2 27 11 2 28 11 1 36 13 1 91 30 4 154 58 3 173 72 3
126 46 3 166 72 4 160 68 5 179 86 13 239 146 57 168 103 43 99 66 27
124 76 27 64 42 15 40 25 7 26 16 1 35 21 5 50 30 10 65 40 14 62 40 14
46 31 11 36 26 10 41 29 8 57 36 11 73 44 14 89 54 17 92 55 16 39 22 1
39 21 2 44 23 2 43 22 2 34 18 2 29 16 1 32 20 2 35 22 4 38 24 4
40 26 4 49 29 5 66 35 7 63 34 6 60 31 6 106 52 4 126 55 4 78 30 2
76 29 3 40 14 1 31 12 0 32 12 1 27 10 1 17 7 1 11 6 1 16 7 1 25 10 2
29 13 2 33 14 3 16 8 1 15 7 1 21 9 1 58 26 2 93 45 8 94 45 9 95 46 8
113 55 10 115 56 9 125 62 13 143 76 23 161 90 38 175 103 52
183 112 66 186 117 72 189 124 80 186 120 78 185 120 77 183 120 77
189 126 80 160 99 55 26 11 5 9 3 1 16 6 1 27 10 1 28 11 2 32 11 1
76 25 3 126 42 1 193 90 9 176 83 12 110 36 3 151 64 7 169 73 5
199 103 22 210 124 45 143 97 47 117 79 35 112 71 28 76 47 15 56 33 7
57 32 7 63 38 11 69 42 16 69 44 17 63 42 17 51 36 15 48 32 11
59 38 12 70 44 15 71 45 16 63 40 14 36 19 1 39 20 2 47 24 3 42 22 3
35 19 3 41 23 3 53 31 4 64 38 8 71 43 12 74 46 12 83 50 13 86 51 13
77 46 11 85 46 9 75 36 4 98 43 3 84 34 2 61 23 2 28 9 1 33 12 0
27 10 1 18 7 1 18 7 1 12 6 2 15 7 1 25 11 2 29 12 2 38 15 2 18 8 1
17 8 1 21 9 1 52 22 2 88 41 7 95 47 9 103 51 10 128 66 17 137 73 18
131 67 16 125 62 13 134 69 18 149 77 24 163 89 39 167 93 43 166 94 46
168 101 53 166 100 54 164 97 49 158 91 42 55 29 12 6 2 0 15 6 2
15 6 2 32 12 1 28 10 2 34 12 1 64 21 1 105 30 0 190 93 18 201 108 26
100 30 0 119 45 5 179 82 6 157 66 9 202 114 38 195 124 60 157 105 50
126 81 32 100 61 20 79 45 11 73 41 11 80 47 15 79 48 18 80 51 21
73 48 21 65 43 18 60 38 14 65 42 15 75 47 18 74 46 17 69 44 17
31 17 1 34 19 2 40 22 2 34 19 2 35 19 2 48 26 3 62 34 6 77 44 9
88 52 14 94 57 17 95 60 19 98 61 19 102 59 16 95 53 11 84 42 6
79 35 2 86 39 3 45 17 2 32 12 1 32 12 1 25 9 1 20 7 1 20 8 0 13 7 2
14 6 1 20 9 2 31 13 3 37 14 2 23 10 1 19 8 1 20 9 1 46 19 3 81 38 7
93 47 10 107 55 13 131 70 20 146 81 27 148 82 28 139 73 20 124 62 12
120 60 13 127 63 15 130 65 20 131 66 22 130 69 22 128 68 22 116 60 19
50 25 8 9 4 0 17 8 2 13 5 2 18 8 1 29 12 2 23 10 2 43 15 0 72 25 2
102 32 2 153 63 3 176 82 11 92 27 2 102 38 3 176 82 6 141 51 2
202 115 41 174 114 54 170 111 54 139 90 39 113 73 26 91 54 16
81 47 13 85 51 17 84 53 22 87 57 25 84 55 23 76 50 18 70 45 15
74 46 15 81 50 16 77 48 17 72 46 18 24 15 1 30 17 3 34 19 3 25 16 2
27 15 2 42 24 3 57 32 6 70 41 9 82 49 12 89 54 16 92 57 19 92 57 18
93 54 14 90 52 12 83 44 8 75 33 2 69 29 1 28 10 1 34 12 1 31 11 1
24 10 2 20 8 2 26 11 1 16 7 2 11 6 1 25 10 2 21 9 2 25 10 2 24 10 1
23 10 2 21 9 1 41 17 1 79 37 6 97 48 11 110 56 13 131 70 20 145 81 28
147 83 29 142 77 23 131 67 16 119 60 12 109 52 7 105 48 6 108 50 7
111 52 8 106 47 6 56 22 1 16 6 1 23 10 1 17 9 1 12 5 2 17 8 1 22 10 1
22 9 1 45 16 1 71 24 2 106 34 2 147 59 3 157 65 3 82 26 2 113 46 5
177 86 10 127 43 0 195 106 32 173 113 54 154 101 46 135 89 38
117 77 30 99 63 22 88 54 17 96 62 25 109 76 36 124 85 42 126 82 38
112 71 26 104 65 22 109 68 24 116 72 26 114 71 27 108 68 25 21 13 1
26 16 1 28 16 2 22 14 2 21 13 2 28 17 2 39 22 3 48 29 5 54 33 6
56 35 8 58 37 10 57 36 10 58 37 9 63 38 8 56 29 5 42 19 2 45 17 1
33 13 2 28 11 1 30 11 2 28 10 2 21 9 1 32 13 2 20 10 1 16 7 1 25 10 2
13 7 1 19 9 2 24 10 1 22 9 1 24 10 2 38 17 1 78 35 5 101 49 11
111 56 14 130 71 22 142 79 26 147 83 28 143 79 25 136 73 20 129 66 17
121 60 14 124 62 15 129 66 15 127 64 14 109 50 7 44 17 2 26 11 2
24 11 2 19 9 1 14 6 1 19 8 1 17 8 1 26 10 2 40 13 1 68 24 2 105 35 2
161 69 3 152 67 5 75 23 0 139 67 14 166 83 18 118 41 1 181 100 30
141 89 37 109 75 33 119 76 29 86 55 19 74 46 14 77 48 16 97 65 28
121 83 40 136 92 44 137 89 39 133 84 33 131 82 31 137 87 36 146 95 43
148 96 44 141 92 41 21 14 1 27 16 2 26 16 1 21 14 2 18 10 1 16 11 1
20 13 2 24 15 2 26 16 1 26 18 1 31 20 4 37 25 6 39 26 8 45 28 7
43 25 5 34 16 1 49 22 2 51 22 2 37 13 2 31 12 1 33 13 1 29 11 1
34 14 2 29 11 1 18 8 2 18 7 2 10 5 0 18 7 1 22 9 1 19 8 1 23 11 1
37 16 1 74 34 6 102 50 12 111 57 13 129 70 21 145 81 27 150 86 32
146 82 29 142 76 24 136 72 22 137 73 22 140 74 23 140 74 22 133 69 17
95 44 7 30 12 1 29 12 2 22 11 1 18 9 1 15 7 2 18 8 1 18 8 1 24 10 2
43 15 2 59 18 2 135 53 3 163 68 4 118 44 4 94 35 4 179 102 35
144 65 9 136 62 13 166 99 35 130 80 29 79 60 29 80 53 19 69 43 14
59 36 9 77 48 15 101 67 26 121 82 36 132 87 38 130 83 33 130 81 31
133 83 32 141 90 37 149 97 43 150 98 45 149 99 49 25 15 2 29 17 3
28 17 1 21 14 1 17 11 1 13 10 1 16 10 1 17 11 0 18 13 1 22 14 1
29 19 3 39 26 7 44 29 8 42 28 9 42 24 6 41 17 1 48 20 1 37 15 1
44 17 1 43 17 0 37 14 1 37 15 3 30 13 1 32 14 2 16 7 1 14 7 1 14 8 2
17 8 1 25 11 2 21 9 2 25 11 1 36 16 1 71 31 4 103 51 12 115 59 15
133 72 23 145 80 28 150 85 32 148 82 31 146 80 28 146 82 28 150 83 30
151 84 31 146 80 27 132 67 17 78 33 4 26 10 1 27 12 1 22 10 1 14 7 1
14 7 2 16 7 1 28 11 1 26 10 3 42 15 2 57 17 1 115 45 4 101 35 3
91 28 0 180 100 40 206 124 50 152 64 0 168 103 43 159 98 38 136 85 32
98 70 32 72 50 19 67 42 14 66 40 12 76 47 13 95 59 20 111 72 27
115 73 27 115 71 24 111 67 21 108 65 20 124 76 26 138 86 33 142 90 37
143 93 41 31 17 2 34 19 3 34 18 2 26 15 1 22 14 0 21 12 1 20 11 1
19 12 1 20 14 2 25 16 2 34 22 3 46 30 7 51 34 9 45 30 9 37 22 4
48 21 2 43 18 1 42 19 3 45 19 2 39 15 1 35 13 2 39 14 2 33 13 1
32 13 1 15 7 1 15 7 1 14 7 1 18 8 1 27 12 1 23 10 1 31 12 1 40 16 1
68 30 4 104 51 13 119 62 17 136 73 24 152 87 34 154 88 36 155 89 37
155 90 37 156 90 36 156 89 36 155 87 35 147 79 27 128 64 15 64 25 1
25 9 1 23 10 1 18 8 1 13 5 2 15 7 1 13 6 2 29 11 1 45 17 2 46 16 3
40 14 4 44 14 4 75 26 4 130 51 3 183 91 18 188 103 30 213 142 79
199 133 71 160 91 28 133 84 31 110 73 30 86 56 21 68 43 12 59 35 9
58 35 8 63 39 10 71 44 12 87 52 14 91 53 12 84 48 10 69 38 6 66 38 7
84 49 12 91 55 17 91 56 16 34 18 4 36 21 3 36 21 3 29 17 2 26 16 1
25 15 1 23 13 1 19 12 1 22 15 2 28 18 2 36 24 4 47 31 7 49 33 8
46 31 8 37 22 4 52 24 4 57 24 3 46 19 0 34 12 0 30 12 2 42 16 1
37 14 1 33 12 1 29 12 2 17 8 1 15 7 1 16 7 1 21 9 1 24 10 1 26 11 1
35 14 1 43 17 1 64 28 2 103 50 11 124 65 19 140 77 26 154 88 34
158 93 40 159 93 40 160 93 40 159 92 39 158 91 37 153 84 32 147 77 25
126 62 14 53 20 1 25 10 1 18 8 2 16 7 1 11 4 2 13 6 1 18 8 2 23 9 2
50 18 2 70 26 4 83 35 12 58 22 9 81 32 4 135 53 1 149 67 9 202 136 77
240 191 145 238 192 146 216 156 100 161 106 51 121 74 23 75 49 14
63 41 13 58 36 10 54 33 6 54 34 8 62 38 11 80 47 13 74 43 10 68 38 6
56 30 4 36 21 3 41 23 3 43 25 5 42 26 6 45 27 6 46 28 5 44 26 5
38 23 4 35 20 2 32 18 1 27 15 1 21 13 1 23 14 2 28 19 2 35 23 4
45 29 7 46 31 7 41 27 7 39 20 4 44 18 0 62 31 3 103 62 22 103 59 23
35 12 0 38 15 2 30 12 2 28 11 1 28 12 1 18 9 0 15 7 1 23 10 2 23 9 1
25 11 2 30 12 1 40 15 1 50 20 1 64 28 2 100 48 9 126 66 19 140 77 25
153 86 33 157 90 37 157 90 37 158 91 38 158 91 38 156 88 33 152 82 28
146 77 24 120 57 10 46 17 1 28 11 2 15 8 1 13 6 1 13 5 2 13 5 3
16 7 1 33 14 2 49 19 3 86 32 5 149 67 15 108 51 18 87 33 7 123 49 3
158 98 48 187 139 96 196 143 97 218 169 125 241 201 162 241 205 166
194 151 104 132 89 43 79 45 6 52 31 6 52 33 9 51 33 8 58 36 11
77 45 13 76 43 11 72 40 8 52 28 4 34 19 3 40 23 4 43 25 5 43 25 7
80 50 14 78 48 13 72 45 13 70 43 11 67 41 9 58 33 6 45 25 2 31 17 2
23 15 1 28 18 1 34 21 4 38 25 6 36 24 6 32 21 3 53 27 2 120 78 36
174 125 75 181 127 72 81 43 13 30 10 0 30 12 1 28 11 1 28 11 2
28 12 2 20 9 1 24 11 2 28 12 2 23 9 2 30 12 3 32 13 1 48 19 1 56 24 2
65 28 2 96 45 8 125 64 17 140 74 22 149 83 30 155 86 34 156 86 34
156 89 36 157 88 33 155 86 31 153 84 29 145 75 22 117 54 10 52 18 2
31 12 2 18 8 1 20 8 2 18 8 2 17 8 2 21 9 2 28 12 2 47 19 4 76 28 5
160 74 14 148 74 24 94 35 4 133 68 20 170 122 76 176 132 93
190 146 110 204 160 122 214 174 136 227 193 159 245 213 182
244 206 171 199 153 108 102 67 27 52 28 0 62 38 10 64 39 10 71 40 9
78 44 11 68 37 7 51 28 3 46 26 4 45 25 3 40 24 4 37 22 4 114 70 24
111 68 22 107 66 20 107 66 20 104 64 19 104 64 18 108 65 19 80 45 9
37 22 3 29 18 3 35 22 6 34 22 6 46 29 8 119 86 46 150 104 59
146 95 48 173 125 79 117 74 33 38 13 0 31 12 2 35 13 1 34 13 2
34 13 2 27 11 2 25 10 1 33 13 2 24 11 1 23 9 0 30 11 1 37 14 2
54 21 1 64 28 3 69 31 3 92 42 6 126 63 16 139 73 22 145 79 26
151 83 30 153 85 31 154 85 33 157 88 33 156 87 32 152 82 28 144 74 22
116 55 8 66 24 2 30 12 2 24 9 1 27 11 3 23 10 2 23 10 2 27 11 2
20 9 1 27 11 2 60 22 4 108 44 8 151 70 12 101 45 7 151 100 56
172 127 84 184 141 104 186 144 106 197 158 122 206 170 138
209 175 141 217 183 150 227 194 162 244 213 183 236 199 162
171 126 79 116 68 18 118 70 21 116 71 21 112 66 17 106 61 14
105 61 15 109 64 16 105 61 14 93 54 13 81 46 10 131 81 28 130 81 29
132 83 30 136 86 33 144 93 37 163 106 48 160 101 42 126 73 21 74 40 8
36 22 4 32 21 6 52 33 9 146 107 64 175 134 93 160 120 81 117 74 31
123 76 30 72 37 9 36 12 0 38 14 2 45 16 3 44 16 3 34 13 2 25 10 2
30 11 1 31 12 1 19 8 1 21 9 0 26 10 1 40 15 1 61 24 1 73 33 5 79 37 6
87 40 6 128 65 18 142 76 23 145 78 25 149 82 29 152 84 30 154 84 31
157 88 33 156 87 32 149 79 26 144 74 22 127 61 12 79 31 2 40 15 2
23 9 2 26 11 2 29 11 2 27 11 2 24 10 3 18 8 2 27 11 2 49 18 2 67 23 3
115 46 3 145 85 35 160 118 77 172 129 90 183 144 106 187 149 113
189 152 115 195 160 129 197 162 129 200 165 132 207 175 143
213 181 149 230 199 168 249 218 189 213 171 126 154 97 37 149 94 37
150 95 37 149 94 36 151 96 39 154 98 39 153 97 38 148 94 37 142 88 32
137 87 34 140 89 36 142 91 36 145 94 39 155 101 43 167 109 50
158 99 41 135 80 24 91 51 12 36 23 4 46 30 8 133 95 56 173 132 92
162 123 86 159 120 81 147 103 61 119 70 26 55 26 4 32 11 1 53 21 2
46 17 3 31 12 3 27 10 1 38 14 2 32 12 2 25 9 2 20 9 1 23 9 1 32 12 2
51 19 2 68 28 3 84 39 8 92 44 10 89 39 5 130 66 18 147 79 26
147 80 27 150 83 30 153 85 32 156 87 32 157 88 34 155 86 31 154 85 32
149 80 27 141 74 22 110 50 9 67 23 0 45 16 0 27 9 0 34 12 2 38 14 1
24 8 0 31 11 1 41 14 1 58 22 3 69 25 3 101 41 2 160 105 55 165 122 82
172 131 90 181 142 105 186 148 111 188 152 117 189 152 117
193 158 125 194 163 131 193 161 128 203 171 140 211 179 147
222 190 159 244 214 186 220 177 133 165 108 49 169 114 58 175 120 63
179 124 68 183 128 71 184 129 72 181 126 69 175 120 63 130 83 33
128 82 32 129 82 31 129 81 30 133 84 31 146 92 35 147 91 31 121 71 19
68 40 9 34 21 3 113 80 43 172 128 89 167 125 87 167 125 84 162 121 80
160 117 75 145 97 49 86 45 11 49 18 0 55 20 2 29 11 2 18 7 1 25 10 1
43 16 2 36 14 2 26 10 2 22 9 1 44 18 2 38 14 1 57 21 1 77 33 3
94 45 13 103 51 15 100 46 8 137 73 24 155 88 36 152 86 33 154 85 33
156 86 33 160 91 36 161 92 40 161 91 39 161 93 41 155 89 36 147 79 26
131 66 17 125 69 25 128 76 30 83 41 11 61 26 2 79 35 3 88 43 9
98 53 14 80 38 7 70 27 1 75 27 1 134 78 32 161 111 64 172 128 88
178 137 99 184 145 107 185 146 109 185 147 109 190 154 120
189 153 117 188 151 114 194 161 128 192 158 121 202 169 139
207 174 143 219 186 152 245 216 186 204 156 107 165 108 49 175 121 64
181 126 69 186 131 74 187 132 75 184 129 72 178 123 67 93 61 23
90 59 20 88 57 19 84 54 18 81 51 15 76 47 13 66 42 9 49 30 6 27 18 3
70 47 19 162 117 74 167 124 83 167 124 82 166 123 81 162 118 75
162 118 74 159 112 65 140 88 38 119 68 23 107 58 16 53 22 2 19 7 1
47 20 2 43 16 2 39 15 2 28 11 1 35 14 2 46 17 1 65 31 8 84 43 12
77 32 3 95 43 11 112 57 18 120 61 16 148 83 35 164 100 49 162 96 44
159 91 39 157 87 35 163 94 41 161 94 41 160 94 42 156 89 37 146 77 25
145 81 31 156 103 55 162 115 68 157 106 58 150 98 50 143 90 40
141 88 38 150 99 50 145 94 44 136 84 34 99 49 10 127 75 31 169 119 73
170 125 82 177 134 94 183 144 107 181 140 102 187 148 111 188 150 114
184 143 104 189 152 116 184 144 105 186 147 109 193 162 130
192 159 125 200 169 137 207 174 141 228 195 163 241 207 169
166 111 54 143 89 34 152 98 41 154 101 43 155 101 45 154 100 45
149 96 41 42 29 8 41 27 8 39 26 7 36 25 5 29 20 4 21 15 3 17 12 2
22 16 4 31 21 3 121 85 45 166 122 79 165 122 80 167 124 80 164 120 77
164 119 74 162 115 69 161 112 65 152 100 51 150 98 47 140 85 31
108 57 15 56 24 2 51 20 1 60 24 1 52 19 3 44 14 0 52 19 1 69 31 5
117 71 28 132 86 42 104 60 26 103 50 14 135 74 31 142 80 35 156 93 44
166 103 52 162 98 47 155 86 35 159 90 37 164 96 44 158 91 39
152 84 32 146 78 28 155 98 50 170 123 77 173 127 81 170 123 77
166 118 72 164 116 68 167 118 72 167 119 73 160 112 65 161 113 65
158 109 59 161 110 60 170 121 73 171 125 81 179 138 97 178 137 95
185 143 105 187 148 112 182 139 97 185 143 102 189 150 112 180 137 95
190 153 116 186 148 111 191 155 122 193 161 128 194 160 125
202 170 137 215 179 144 244 211 177 188 144 98 98 54 9 108 65 20
109 66 20 108 66 20 101 62 21 88 53 16 21 15 3 23 16 3 25 17 5
25 17 4 23 17 4 22 16 4 23 16 3 23 17 3 52 34 10 147 104 59
161 118 73 165 122 77 166 123 79 166 122 77 161 115 70 161 114 66
159 110 61 159 108 58 154 102 51 142 90 39 140 86 34 135 81 29
125 72 23 121 65 16 112 60 17 93 45 10 94 49 11 121 72 26 136 88 42
145 99 52 151 105 60 145 97 55 147 90 46 149 86 42 155 91 43
160 95 44 153 86 37 152 82 32 157 87 37 156 88 36 155 89 38 157 98 49
169 120 75 178 133 88 176 131 85 174 129 84 174 128 82 175 130 85
174 130 84 174 129 82 174 128 82 164 117 69 170 122 74 172 125 78
171 125 79 174 129 85 176 131 87 177 135 92 183 142 103 182 139 100
185 144 104 188 150 112 182 138 96 184 142 101 185 146 107
183 142 101 192 157 123 185 146 108 194 159 124 190 154 118
198 165 129 207 170 134 231 197 163 229 187 145 89 51 13 44 26 5
52 31 7 50 31 8 52 34 11 48 31 11 21 15 3 24 17 4 27 18 5 26 18 5
25 18 5 24 17 5 22 16 3 21 15 1 74 48 19 157 110 62 158 114 67
166 121 75 168 123 78 163 118 72 163 116 70 160 112 64 161 111 62
160 110 60 157 106 56 157 106 56 146 93 42 144 92 40 146 92 39
144 89 38 140 87 35 140 87 35 140 88 37 143 92 42 149 100 52
155 108 63 158 111 65 164 120 74 165 122 77 164 115 72 162 111 66
159 103 56 157 99 53 161 105 58 163 107 60 168 117 71 175 128 84
179 135 91 179 136 91 177 132 87 178 133 87 179 134 89 177 133 89
179 134 89 180 136 91 176 132 85 174 128 82 173 128 83 170 124 76
176 130 85 175 130 85 175 131 86 179 136 93 180 138 97 181 135 94
187 147 108 186 147 108 185 144 101 187 148 108 180 136 92
187 147 108 182 143 102 186 148 106 189 150 114 187 148 108
192 158 122 192 156 119 197 160 124 215 178 142 245 207 169 116 77 39
27 15 0 39 24 6 40 25 7 51 34 12 51 33 14 25 17 3 27 18 4 30 20 4
30 20 4 28 18 4 26 18 4 22 16 4 23 16 1 93 62 27 160 114 65
156 110 64 164 116 70 168 121 75 165 118 72 163 116 70 163 115 67
161 112 63 161 111 62 163 113 64 159 109 60 152 101 51 151 100 48
150 100 47 148 98 45 145 94 41 148 97 44 151 99 49 153 102 53
158 111 63 162 115 69 164 120 73 167 123 78 170 127 82 174 132 87
174 132 87 176 133 88 176 134 91 178 137 92 179 137 93 181 138 96
180 136 93 180 134 91 180 135 91 178 134 88 180 136 92 179 134 90
181 137 94 178 131 86 180 136 93 176 132 86 177 133 87 179 135 90
174 129 83 177 132 87 176 131 86 175 131 87 178 134 91 182 140 99
186 146 108 182 139 97 190 150 110 185 143 101 184 144 102
184 141 101 183 139 95 187 148 109 182 141 99 188 149 112 183 144 102
189 153 116 188 151 113 197 161 126 202 164 126 243 206 167
151 112 72 28 12 0 39 25 7 52 34 12 64 44 19 56 38 16 38 24 5 39 25 7
42 27 8 41 27 7 36 24 6 31 21 5 25 18 3 26 19 2 110 73 34 163 114 68
158 112 65 158 112 63 167 123 77 163 119 72 162 114 69 164 117 68
162 114 65 165 117 69 165 116 68 163 113 64 155 105 54 157 107 57
155 105 55 152 102 51 152 102 51 153 103 52 156 106 56 158 109 59
162 115 67 167 122 77 171 125 81 171 127 83 172 130 85 172 129 84
173 130 85 176 132 88 177 133 89 178 134 90 178 134 90 179 135 90
179 135 90 180 136 92 180 136 91 180 137 93 179 135 89 178 135 90
177 134 88 176 132 87 178 134 90 179 134 90 177 133 86 180 136 90
176 130 86 178 131 86 177 134 90 175 127 82 179 136 93 179 135 92
185 143 103 188 147 106 185 141 97 186 148 108 177 131 86 185 143 102
183 139 96 187 148 106 183 142 101 186 147 108 187 147 108
187 149 110 187 150 112 194 158 121 201 161 123 234 196 159
193 149 105 47 24 0 45 30 9 65 43 17 71 49 22 65 44 20 47 29 7
48 31 8 53 34 9 51 31 7 43 28 5 34 22 4 26 18 2 33 23 4 122 81 40
163 114 68 162 115 69 159 111 62 167 121 74 164 118 73 164 117 71
162 113 65 166 118 70 166 118 69 169 121 74 165 116 68 157 108 58
158 108 59 157 108 58 158 110 59 159 109 60 158 110 61 162 113 65
164 116 67 165 118 71 166 121 73 171 126 82 173 129 84 174 130 86
175 131 86 176 133 89 176 133 88 179 136 92 178 136 92 179 135 91
180 136 93 178 136 91 181 138 93 177 133 88 179 135 92 178 134 90
177 134 90 177 135 90 179 137 94 179 135 92 178 136 90 178 134 88
176 131 84 177 133 87 175 130 84 178 134 88 175 128 82 176 131 86
186 145 105 182 136 92 189 148 108 183 142 100 178 135 90 174 128 81
185 142 98 182 141 99 185 143 99 186 148 107 184 144 103 186 149 111
183 144 104 185 148 109 190 152 114 197 158 118 228 191 153
212 169 124 49 28 3 46 31 10 65 44 19 68 47 21 62 43 19 46 29 8
47 30 7 51 32 8 48 30 6 42 27 6 34 22 6 27 19 4 37 26 5 131 89 44
162 114 67 162 115 69 158 109 61 166 119 72 166 119 73 161 113 66
166 119 73 165 118 70 171 123 75 172 124 78 167 119 73 163 115 67
161 113 64 163 115 67 162 114 67 163 115 66 162 115 66 166 119 71
167 121 73 169 123 78 170 124 79 170 125 79 172 128 82 172 126 81
173 127 81 174 129 83 173 129 82 176 132 87 179 135 90 178 135 91
179 136 93 178 135 90 176 133 89 178 135 91 176 132 89 179 136 94
178 135 92 177 134 90 180 137 94 179 137 94 180 137 95 179 136 94
176 130 84 180 136 90 177 132 86 178 132 86 177 130 84 175 129 83
185 143 102 187 145 105 184 142 99 175 133 88 172 126 80 178 136 93
182 138 93 185 142 102 182 140 97 185 148 109 181 141 99 185 147 108
182 144 102 185 148 109 188 150 111 194 156 116 221 183 144
229 186 141 78 49 17 37 23 6 56 38 14 62 42 19 56 37 16 38 24 6
40 26 7 44 28 8 43 26 6 41 26 7 39 27 9 37 28 11 52 38 13 139 97 51
161 113 67 162 115 69 158 110 63 165 118 71 164 117 70 166 118 72
163 115 70 168 121 75 170 122 77 171 123 77 169 123 77 166 121 74
165 120 73 167 121 76 165 120 74 165 120 74 166 120 74 167 121 75
168 123 76 170 125 80 173 128 83 173 128 84 173 130 87 174 129 85
173 130 86 172 128 83 173 129 84 175 131 87 176 132 88 176 133 89
178 136 93 178 136 93 176 133 90 176 134 90 178 136 91 178 135 92
179 137 94 179 136 94 180 136 94 180 139 97 181 138 95 182 139 96
177 131 87 179 134 89 176 130 84 177 130 85 176 128 83 178 134 89
179 134 90 188 148 109 179 137 95 164 119 71 175 130 86 180 138 95
181 137 93 185 142 101 181 138 94 186 147 108 181 139 98 184 145 105
181 142 101 185 147 109 185 146 107 194 155 116 212 173 135
240 197 153 102 68 30 27 15 1 45 30 9 51 35 13 53 35 13 36 24 7
38 26 8 42 29 9 46 31 10 50 36 14 55 40 19 54 40 20 78 56 25
151 105 59 162 115 69 164 116 70 160 112 64 162 114 67 169 122 77
165 118 72 162 114 68 169 122 76 168 121 75 171 125 79 169 126 79
169 125 78 169 126 80 171 127 82 169 125 80 168 124 79 167 123 76
170 125 80 169 126 81 171 127 83 172 128 83 173 130 85 176 131 89
176 132 89 176 134 91 176 134 91 177 134 91 178 135 92 178 137 94
177 135 92 180 138 96 178 136 92 179 136 92 178 134 91 179 136 93
178 136 93 180 137 96 179 137 94 179 137 94 181 138 96 181 138 94
178 134 89 182 138 95 179 133 88 176 129 83 173 125 78 173 126 78
182 139 97 184 143 101 183 142 100 169 124 79 167 122 75 180 136 92
184 141 97 179 133 89 183 142 100 181 139 95 184 143 101 178 136 93
184 143 103 181 141 100 183 144 105 183 144 104 192 153 115
206 165 126 243 200 158 126 89 48 25 13 0 44 28 11 53 36 13 57 40 15
42 29 10 47 35 14 54 40 18 59 45 22 64 49 24 71 54 27 68 53 26
100 72 36 156 109 63 161 114 68 166 119 73 157 109 61 162 113 66
169 124 80 159 113 67 166 119 73 167 119 73 170 123 76 172 128 82
171 127 82 171 128 83 172 129 85 171 127 82 170 125 81 171 127 81
170 125 80 171 128 84 172 129 85 173 130 87 173 129 86 174 130 86
176 132 88 178 135 93 177 135 94 178 134 92 177 135 92 178 136 95
179 137 95 180 138 96 180 138 96 179 137 95 181 138 97 180 138 95
180 137 95 178 136 94 180 137 96 180 137 96 178 137 94 181 138 94
183 139 96 180 136 92 182 139 96 180 136 89 176 127 80 173 125 80
177 129 83 181 136 91 189 149 111 181 139 96 157 108 60 175 131 87
178 134 89 184 141 98 181 136 92 184 141 98 180 136 94 183 142 99
178 137 93 182 143 101 180 141 100 182 144 104 182 142 102
190 151 113 205 164 124 243 202 161 151 110 67 26 13 0 48 31 12
60 40 17 63 43 18 58 44 20 63 48 24 68 53 27 73 57 30 76 58 30
77 57 28 65 48 23 94 67 32 158 111 63 160 114 68 165 118 72
158 110 64 162 113 67 169 125 80 164 119 74 162 115 68 164 117 71
169 122 75 171 128 83 174 130 87 172 128 84 173 131 88 172 128 84
171 128 83 172 129 86 172 129 84 173 129 85 174 131 88 173 131 87
174 130 88 175 132 88 175 132 89 176 133 90 176 133 91 177 135 93
179 135 93 178 136 94 178 137 95 181 138 96 180 140 98 179 138 97
180 140 98 180 139 99 179 138 96 181 138 98 181 139 97 180 138 96
180 139 97 181 139 97 180 137 93 183 140 98 183 139 95 180 135 90
175 127 81 173 125 77 178 132 86 181 137 92 188 144 102 160 115 73
152 103 56 181 138 95 179 134 90 183 140 97 179 135 91 183 141 99
180 136 94 182 140 97 176 135 92 180 140 98 180 141 100 182 143 104
182 141 102 187 150 110 199 159 118 239 197 155 166 122 77 32 15 0
50 33 12 59 40 15 63 43 16 74 55 29 76 59 31 77 58 30 75 55 27
67 50 24 63 46 22 51 36 14 94 65 30 159 112 65 156 109 63 164 117 72
157 110 63 158 110 62 173 128 83 167 124 79 159 113 67 160 113 67
169 122 76 172 128 84 174 131 89 173 129 86 174 131 88 172 129 86
173 130 86 173 130 87 173 130 86 174 130 87 174 131 89 174 131 88
174 130 88 176 133 89 177 134 91 175 132 89 177 135 91 177 135 92
178 135 93 178 136 94 177 137 95 180 138 97 180 140 99 180 140 97
180 140 99 180 139 99 179 138 97 180 138 98 180 138 96 179 138 96
181 140 96 181 139 98 181 138 95 181 139 94 182 137 92 178 132 87
175 126 79 174 124 76 177 131 84 188 149 109 179 137 96 140 93 46
164 118 72 181 138 95 179 134 89 182 139 95 179 135 91 180 136 92
179 135 93 179 138 94 177 136 94 180 140 100 178 139 98 181 143 103
182 141 102 187 150 110 200 159 118 236 196 155 183 139 94 42 21 0
50 33 12 59 41 15 65 46 18 77 57 30 71 53 27 66 48 23 59 42 18
51 37 15 46 33 14 35 25 7 89 61 27 163 115 68 158 110 65 161 114 68
158 110 63 149 101 52 171 126 80 166 123 78 159 113 68 162 115 69
168 121 75 174 131 87 175 132 91 173 130 87 173 130 88 172 129 86
173 129 86 173 131 86 173 130 88 174 132 88 176 133 90 175 132 91
175 132 89 175 132 89 175 132 88 175 133 89 175 133 90 177 135 91
177 135 93 178 135 94 179 138 96 179 138 97 179 138 97 179 139 97
180 139 98 181 139 98 181 140 98 179 137 95 179 137 94 180 139 96
180 138 96 181 138 96 181 138 97 180 138 95 178 134 90 178 132 86
174 124 75 176 127 80 178 132 86 187 145 102 166 123 82 141 92 46
176 131 86 180 137 94 178 133 88 182 137 94 178 135 91 178 134 88
179 135 92 179 138 94 176 134 92 182 141 101 175 135 93 181 144 103
182 142 103 188 149 110 202 160 120 232 192 154 212 166 119 55 30 3
47 31 11 59 40 15 70 47 19 60 43 19 54 38 16 46 33 11 38 28 9 34 26 8
35 26 9 29 22 6 86 58 26 164 116 69 159 112 67 156 108 60 159 111 65
149 101 54 167 122 76 167 123 78 160 113 67 163 116 71 165 119 71
173 131 85 174 131 90 175 131 89 175 133 92 173 129 87 174 131 87
174 130 87 174 131 89 175 133 91 174 132 89 174 132 91 174 133 89
173 132 88 173 131 87 175 132 88 174 131 88 175 134 90 176 134 90
178 135 94 179 137 95 179 139 97 179 138 97 179 138 98 178 137 95
179 137 95 181 139 97 179 137 95 179 136 95 179 136 94 180 138 96
180 138 95 181 139 96 183 140 98 178 136 92 177 132 87 174 125 78
175 128 80 183 142 99 182 140 96 150 104 59 149 102 57 178 133 90
178 134 90 177 132 89 181 136 90 177 134 89 178 134 88 174 131 86
182 139 96 176 135 92 179 138 96 176 137 95 181 144 104 181 141 101
185 146 105 200 160 119 226 186 147 230 184 139 80 49 16 41 27 6
58 38 13 72 49 19 40 29 9 35 25 8 32 25 7 31 24 6 31 24 7 34 25 9
32 24 8 94 64 28 163 115 67 161 114 69 153 104 56 157 109 62
155 107 61 164 117 70 169 126 81 158 113 69 159 114 69 165 120 73
173 130 87 173 129 88 176 132 91 176 133 91 174 131 88 173 130 87
174 130 87 174 132 90 175 133 92 176 134 92 174 132 90 173 131 87
173 131 87 174 131 88 175 130 87 175 131 88 174 131 87 175 132 90
177 135 92 179 137 96 179 139 98 178 138 98 179 138 97 180 140 99
180 138 98 181 139 99 180 140 98 180 138 97 179 136 94 181 138 97
182 140 98 177 136 92 180 138 95 177 134 89 176 132 86 174 126 80
174 126 78 185 143 101 183 142 102 144 97 50 164 118 74 175 130 85
175 131 86 175 131 86 178 134 87 176 133 89 176 134 89 176 132 88
180 138 94 174 133 90 179 139 97 177 137 96 178 140 99 180 140 99
182 145 104 199 160 120 223 183 145 242 199 156 118 77 35 38 23 4
57 39 13 72 48 19 32 24 7 33 24 7 33 24 7 33 25 8 36 28 10 44 32 13
49 35 14 109 75 36 161 115 67 163 119 72 157 109 63 151 103 55
156 108 60 165 117 72 168 122 77 161 117 73 155 111 65 163 118 72
174 130 87 174 131 90 174 133 91 174 132 90 172 129 87 172 129 86
174 131 89 174 132 91 174 131 89 175 133 91 174 132 90 173 131 89
173 131 88 174 130 86 174 130 87 175 130 87 175 132 89 175 132 88
177 134 91 178 135 96 178 137 97 179 138 98 179 139 98 182 141 101
181 140 99 181 139 98 179 137 96 178 137 93 178 136 94 180 138 96
181 139 98 179 137 94 178 135 93 175 132 87 175 129 84 175 125 79
179 133 89 181 136 93 175 133 91 141 96 51 173 126 80 172 127 83
171 127 81 175 131 86 177 133 89 179 136 93 179 137 93 175 132 87
180 138 96 174 132 90 180 140 98 176 137 95 178 140 100 179 140 100
185 146 107 195 156 117 216 175 135 244 202 160 126 85 44 39 22 1
61 40 14 74 49 19 31 24 7 33 25 8 39 30 11 46 34 14 54 40 18 61 46 21
64 47 21 122 84 43 159 112 64 164 119 73 163 118 72 155 108 60
149 101 51 164 117 70 166 119 74 163 119 73 157 113 66 163 118 72
174 131 87 174 133 91 173 133 91 173 130 89 174 131 89 173 130 87
175 132 89 176 134 92 175 133 91 175 132 91 174 131 89 173 131 89
174 132 88 172 130 85 172 129 86 172 129 85 174 131 89 175 132 88
176 133 91 176 134 92 180 139 99 180 139 99 181 140 100 180 140 99
179 140 98 181 140 99 180 139 99 179 138 96 179 138 98 179 137 96
181 139 97 181 139 97 176 133 89 176 133 89 176 131 85 174 125 77
179 135 89 184 144 104 158 112 66 149 103 58 174 128 83 172 126 80
172 126 81 173 130 87 181 139 95 180 138 95 181 139 96 175 132 89
182 140 97 175 134 92 179 140 99 176 137 96 179 141 102 177 139 98
183 145 106 192 153 112 215 174 133 244 204 163 158 110 63 45 25 0
64 42 16 85 54 20 40 30 11 47 36 15 56 42 20 64 47 23 71 52 25
72 53 25 72 51 22 134 93 50 158 110 62 163 116 70 162 115 69
162 114 69 154 105 58 160 112 65 166 119 73 163 118 71 158 114 67
165 121 75 174 131 88 174 134 91 175 134 93 173 129 89 172 130 87
173 131 88 175 132 90 175 134 92 174 134 91 176 132 92 173 131 88
174 132 90 173 131 88 173 130 87 174 132 88 174 131 88 174 131 88
175 131 89 176 135 93 175 135 92 178 138 97 180 140 100 181 140 100
179 139 98 180 140 101 180 139 100 181 142 102 181 140 99 180 140 99
181 140 99 182 140 99 180 138 96 176 134 90 176 133 89 173 128 82
175 129 82 178 133 88 182 139 96 145 101 57 159 114 70 170 125 79
163 117 69 172 127 82 178 135 92 181 138 95 179 136 92 181 139 95
174 132 89 179 137 94 173 133 91 175 136 95 173 134 92 177 139 99
180 142 101 182 144 105 192 153 111 214 173 132 245 205 166
171 126 79 45 24 0 72 46 17 95 59 22 58 42 19 64 47 21 69 51 24
72 53 26 73 52 25 68 48 22 71 49 21 142 99 55 158 111 63 158 112 65
163 115 70 158 111 65 155 108 62 160 112 66 164 117 71 159 112 66
158 113 68 166 123 79 173 130 88 174 133 91 174 134 91 173 131 89
173 131 88 174 132 90 172 131 89 173 132 90 174 133 93 176 133 93
174 131 89 173 132 90 174 131 90 173 131 88 173 131 87 173 130 89
174 131 90 176 132 92 175 135 92 177 136 95 178 138 97 180 140 100
179 139 99 178 137 97 181 139 100 180 140 100 182 142 103 181 139 99
183 144 104 182 142 102 181 139 98 179 137 93 178 135 92 175 132 88
172 128 82 177 131 86 184 141 100 170 126 81 142 99 55 163 118 72
161 116 70 167 123 77 172 129 84 176 134 90 180 137 95 175 131 88
179 137 93 173 132 87 177 138 95 173 132 90 175 135 93 173 132 92
178 138 99 179 141 100 181 144 104 189 149 108 212 170 129
241 201 162 194 148 101 60 34 6 75 48 18 100 64 26
