P3
120 80
255
30 30 30 29 29 29 29 29 29 29 29 29 29 29 29 29 29 29 29 29 29
29 29 29 29 29 29 30 30 30 30 30 30 30 30 30 31 31 31 30 30 30
29 29 29 28 28 28 24 24 24 19 19 19 13 13 13 11 11 11 8 8 8 15 15 15
34 34 34 95 96 97 84 84 86 39 37 39 5 5 5 4 4 4 5 5 5 5 5 5 5 5 5
6 6 6 6 6 6 5 5 5 5 5 5 6 6 6 4 4 4 5 5 5 4 4 4 5 5 5 4 4 4 4 4 4
4 4 4 4 4 4 6 6 6 5 5 5 6 6 6 7 7 7 6 6 6 5 5 5 4 4 4 4 4 4 11 11 11
8 8 8 9 9 9 12 12 12 14 14 14 12 12 12 6 6 6 7 7 7 6 6 6 6 6 6 5 5 5
6 6 6 6 6 6 6 6 6 6 6 6 6 6 6 5 5 5 4 4 4 4 4 4 5 5 5 5 5 5 6 6 6
7 7 7 11 11 11 15 15 15 18 18 18 17 17 17 15 15 15 13 13 13 9 9 9
5 5 5 4 4 4 4 4 4 4 4 4 4 4 4 4 4 4 4 4 4 4 4 4 4 4 4 4 4 4 4 4 4
4 4 4 4 4 4 4 4 4 3 3 3 4 4 4 5 5 5 4 4 4 5 5 5 4 4 4 4 4 4 5 5 5
4 4 4 4 4 4 4 4 4 5 5 5 4 4 4 3 3 3 3 3 3 3 3 3 3 3 3 4 4 4 4 4 4
4 4 4 4 4 4 3 3 3 3 3 3 4 4 4 29 29 29 29 29 29 29 29 29 29 29 29
29 29 29 29 29 29 30 30 30 30 30 30 30 30 30 31 31 31 31 31 31
31 31 31 31 31 31 32 32 32 30 30 30 28 28 28 23 23 23 19 19 19
13 13 13 13 13 13 9 9 9 14 14 14 31 31 31 77 78 78 61 61 63 35 34 36
13 14 13 3 3 3 5 5 5 5 5 5 5 5 5 6 6 6 6 6 6 5 5 5 5 5 5 5 5 5 5 5 5
5 5 5 4 4 4 5 5 5 4 4 4 4 4 4 4 4 4 4 4 4 6 6 6 6 6 6 6 6 6 7 7 7
6 6 6 5 5 5 5 5 5 4 4 4 10 10 10 9 9 9 10 10 10 12 12 12 16 16 16
13 13 13 7 7 7 7 7 7 8 8 8 6 6 6 6 6 6 5 5 5 6 6 6 5 5 5 6 6 6 6 6 6
5 5 5 4 4 4 4 4 4 5 5 5 5 5 5 5 5 5 6 6 6 9 9 9 13 13 13 16 16 16
17 17 17 16 16 16 14 14 14 11 11 11 8 8 8 4 4 4 4 4 4 3 3 3 3 3 3
3 3 3 3 3 3 3 3 3 3 3 3 3 3 3 3 3 3 3 3 3 3 3 3 3 3 3 3 3 3 4 4 4
5 5 5 5 5 5 6 6 6 4 4 4 4 4 4 5 5 5 4 4 4 3 3 3 4 4 4 4 4 4 4 4 4
3 3 3 3 3 3 3 3 3 3 3 3 4 4 4 4 4 4 3 3 3 3 3 3 3 3 3 3 3 3 4 4 4
30 30 30 29 29 29 28 28 28 29 29 29 29 29 29 30 30 30 30 30 30
31 31 31 31 31 31 31 31 31 31 31 31 32 32 32 32 32 32 32 32 32
31 31 31 27 27 27 25 25 25 17 17 17 12 12 12 13 13 13 10 10 10
12 12 12 16 16 17 43 43 41 56 56 55 44 44 46 15 15 15 3 3 3 6 6 6
5 5 5 6 6 6 7 7 7 6 6 6 5 5 5 5 5 5 5 5 5 5 5 5 5 5 5 4 4 4 5 5 5
5 5 5 4 4 4 4 4 4 4 4 4 5 5 5 6 6 6 7 7 7 7 7 7 6 6 6 5 5 5 6 6 6
4 4 4 10 10 10 10 10 10 11 11 11 13 13 13 18 18 18 17 17 17 8 8 8
7 7 7 9 9 9 8 8 8 6 6 6 5 5 5 5 5 5 6 6 6 6 6 6 6 6 6 6 6 6 4 4 4
4 4 4 4 4 4 5 5 5 5 5 5 6 6 6 8 8 8 10 10 10 13 13 13 16 16 16
16 16 16 16 16 16 13 13 13 11 11 11 8 8 8 4 4 4 4 4 4 3 3 3 3 3 3
3 3 3 3 3 3 3 3 3 3 3 3 3 3 3 3 3 3 3 3 3 3 3 3 3 3 3 3 3 3 5 5 5
4 4 4 6 6 6 4 4 4 4 4 4 5 5 5 5 5 5 4 4 4 4 4 4 4 4 4 4 4 4 3 3 3
3 3 3 3 3 3 3 3 3 3 3 3 4 4 4 4 4 4 3 3 3 4 4 4 3 3 3 4 4 4 30 30 30
29 29 29 28 28 28 29 29 29 29 29 29 30 30 30 30 30 30 31 31 31
31 31 31 32 32 32 32 32 32 32 32 32 32 32 32 32 32 32 30 30 30
28 28 28 24 24 24 14 14 14 13 13 13 14 14 14 11 11 11 10 10 10
14 14 14 43 43 43 72 73 73 49 49 51 18 18 17 4 4 4 6 6 6 6 6 6 6 6 6
7 7 7 7 7 7 5 5 5 5 5 5 5 5 5 6 6 6 6 6 6 5 5 5 5 5 5 5 5 5 5 5 5
4 4 4 4 4 4 7 7 7 7 7 7 8 8 8 7 7 7 7 7 7 6 6 6 6 6 6 4 4 4 13 13 13
13 13 13 12 12 12 14 14 14 17 17 17 20 20 20 15 15 15 8 8 8 9 9 9
11 11 11 9 9 9 6 6 6 5 5 5 5 5 5 5 5 5 6 6 6 5 5 5 4 4 4 4 4 4 4 4 4
4 4 4 5 5 5 5 5 5 7 7 7 8 8 8 10 10 10 13 13 13 15 15 15 15 15 15
14 14 14 12 12 12 11 11 11 8 8 8 4 4 4 3 3 3 3 3 3 3 3 3 3 3 3 3 3 3
3 3 3 3 3 3 3 3 3 3 3 3 3 3 3 3 3 3 3 3 3 4 4 4 5 5 5 5 5 5 4 4 4
3 3 3 5 5 5 5 5 5 4 4 4 4 4 4 4 4 4 4 4 4 4 4 4 3 3 3 3 3 3 3 3 3
3 3 3 3 3 3 4 4 4 4 4 4 4 4 4 4 4 4 3 3 3 30 30 30 29 29 29 28 28 28
29 29 29 30 30 30 30 30 30 31 31 31 31 31 31 31 31 31 32 32 32
32 32 32 33 33 33 33 33 33 32 32 32 31 31 31 31 31 31 23 23 23
13 13 13 16 16 16 15 15 15 10 10 10 9 9 9 6 6 6 41 41 42 85 86 88
71 71 72 16 16 16 5 5 5 7 7 7 6 6 6 7 7 7 7 7 7 7 7 7 6 6 6 7 7 7
5 5 5 6 6 6 7 7 7 5 5 5 5 5 5 6 6 6 5 5 5 5 5 5 5 5 5 7 7 7 7 7 7
9 9 9 8 8 8 8 8 8 6 6 6 7 7 7 4 4 4 10 10 10 14 14 14 13 13 13
15 15 15 17 17 17 19 19 19 22 22 22 15 15 15 5 5 5 11 11 11 12 12 12
8 8 8 5 5 5 5 5 5 5 5 5 5 5 5 5 5 5 4 4 4 4 4 4 4 4 4 3 3 3 3 3 3
3 3 3 4 4 4 7 7 7 9 9 9 9 9 9 12 12 12 14 14 14 14 14 14 12 12 12
10 10 10 11 11 11 7 7 7 4 4 4 4 4 4 3 3 3 3 3 3 3 3 3 3 3 3 3 3 3
3 3 3 3 3 3 3 3 3 3 3 3 3 3 3 4 4 4 5 5 5 5 5 5 4 4 4 2 2 2 5 5 5
5 5 5 5 5 5 4 4 4 4 4 4 4 4 4 4 4 4 3 3 3 3 3 3 3 3 3 3 3 3 3 3 3
3 3 3 4 4 4 4 4 4 4 4 4 4 4 4 29 29 29 29 29 29 29 29 29 29 29 29
30 30 30 30 30 30 31 31 31 31 31 31 32 32 32 32 32 32 33 33 33
34 34 34 33 33 33 32 32 32 31 31 31 29 29 29 20 20 20 13 13 13
15 15 15 13 13 13 10 10 10 8 8 8 8 8 9 36 37 36 83 85 85 70 71 72
10 10 10 7 7 7 8 8 8 7 7 7 8 8 8 8 8 8 9 9 9 6 6 6 7 7 7 6 6 6 6 6 6
10 10 10 6 6 6 5 5 5 6 6 6 7 7 7 6 6 6 5 5 5 6 6 6 7 7 7 9 9 9 9 9 9
10 10 10 9 9 9 7 7 7 5 5 5 7 7 7 13 13 13 14 14 14 16 16 16 18 18 18
20 20 20 22 22 22 33 33 33 10 10 10 7 7 7 13 13 13 14 14 14 7 7 7
5 5 5 5 5 5 4 4 4 4 4 4 4 4 4 4 4 4 4 4 4 3 3 3 3 3 3 3 3 3 3 3 3
4 4 4 6 6 6 7 7 7 8 8 8 11 11 11 12 12 12 13 13 13 12 12 12 10 10 10
10 10 10 7 7 7 5 5 5 4 4 4 3 3 3 3 3 3 3 3 3 3 3 3 3 3 3 3 3 3 3 3 3
3 3 3 3 3 3 4 4 4 5 5 5 4 4 4 4 4 4 3 3 3 5 5 5 5 5 5 5 5 5 4 4 4
4 4 4 5 5 5 5 5 5 3 3 3 3 3 3 3 3 3 3 3 3 3 3 3 3 3 3 4 4 4 4 4 4
4 4 4 4 4 4 29 29 29 29 29 29 29 29 29 30 30 30 30 30 30 31 31 31
32 32 32 32 32 32 32 32 32 33 33 33 34 34 34 34 34 34 34 34 34
33 33 33 31 31 31 28 28 28 18 18 18 12 12 12 11 11 11 12 12 12 9 9 9
6 6 6 11 10 11 22 23 21 67 69 67 73 74 76 9 9 9 8 8 8 9 9 9 9 9 9
9 9 9 9 9 9 11 11 11 7 7 7 8 8 8 8 8 8 5 5 5 12 12 12 9 9 9 5 5 5
6 6 6 8 8 8 8 8 8 6 6 6 7 7 7 7 7 7 10 10 10 11 11 11 13 13 13
12 12 12 10 10 10 7 7 7 7 7 7 16 16 16 15 15 15 16 16 16 19 19 19
20 20 20 23 23 23 35 35 35 30 30 30 6 6 6 9 9 9 14 14 14 14 14 14
8 8 8 5 5 5 4 4 4 4 4 4 4 4 4 4 4 4 4 4 4 3 3 3 3 3 3 3 3 3 3 3 3
3 3 3 4 4 4 5 5 5 7 7 7 7 7 7 8 8 8 11 11 11 12 12 12 11 11 11
10 10 10 9 9 9 8 8 8 5 5 5 4 4 4 3 3 3 3 3 3 3 3 3 3 3 3 3 3 3 3 3 3
3 3 3 3 3 3 4 4 4 5 5 5 4 4 4 4 4 4 3 3 3 4 4 4 5 5 5 5 5 5 4 4 4
4 4 4 5 5 5 5 5 5 4 4 4 3 3 3 3 3 3 3 3 3 3 3 3 3 3 3 3 3 3 4 4 4
4 4 4 4 4 4 30 30 30 30 30 30 30 30 30 30 30 30 31 31 31 32 32 32
33 33 33 33 33 33 33 33 33 34 34 34 34 34 34 35 35 35 35 35 35
35 35 35 33 33 33 27 27 27 16 16 16 16 16 16 15 15 15 12 12 12 9 9 9
4 4 4 19 19 19 30 30 30 52 53 52 63 63 64 10 10 9 10 10 10 11 11 11
9 9 9 9 9 9 9 9 9 12 12 12 9 9 9 9 9 9 9 9 9 5 5 5 10 10 10 10 10 10
7 7 7 8 8 8 10 10 10 8 8 8 7 7 7 7 7 7 7 7 7 9 9 9 12 12 12 14 14 14
16 16 16 14 14 14 10 10 10 9 9 9 22 22 22 18 18 18 16 16 16 20 20 20
21 21 21 25 25 25 40 40 40 37 37 37 20 20 20 5 5 5 10 10 10 17 17 17
17 17 17 10 10 10 5 5 5 4 4 4 4 4 4 4 4 4 4 4 4 3 3 3 3 3 3 3 3 3
3 3 3 3 3 3 3 3 3 3 3 3 5 5 5 6 6 6 7 7 7 8 8 8 10 10 10 11 11 11
11 11 11 10 10 10 11 11 11 9 9 9 7 7 7 5 5 5 5 5 5 4 4 4 4 4 4 4 4 4
4 4 4 3 3 3 3 3 3 3 3 3 5 5 5 4 4 4 4 4 4 3 3 3 4 4 4 4 4 4 6 6 6
3 3 3 3 3 3 5 5 5 5 5 5 4 4 4 3 3 3 3 3 3 3 3 3 3 3 3 3 3 3 3 3 3
4 4 4 5 5 5 4 4 4 30 30 30 30 30 30 30 30 30 31 31 31 31 31 31
32 32 32 33 33 33 34 34 34 34 34 34 35 35 35 35 35 35 35 35 35
35 35 35 34 34 34 33 33 33 26 26 26 14 14 14 19 19 19 16 16 16
11 11 11 8 8 8 5 5 5 15 15 15 20 20 20 46 46 46 30 30 29 7 7 8
10 10 10 13 13 13 10 10 10 13 13 13 9 9 9 11 11 11 9 9 9 9 9 9
11 11 11 7 7 7 8 8 8 11 11 11 9 9 9 10 10 10 11 11 11 9 9 9 7 7 7
8 8 8 8 8 8 9 9 9 11 11 11 31 31 31 28 28 28 15 15 15 13 13 13 9 9 9
16 16 16 21 21 21 17 17 17 21 21 21 22 22 22 25 25 25 47 47 47
44 44 44 31 31 31 13 13 13 12 12 12 11 11 11 14 14 14 15 15 15
11 11 11 6 6 6 4 4 4 4 4 4 4 4 4 3 3 3 3 3 3 3 3 3 3 3 3 3 3 3 3 3 3
4 4 4 3 3 3 4 4 4 5 5 5 6 6 6 9 9 9 11 11 11 11 11 11 10 10 10
10 10 10 10 10 10 10 10 10 8 8 8 5 5 5 6 6 6 4 4 4 4 4 4 4 4 4 3 3 3
3 3 3 3 3 3 4 4 4 4 4 4 3 3 3 3 3 3 4 4 4 4 4 4 6 6 6 4 4 4 3 3 3
4 4 4 5 5 5 4 4 4 3 3 3 3 3 3 3 3 3 3 3 3 3 3 3 3 3 3 4 4 4 5 5 5
4 4 4 30 30 30 31 31 31 31 31 31 31 31 31 32 32 32 33 33 33 33 33 33
34 34 34 35 35 35 35 35 35 36 36 36 36 36 36 36 36 36 34 34 34
33 33 33 25 25 25 13 13 13 17 17 17 15 15 15 10 10 10 8 8 8 6 6 6
11 11 11 15 15 15 30 30 30 15 15 15 9 9 9 12 12 12 17 17 17 14 14 14
16 16 16 10 10 10 10 10 10 9 9 9 8 8 8 12 12 12 9 9 9 6 6 6 13 13 13
10 10 10 11 11 11 11 11 11 9 9 9 7 7 7 8 8 8 7 7 7 10 10 10 9 9 9
42 42 42 55 55 55 19 19 19 12 12 12 9 9 9 10 10 10 15 15 15 16 16 16
20 20 20 25 25 25 29 29 29 49 49 49 54 54 54 48 48 48 28 28 28
15 15 15 18 18 18 15 15 15 11 11 11 11 11 11 8 8 8 5 5 5 4 4 4 4 4 4
4 4 4 4 4 4 4 4 4 3 3 3 3 3 3 4 4 4 4 4 4 3 3 3 4 4 4 4 4 4 4 4 4
6 6 6 8 8 8 10 10 10 11 11 11 11 11 11 11 11 11 11 11 11 11 11 11
8 8 8 8 8 8 6 6 6 4 4 4 4 4 4 4 4 4 3 3 3 3 3 3 4 4 4 4 4 4 3 3 3
3 3 3 3 3 3 4 4 4 5 5 5 4 4 4 3 3 3 4 4 4 5 5 5 4 4 4 4 4 4 3 3 3
3 3 3 3 3 3 3 3 3 3 3 3 3 3 3 4 4 4 5 5 5 31 31 31 31 31 31 32 32 32
32 32 32 33 33 33 33 33 33 34 34 34 34 34 34 35 35 35 36 36 36
36 36 36 37 37 37 36 36 36 35 35 35 33 33 33 23 23 23 13 13 13
16 16 16 14 14 14 9 9 9 7 7 7 6 6 6 9 9 9 10 10 10 13 13 13 12 12 12
9 9 9 14 14 14 21 21 21 24 24 24 16 16 16 10 10 10 9 9 9 9 9 9 8 8 8
12 12 12 12 12 12 6 6 6 11 11 11 10 10 10 11 11 11 13 13 13 7 7 7
6 6 6 7 7 7 7 7 7 11 11 11 6 6 6 62 62 62 94 94 94 18 18 18 13 13 13
7 7 7 9 9 9 7 7 7 14 14 14 20 20 20 26 26 26 29 29 29 54 54 54
63 63 63 59 59 59 54 54 54 23 23 23 15 15 15 23 23 23 19 19 19
16 16 16 13 13 13 10 10 10 7 7 7 5 5 5 5 5 5 5 5 5 6 6 6 9 9 9 9 9 9
10 10 10 11 11 11 11 11 11 10 10 10 10 10 10 11 11 11 10 10 10
10 10 10 12 12 12 13 13 13 13 13 13 12 12 12 11 11 11 13 13 13
12 12 12 11 11 11 7 7 7 4 4 4 4 4 4 4 4 4 4 4 4 3 3 3 4 4 4 4 4 4
3 3 3 3 3 3 3 3 3 4 4 4 5 5 5 4 4 4 3 3 3 4 4 4 5 5 5 4 4 4 4 4 4
3 3 3 3 3 3 3 3 3 3 3 3 3 3 3 4 4 4 4 4 4 5 5 5 31 31 31 31 31 31
32 32 32 33 33 33 33 33 33 34 34 34 34 34 34 35 35 35 36 36 36
36 36 36 37 37 37 37 37 37 37 37 37 34 34 34 34 34 34 21 21 21
12 12 12 16 16 16 12 12 12 8 8 8 6 6 6 6 6 6 7 7 7 8 8 8 8 8 8 7 7 7
7 7 7 13 13 13 13 13 13 24 24 24 18 18 18 13 13 13 7 7 7 8 8 8 7 7 7
10 10 10 17 17 17 12 12 12 8 8 8 10 10 10 9 9 9 11 11 11 6 6 6 6 6 6
6 6 6 6 6 6 11 11 11 6 6 6 62 62 62 107 107 107 36 36 36 11 11 11
9 9 9 10 10 10 6 6 6 11 11 11 18 18 18 26 26 26 27 27 27 58 58 58
70 70 70 66 66 66 65 65 65 55 55 55 23 23 23 16 16 16 22 22 22
15 15 15 12 12 12 10 10 10 9 9 9 8 8 8 8 8 8 8 8 8 11 11 11 16 16 16
19 19 19 20 20 20 22 22 22 20 20 20 21 21 21 21 21 21 21 21 21
22 22 22 22 22 22 20 20 20 19 19 19 18 18 18 14 14 14 13 13 13
14 14 14 14 14 14 14 14 14 10 10 10 5 5 5 4 4 4 4 4 4 5 5 5 3 3 3
3 3 3 5 5 5 4 4 4 3 3 3 3 3 3 4 4 4 5 5 5 5 5 5 3 3 3 4 4 4 6 6 6
4 4 4 3 3 3 3 3 3 3 3 3 3 3 3 3 3 3 3 3 3 3 3 3 4 4 4 5 5 5 32 32 32
32 32 32 32 32 32 33 33 33 34 34 34 34 34 34 35 35 35 36 36 36
36 36 36 36 36 36 37 37 37 38 38 38 38 38 38 35 35 35 34 34 34
19 19 19 13 13 13 15 15 15 10 10 10 7 7 7 6 6 6 7 7 7 7 7 7 7 7 7
7 7 7 6 6 6 6 6 6 10 10 10 9 9 9 19 19 19 20 20 20 18 18 18 6 6 6
7 7 7 6 6 6 9 9 9 19 19 19 30 30 30 10 10 10 10 10 10 8 8 8 13 13 13
6 6 6 5 5 5 5 5 5 6 6 6 12 12 12 8 8 8 49 49 49 102 102 102 50 50 50
13 13 13 9 9 9 8 8 8 6 6 6 7 7 7 14 14 14 26 26 26 27 27 27 56 56 56
71 71 71 69 69 69 68 68 68 64 64 64 40 40 40 14 14 14 10 10 10
11 11 11 10 10 10 11 11 11 8 8 8 10 10 10 17 17 17 25 25 25 30 30 30
34 34 34 34 34 34 35 35 35 33 33 33 31 31 31 32 32 32 30 30 30
31 31 31 31 31 31 29 29 29 28 28 28 25 25 25 22 22 22 18 18 18
16 16 16 16 16 16 15 15 15 15 15 15 14 14 14 8 8 8 4 4 4 4 4 4 5 5 5
4 4 4 3 3 3 4 4 4 4 4 4 3 3 3 3 3 3 3 3 3 5 5 5 5 5 5 3 3 3 3 3 3
6 6 6 4 4 4 4 4 4 3 3 3 3 3 3 3 3 3 3 3 3 3 3 3 3 3 3 4 4 4 4 4 4
32 32 32 32 32 32 33 33 33 34 34 34 34 34 34 35 35 35 36 36 36
36 36 36 36 36 36 37 37 37 37 37 37 38 38 38 38 38 38 37 37 37
34 34 34 16 16 16 14 14 14 14 14 14 11 11 11 7 7 7 6 6 6 6 6 6 6 6 6
6 6 6 7 7 7 11 11 11 9 9 9 9 9 9 8 8 8 11 11 11 29 29 29 22 22 22
9 9 9 5 5 5 7 7 7 7 7 7 13 13 13 50 50 50 26 26 26 8 8 8 8 8 8
10 10 10 6 6 6 5 5 5 5 5 5 6 6 6 10 10 10 10 10 10 32 32 32 77 77 77
41 41 41 21 21 21 9 9 9 6 6 6 7 7 7 4 4 4 9 9 9 23 23 23 28 28 28
50 50 50 68 68 68 66 66 66 60 60 60 37 37 37 19 19 19 13 13 13 9 9 9
9 9 9 9 9 9 11 11 11 21 21 21 30 30 30 38 38 38 46 46 46 51 51 51
46 46 46 48 48 48 47 47 47 44 44 44 44 44 44 42 42 42 38 38 38
35 35 35 33 33 33 32 32 32 31 31 31 27 27 27 24 24 24 21 21 21
18 18 18 17 17 17 17 17 17 16 16 16 17 17 17 13 13 13 6 6 6 4 4 4
5 5 5 5 5 5 3 3 3 4 4 4 4 4 4 3 3 3 3 3 3 3 3 3 4 4 4 4 4 4 3 3 3
3 3 3 5 5 5 4 4 4 4 4 4 3 3 3 3 3 3 3 3 3 3 3 3 3 3 3 3 3 3 3 3 3
4 4 4 33 33 33 33 33 33 34 34 34 34 34 34 35 35 35 35 35 35 36 36 36
36 36 36 37 37 37 38 38 38 38 38 38 39 39 39 39 39 39 38 38 38
32 32 32 15 15 15 16 16 16 14 14 14 12 12 12 8 8 8 6 6 6 6 6 6 6 6 6
6 6 6 5 5 5 5 5 5 7 7 7 7 7 7 8 8 8 8 8 8 24 24 24 25 25 25 14 14 14
5 5 5 7 7 7 6 6 6 7 7 7 50 50 50 71 71 71 5 5 5 7 7 7 10 10 10 5 5 5
5 5 5 5 5 5 6 6 6 8 8 8 12 12 12 17 17 17 51 51 51 37 37 37 28 28 28
16 16 16 5 5 5 9 9 9 6 6 6 6 6 6 21 21 21 26 26 26 52 52 52 65 65 65
50 50 50 26 26 26 12 12 12 11 11 11 12 12 12 13 13 13 12 12 12
19 19 19 40 40 40 66 66 66 62 62 62 56 56 56 45 45 45 47 47 47
44 44 44 41 41 41 38 38 38 35 35 35 33 33 33 37 37 37 36 36 36
35 35 35 33 33 33 32 32 32 31 31 31 28 28 28 25 25 25 23 23 23
21 21 21 19 19 19 19 19 19 18 18 18 18 18 18 15 15 15 9 9 9 5 5 5
4 4 4 6 6 6 4 4 4 4 4 4 4 4 4 3 3 3 3 3 3 3 3 3 4 4 4 4 4 4 3 3 3
3 3 3 5 5 5 4 4 4 4 4 4 4 4 4 3 3 3 3 3 3 3 3 3 3 3 3 3 3 3 3 3 3
3 3 3 33 33 33 33 33 33 34 34 34 35 35 35 35 35 35 36 36 36 36 36 36
37 37 37 37 37 37 38 38 38 39 39 39 39 39 39 39 39 39 40 40 40
29 29 29 15 15 15 15 15 15 15 15 15 13 13 13 7 7 7 6 6 6 6 6 6 6 6 6
6 6 6 5 5 5 5 5 5 6 6 6 7 7 7 9 9 9 7 7 7 13 13 13 28 28 28 21 21 21
9 9 9 4 4 4 5 5 5 6 6 6 25 25 25 81 81 81 33 33 33 2 2 2 8 8 8 6 6 6
4 4 4 6 6 6 5 5 5 9 9 9 11 11 11 15 15 15 37 37 37 38 38 38 25 25 25
32 32 32 5 5 5 10 10 10 9 9 9 7 7 7 20 20 20 26 26 26 44 44 44
35 35 35 17 17 17 11 11 11 12 12 12 13 13 13 16 16 16 25 25 25
37 37 37 52 52 52 64 64 64 67 67 67 53 53 53 43 43 43 35 35 35
25 25 25 22 22 22 16 16 16 16 16 16 16 16 16 21 21 21 26 26 26
30 30 30 29 29 29 28 28 28 28 28 28 28 28 28 27 27 27 26 26 26
24 24 24 23 23 23 22 22 22 21 21 21 20 20 20 19 19 19 18 18 18
13 13 13 7 7 7 4 4 4 6 6 6 6 6 6 4 4 4 4 4 4 3 3 3 3 3 3 3 3 3 4 4 4
4 4 4 3 3 3 3 3 3 4 4 4 4 4 4 4 4 4 4 4 4 3 3 3 3 3 3 3 3 3 3 3 3
3 3 3 3 3 3 3 3 3 34 34 34 34 34 34 35 35 35 35 35 35 36 36 36
37 37 37 37 37 37 38 38 38 39 39 39 39 39 39 39 39 39 39 39 39
40 40 40 41 41 41 29 29 29 16 16 16 15 15 15 15 15 15 13 13 13 8 8 8
6 6 6 6 6 6 6 6 6 6 6 6 6 6 6 5 5 5 6 6 6 7 7 7 8 8 8 7 7 7 8 8 8
14 14 14 18 18 18 10 10 10 7 7 7 5 5 5 5 5 5 8 8 8 52 52 52 73 73 73
20 20 20 5 5 5 10 10 10 6 6 6 6 6 6 5 5 5 9 9 9 11 11 11 16 16 16
33 33 33 33 33 33 27 27 27 50 50 50 13 13 13 10 10 10 13 13 13
14 14 14 26 26 26 23 23 23 22 22 22 14 14 14 12 12 12 11 11 11
15 15 15 27 27 27 36 36 36 46 46 46 44 44 44 37 37 37 43 43 43
39 39 39 30 30 30 23 23 23 19 19 19 20 20 20 10 10 10 6 6 6 7 7 7
9 9 9 9 9 9 9 9 9 14 14 14 17 17 17 18 18 18 22 22 22 22 22 22
23 23 23 24 24 24 25 25 25 26 26 26 25 25 25 25 25 25 23 23 23
21 21 21 20 20 20 16 16 16 10 10 10 5 5 5 5 5 5 6 6 6 6 6 6 4 4 4
3 3 3 3 3 3 3 3 3 4 4 4 4 4 4 3 3 3 3 3 3 5 5 5 4 4 4 4 4 4 3 3 3
4 4 4 3 3 3 3 3 3 3 3 3 4 4 4 4 4 4 4 4 4 34 34 34 35 35 35 35 35 35
35 35 35 37 37 37 37 37 37 38 38 38 39 39 39 39 39 39 39 39 39
40 40 40 41 41 41 42 42 42 41 41 41 31 31 31 18 18 18 17 17 17
16 16 16 13 13 13 11 11 11 7 7 7 6 6 6 7 7 7 6 6 6 7 7 7 5 5 5 6 6 6
6 6 6 6 6 6 8 8 8 8 8 8 5 5 5 9 9 9 8 8 8 6 6 6 6 6 6 5 5 5 6 6 6
16 16 16 52 52 52 45 45 45 7 7 7 6 6 6 6 6 6 5 5 5 5 5 5 5 5 5
13 13 13 18 18 18 30 30 30 37 37 37 35 35 35 61 61 61 19 19 19 9 9 9
24 24 24 29 29 29 36 36 36 28 28 28 20 20 20 15 15 15 17 17 17
23 23 23 34 34 34 43 43 43 43 43 43 37 37 37 28 28 28 52 52 52
58 58 58 40 40 40 32 32 32 20 19 20 13 13 13 10 10 10 19 19 19
24 24 24 21 21 21 9 9 9 8 8 8 6 6 6 6 6 6 8 8 8 11 11 11 15 15 15
17 17 17 20 20 20 23 23 23 25 25 25 28 28 28 30 30 30 29 29 29
27 27 27 23 23 23 22 22 22 18 18 18 13 13 13 8 8 8 5 5 5 5 5 5 6 6 6
5 5 5 3 3 3 3 3 3 3 3 3 4 4 4 4 4 4 3 3 3 3 3 3 4 4 4 5 5 5 3 3 3
3 3 3 4 4 4 3 3 3 3 3 3 3 3 3 3 3 3 4 4 4 4 4 4 35 35 35 35 35 35
36 36 36 36 36 36 37 37 37 38 38 38 38 38 38 39 39 39 39 39 39
41 41 41 41 41 41 42 42 42 43 43 43 42 42 42 34 34 34 21 21 21
21 21 21 18 18 18 12 12 12 12 12 12 7 7 7 5 5 5 8 8 8 8 8 8 6 6 6
5 5 5 5 5 5 6 6 6 7 7 7 7 7 7 8 8 8 9 9 9 8 8 8 17 17 17 12 12 12
0 0 0 4 4 4 4 4 4 4 4 4 7 7 7 20 20 20 12 12 12 4 4 4 5 5 5 5 5 5
5 5 5 4 4 4 10 10 10 32 32 32 35 35 35 41 41 41 57 57 57 76 76 76
49 49 49 33 33 33 54 54 54 61 61 61 51 51 51 32 32 32 28 28 28
31 31 31 36 36 36 41 41 41 42 42 42 43 43 43 43 43 43 27 27 27
42 42 42 68 68 68 53 53 53 29 29 29 16 17 16 35 36 36 19 20 19
69 69 69 68 68 68 44 44 44 79 79 79 58 58 58 25 25 25 10 10 10
10 10 10 7 7 7 7 7 7 10 10 10 14 14 14 20 20 20 24 24 24 26 26 26
31 31 31 34 34 34 31 31 31 30 30 30 26 26 26 23 23 23 21 21 21
16 16 16 9 9 9 6 6 6 5 5 5 5 5 5 7 7 7 4 4 4 3 3 3 3 3 3 4 4 4 4 4 4
3 3 3 3 3 3 3 3 3 4 4 4 3 3 3 4 4 4 4 4 4 3 3 3 3 3 3 3 3 3 3 3 3
4 4 4 4 4 4 34 34 34 35 35 35 36 36 36 36 36 36 37 37 37 37 37 37
39 39 39 40 40 40 40 40 40 41 41 41 42 42 42 43 43 43 43 43 43
44 44 44 37 37 37 25 25 25 23 23 23 22 22 22 13 13 13 11 11 11 8 8 8
6 6 6 8 8 8 7 7 7 6 6 6 6 6 6 6 6 6 6 6 6 7 7 7 7 7 7 7 7 7 15 15 15
24 24 24 34 34 34 60 60 60 37 37 37 17 17 17 14 14 14 16 16 16
15 15 15 14 14 14 15 15 15 9 9 9 5 5 5 7 7 7 10 10 10 4 4 4 0 0 0
20 20 20 67 67 67 62 62 62 92 92 92 117 117 117 106 106 106 90 90 90
86 86 86 77 77 77 67 67 67 45 45 45 41 41 41 43 43 43 39 39 39
35 35 35 41 41 41 47 47 47 41 41 41 29 29 29 64 64 64 56 56 56
22 22 22 38 38 38 118 120 119 119 122 121 70 71 70 113 113 113
25 25 25 0 0 0 81 81 81 96 96 96 38 38 38 15 15 15 25 25 25 29 29 29
19 19 19 17 17 17 18 18 18 22 22 22 26 26 26 31 31 31 33 33 33
36 36 36 33 33 33 32 32 32 28 28 28 24 24 24 21 21 21 18 18 18
12 12 12 8 8 8 5 5 5 5 5 5 7 7 7 5 5 5 3 3 3 3 3 3 3 3 3 4 4 4 3 3 3
3 3 3 3 3 3 4 4 4 4 4 4 4 4 4 4 4 4 4 4 4 3 3 3 3 3 3 3 3 3 4 4 4
4 4 4 35 35 35 35 35 35 36 36 36 36 36 36 37 37 37 38 38 38 39 39 39
40 40 40 40 40 40 41 41 41 42 42 42 43 43 43 43 43 43 44 44 44
40 40 40 31 31 31 26 26 26 23 23 23 15 15 15 11 11 11 10 10 10 9 9 9
7 7 7 6 6 6 6 6 6 6 6 6 6 6 6 6 6 6 6 6 6 6 6 6 5 5 5 18 18 18
62 62 62 87 87 87 112 112 112 124 124 124 114 114 114 104 104 104
75 75 75 60 60 60 35 35 35 26 26 26 16 16 16 9 9 9 16 16 16 40 40 40
54 54 54 60 60 60 73 73 73 118 118 118 152 151 151 161 162 163
167 168 170 159 161 160 128 129 129 100 100 100 81 81 81 71 71 71
61 61 61 48 48 48 40 40 40 28 28 28 28 28 28 41 41 41 50 50 50
45 45 45 37 37 37 52 52 52 30 30 30 41 42 42 119 121 120 178 179 180
132 133 135 83 83 84 107 107 107 45 45 45 35 35 35 72 72 72 60 60 60
16 16 16 14 14 14 26 26 26 32 32 32 22 22 22 22 22 22 22 22 22
26 26 26 32 32 32 36 36 36 38 38 38 38 38 38 35 35 35 33 33 33
30 30 30 25 25 25 21 21 21 20 20 20 16 16 16 10 10 10 6 6 6 5 5 5
6 6 6 6 6 6 4 4 4 3 3 3 3 3 3 3 3 3 3 3 3 3 3 3 3 3 3 4 4 4 4 4 4
4 4 4 4 4 4 5 5 5 3 3 3 3 3 3 3 3 3 4 4 4 4 4 4 35 35 35 35 35 35
36 36 36 37 37 37 37 37 37 38 38 38 39 39 39 40 40 40 41 41 41
41 41 41 42 42 42 43 43 43 44 44 44 43 43 43 41 41 41 36 36 36
29 29 29 24 24 24 16 16 16 10 10 10 10 10 10 11 11 11 9 9 9 5 5 5
5 5 5 6 6 6 6 6 6 6 6 6 6 6 6 6 6 6 5 5 5 10 10 10 54 54 54 81 81 81
93 93 93 94 94 94 80 80 80 80 80 80 56 56 56 35 35 35 31 31 31
20 20 20 18 18 18 20 20 20 22 22 22 22 22 22 39 39 39 88 88 88
164 164 164 211 211 211 198 198 198 198 199 201 193 194 196
186 188 187 148 149 149 114 114 114 95 95 95 76 76 76 63 63 63
48 48 48 33 33 33 23 23 23 24 24 24 46 46 46 56 56 56 50 50 50
67 67 67 41 41 41 42 42 42 116 117 117 166 168 167 184 185 186
180 181 183 65 65 65 34 34 34 63 63 63 68 68 68 61 61 61 30 30 30
12 12 12 18 18 18 18 18 18 12 12 12 13 13 13 16 16 16 23 23 23
32 32 32 37 37 37 39 39 39 40 40 40 41 41 41 37 37 37 33 33 33
32 32 32 28 28 28 22 22 22 20 20 20 18 18 18 12 12 12 8 8 8 5 5 5
6 6 6 6 6 6 5 5 5 4 4 4 3 3 3 3 3 3 3 3 3 3 3 3 3 3 3 4 4 4 3 3 3
3 3 3 4 4 4 5 5 5 3 3 3 3 3 3 3 3 3 3 3 3 4 4 4 36 36 36 36 36 36
37 37 37 37 37 37 38 38 38 39 39 39 39 39 39 40 40 40 41 41 41
41 41 41 42 42 42 43 43 43 43 43 43 43 43 43 42 42 42 40 40 40
33 33 33 24 24 24 17 17 17 11 11 11 9 9 9 13 13 13 12 12 12 6 6 6
5 5 5 5 5 5 5 5 5 6 6 6 5 5 5 5 5 5 6 6 6 2 2 2 23 23 23 61 61 61
48 48 48 27 27 27 25 25 25 26 26 26 38 38 38 22 22 22 13 13 13
13 13 13 15 15 15 15 15 15 17 17 17 19 19 19 17 17 17 24 24 24
58 58 58 158 159 160 221 222 225 216 217 219 213 214 216 203 204 206
170 171 172 134 137 136 103 104 103 80 80 80 61 61 61 43 43 43
28 28 28 23 23 23 20 20 20 45 45 45 70 70 70 67 67 67 94 94 94
38 38 38 88 88 88 162 162 163 203 204 206 207 208 210 186 187 189
158 162 161 64 64 64 28 28 28 37 37 37 34 34 34 26 26 26 24 24 24
18 18 18 10 10 10 11 11 11 14 14 14 19 19 19 28 28 28 37 37 37
41 41 41 40 40 40 41 41 41 43 43 43 38 38 38 34 34 34 33 33 33
30 30 30 25 25 25 21 21 21 19 19 19 14 14 14 11 11 11 6 6 6 6 6 6
6 6 6 6 6 6 4 4 4 4 4 4 4 4 4 3 3 3 3 3 3 3 3 3 3 3 3 3 3 3 3 3 3
3 3 3 4 4 4 4 4 4 3 3 3 3 3 3 3 3 3 4 4 4 37 37 37 36 36 36 37 37 37
37 37 37 38 38 38 39 39 39 39 39 39 40 40 40 41 41 41 42 42 42
43 43 43 44 44 44 45 45 45 45 45 45 46 46 46 42 42 42 38 38 38
32 32 32 21 21 21 12 12 12 8 8 8 12 12 12 16 16 16 7 7 7 6 6 6 5 5 5
4 4 4 5 5 5 4 4 4 4 4 4 4 4 4 4 4 4 1 1 1 21 21 21 28 28 28 16 16 16
27 27 27 12 12 12 2 2 2 21 21 21 55 55 55 52 52 52 15 15 15 32 32 32
51 51 51 36 36 36 43 43 43 33 33 33 41 41 40 72 73 74 160 161 163
229 230 231 223 224 226 221 222 224 201 202 203 161 163 162
124 125 124 79 79 79 59 59 59 39 39 39 27 27 27 22 22 22 20 20 20
31 31 31 92 92 92 108 108 108 72 72 72 51 51 51 98 98 98 130 131 131
175 177 178 190 190 192 179 180 182 149 152 152 122 122 122 56 55 55
28 28 28 27 27 27 23 23 23 17 17 17 14 14 14 13 13 13 13 13 13
19 19 19 26 26 26 36 36 36 42 42 42 44 44 44 42 42 42 43 43 43
43 43 43 40 40 40 36 36 36 33 33 33 29 29 29 25 25 25 22 22 22
18 18 18 15 15 15 12 12 12 7 7 7 5 5 5 5 5 5 6 6 6 6 6 6 4 4 4 4 4 4
3 3 3 3 3 3 3 3 3 3 3 3 3 3 3 3 3 3 3 3 3 4 4 4 4 4 4 3 3 3 3 3 3
3 3 3 4 4 4 37 37 37 36 36 36 37 37 37 37 37 37 38 38 38 39 39 39
40 40 40 41 41 41 42 42 42 43 43 43 44 44 44 44 44 44 46 46 46
46 46 46 46 46 46 43 43 43 42 42 42 42 42 42 34 34 34 22 22 22
10 10 10 8 8 8 14 14 14 10 10 10 6 6 6 5 5 5 5 5 5 4 4 4 4 4 4 4 4 4
4 4 4 4 4 4 5 5 5 2 2 2 11 11 11 20 20 20 7 7 7 8 8 8 58 58 58
116 116 116 138 138 138 70 70 70 44 44 44 146 146 146 33 33 33 0 0 0
63 63 63 87 87 87 53 53 53 100 100 100 131 131 131 187 188 190
235 236 238 229 230 232 222 223 225 178 180 179 132 133 133 79 79 79
50 50 50 35 35 35 27 27 27 22 22 22 22 22 22 23 23 23 79 79 79
103 103 103 31 31 31 55 55 55 65 65 65 73 74 73 95 97 96 87 87 87
82 82 82 58 58 58 47 47 47 34 34 34 26 26 26 19 19 19 19 19 19
16 16 16 16 16 16 18 18 18 20 20 20 28 28 28 37 37 37 43 43 43
48 48 48 48 48 48 44 44 44 43 43 43 41 41 41 39 39 39 35 35 35
32 32 32 30 30 30 26 26 26 22 22 22 19 19 19 17 17 17 13 13 13 9 9 9
5 5 5 5 5 5 5 5 5 6 6 6 4 4 4 4 4 4 3 3 3 3 3 3 3 3 3 3 3 3 3 3 3
3 3 3 4 4 4 4 4 4 3 3 3 3 3 3 3 3 3 3 3 3 3 3 3 37 37 37 38 38 38
37 37 37 38 38 38 39 39 39 39 39 39 39 39 39 41 41 41 42 42 42
43 43 43 44 44 44 45 45 45 47 47 47 48 48 48 45 45 45 44 44 44
44 44 44 43 43 43 43 43 43 37 37 37 24 24 24 12 12 12 10 10 10
11 11 11 8 8 8 6 6 6 5 5 5 5 5 5 4 4 4 4 4 4 4 4 4 4 4 4 4 4 4 5 5 5
6 6 6 8 8 8 9 9 9 26 26 26 90 90 90 124 124 124 136 137 136 89 90 90
33 33 33 137 137 137 67 67 67 28 28 28 86 86 86 84 84 84 35 35 35
81 81 81 150 150 150 155 156 157 222 223 225 232 233 235 226 227 228
183 185 184 127 128 127 76 75 76 43 43 43 32 32 32 26 26 26 23 23 23
22 22 22 33 33 33 63 63 63 74 74 74 73 73 73 98 98 98 111 111 111
139 140 139 122 124 123 112 112 112 102 102 102 82 82 82 63 63 63
48 48 48 34 34 34 25 25 25 28 28 28 23 23 23 22 22 22 24 24 24
31 31 31 37 37 37 44 44 44 48 48 48 50 50 50 50 50 50 47 47 47
44 44 44 41 41 41 39 39 39 35 35 35 32 32 32 29 29 29 26 26 26
22 22 22 20 20 20 18 18 18 14 14 14 10 10 10 5 5 5 5 5 5 5 5 5 5 5 5
5 5 5 4 4 4 4 4 4 3 3 3 3 3 3 3 3 3 3 3 3 3 3 3 3 3 3 4 4 4 4 4 4
3 3 3 3 3 3 3 3 3 4 4 4 40 40 40 38 38 38 38 38 38 38 38 38 39 39 39
39 39 39 40 40 40 41 41 41 42 42 42 43 43 43 44 44 44 46 46 46
47 47 47 47 47 47 45 45 45 44 44 44 45 45 45 44 44 44 43 43 43
41 41 41 34 34 34 24 24 24 13 13 13 11 11 11 10 10 10 8 8 8 6 6 6
5 5 5 5 5 5 4 4 4 4 4 4 4 4 4 4 4 4 5 5 5 4 4 4 7 7 7 42 42 42
46 46 46 76 76 76 124 124 124 138 140 139 139 141 140 57 57 57
28 28 28 66 66 66 66 66 66 73 73 73 36 36 36 24 24 24 31 31 31
118 118 118 166 167 169 187 188 190 225 226 228 210 211 212
165 167 166 114 115 114 70 70 70 42 42 42 29 29 29 25 25 25 23 23 23
21 21 21 34 34 34 68 68 68 104 104 104 133 133 133 109 109 109
99 99 99 109 109 109 125 125 125 151 151 151 152 152 152 132 132 132
96 96 96 81 81 81 56 56 56 38 38 38 35 35 35 31 31 31 31 31 31
36 36 36 40 40 40 46 46 46 50 50 50 51 51 51 52 52 52 51 51 51
47 47 47 45 45 45 42 42 42 39 39 39 34 34 34 30 30 30 29 29 29
26 26 26 24 24 24 21 21 21 19 19 19 14 14 14 11 11 11 6 6 6 4 4 4
5 5 5 5 5 5 6 6 6 4 4 4 4 4 4 3 3 3 3 3 3 3 3 3 3 3 3 3 3 3 3 3 3
3 3 3 3 3 3 3 3 3 3 3 3 3 3 3 3 3 3 48 48 48 43 43 43 39 39 39
39 39 39 39 39 39 39 39 39 40 40 40 41 41 41 42 42 42 43 43 43
45 45 45 46 46 46 47 47 47 46 46 46 46 46 46 46 46 46 45 45 45
45 45 45 44 44 44 42 42 42 38 38 38 33 33 33 22 22 22 14 14 14
12 12 12 9 9 9 7 7 7 6 6 6 5 5 5 5 5 5 4 4 4 4 4 4 4 4 4 4 4 4 5 5 5
2 2 2 27 27 27 51 51 51 56 56 56 121 121 121 155 157 156 160 162 161
161 162 161 94 95 94 40 40 40 33 33 33 34 34 34 43 43 43 40 40 40
51 52 52 120 121 120 176 178 178 176 177 178 213 214 216 192 193 195
152 153 153 113 114 114 67 67 67 36 36 36 26 26 26 24 24 24 22 22 22
24 24 24 27 27 27 35 35 35 77 77 77 124 124 124 95 95 95 78 78 78
72 72 72 77 77 77 100 100 100 111 111 111 113 113 113 88 88 88
73 73 73 64 64 64 50 50 50 45 45 45 45 45 45 45 45 45 46 46 46
48 48 48 54 54 54 54 54 54 52 52 52 52 52 52 50 50 50 45 45 45
43 43 43 42 42 42 39 39 39 35 35 35 29 29 29 30 30 30 27 27 27
24 24 24 20 20 20 20 20 20 14 14 14 11 11 11 7 7 7 4 4 4 5 5 5 5 5 5
5 5 5 5 5 5 4 4 4 3 3 3 3 3 3 3 3 3 3 3 3 3 3 3 3 3 3 3 3 3 3 3 3
3 3 3 3 3 3 3 3 3 3 3 3 65 65 65 56 56 56 44 44 44 40 40 40 39 39 39
39 39 39 40 40 40 42 42 42 42 42 42 44 44 44 45 45 45 46 46 46
46 46 46 46 46 46 47 47 47 47 47 47 46 46 46 45 45 45 44 44 44
42 42 42 40 40 40 35 35 35 26 26 26 18 18 18 15 15 15 12 12 12 9 9 9
7 7 7 6 6 6 5 5 5 5 5 5 5 5 5 4 4 4 4 4 4 4 4 4 3 3 3 10 10 10
30 30 30 36 36 36 78 78 78 128 130 129 136 138 137 153 155 154
133 135 134 68 68 68 52 52 52 68 68 68 77 77 77 109 108 109
152 154 153 170 172 171 155 157 156 179 181 180 199 200 202
170 171 172 138 137 137 109 109 109 61 61 61 33 33 33 24 24 24
23 23 23 23 23 23 24 24 24 27 27 27 30 30 30 36 36 36 94 94 94
124 124 124 114 114 114 107 107 107 101 101 101 103 103 103
103 103 103 101 101 101 91 91 91 74 74 74 64 64 64 59 59 59 55 55 55
53 53 53 50 50 50 49 49 49 51 51 51 54 54 54 52 52 52 50 50 50
47 47 47 43 43 43 41 41 41 41 41 41 40 40 40 37 37 37 34 34 34
30 30 30 28 28 28 27 27 27 25 25 25 21 21 21 19 19 19 15 15 15
12 12 12 8 8 8 4 4 4 5 5 5 5 5 5 5 5 5 5 5 5 4 4 4 4 4 4 3 3 3 3 3 3
3 3 3 3 3 3 3 3 3 3 3 3 3 3 3 3 3 3 3 3 3 3 3 3 4 4 4 94 94 92
81 81 80 62 62 60 48 48 47 41 41 41 40 40 40 41 41 41 43 43 43
43 43 43 44 44 44 45 45 45 46 46 46 46 46 46 47 47 47 48 48 48
48 48 48 48 48 48 47 47 47 45 45 45 43 43 43 39 39 39 35 35 35
29 29 29 21 21 21 15 15 15 12 12 12 12 12 12 9 9 9 7 7 7 6 6 6 6 6 6
5 5 5 5 5 5 4 4 4 4 4 4 5 5 5 6 6 6 42 42 42 29 29 28 41 41 40
51 52 50 58 58 57 70 71 70 84 85 84 84 84 84 67 67 67 74 74 75
84 84 85 98 98 98 124 125 125 156 157 159 152 154 154 172 174 172
187 188 188 161 163 163 137 137 137 98 98 98 57 57 57 33 33 33
24 24 24 23 23 23 23 23 23 24 24 24 25 25 25 29 29 29 33 33 33
40 40 40 98 98 98 132 132 132 121 121 121 122 122 122 126 126 126
127 127 127 120 120 120 103 103 103 79 79 79 68 68 68 60 60 60
54 54 54 54 54 54 52 52 52 50 50 50 52 52 52 53 53 53 52 52 52
49 49 49 45 45 45 43 43 43 40 40 40 40 40 40 38 38 38 36 36 36
34 34 34 31 31 31 27 27 27 27 27 27 25 25 25 21 21 21 18 18 18
16 16 16 12 12 12 8 8 8 4 4 4 5 5 5 6 6 6 5 5 5 5 5 5 4 4 4 4 4 4
3 3 3 3 3 3 3 3 3 3 3 3 3 3 3 3 3 3 3 3 3 3 3 3 3 3 3 3 3 3 4 4 4
126 126 123 114 114 112 94 94 92 69 69 68 51 51 51 44 44 44 43 43 43
44 44 43 44 44 44 44 44 44 45 45 45 46 46 46 47 47 47 47 47 47
48 48 48 48 48 48 48 48 48 48 48 48 48 48 48 46 46 46 40 40 40
35 35 35 30 30 30 24 24 24 17 17 17 12 12 12 11 11 11 11 11 11 8 8 8
7 7 7 6 6 6 6 6 6 5 5 5 5 5 5 4 4 4 6 6 6 0 0 0 67 67 67 61 61 60
33 33 31 59 58 56 51 51 49 92 92 92 108 108 108 100 100 100 93 93 93
90 90 89 83 83 83 111 111 111 167 168 169 193 194 197 158 160 160
177 179 178 187 189 188 162 164 163 135 135 135 91 91 91 51 51 51
37 37 37 25 25 25 23 23 23 23 23 23 23 23 23 24 24 24 26 26 26
33 33 33 37 37 37 43 43 43 99 99 99 134 134 134 125 125 125
119 119 119 119 119 119 114 114 114 105 105 105 87 87 87 72 72 72
62 62 62 58 58 58 53 53 53 53 53 53 55 55 55 55 55 55 54 54 54
52 52 52 49 49 49 45 45 45 43 43 43 41 41 41 39 39 39 38 38 38
35 35 35 33 33 33 31 31 31 27 27 27 27 27 27 25 25 25 22 22 22
19 19 19 16 16 16 12 12 12 9 9 9 4 4 4 5 5 5 6 6 6 6 6 6 5 5 5 5 5 5
4 4 4 4 4 4 3 3 3 3 3 3 3 3 3 3 3 3 3 3 3 3 3 3 4 4 4 4 4 4 4 4 4
4 4 4 153 155 154 145 147 145 129 129 127 102 102 100 75 75 73
56 56 55 50 50 50 48 48 48 46 46 46 45 45 45 45 45 45 46 46 46
47 47 47 47 47 47 47 47 47 48 48 48 48 48 48 49 49 49 49 49 49
48 48 48 43 43 43 38 38 38 32 32 32 26 26 26 21 21 21 12 12 12
10 10 10 11 11 11 9 9 9 8 8 8 7 7 7 6 6 6 5 5 5 5 5 5 5 5 5 6 6 6
0 0 0 62 62 62 106 106 106 50 50 50 64 64 64 73 73 73 104 104 104
128 128 128 132 134 133 139 141 140 131 131 129 151 152 150
180 181 181 219 222 222 214 217 219 175 177 178 190 191 193
184 186 185 160 162 161 142 142 142 80 80 80 59 59 59 36 36 36
26 26 26 23 23 23 23 23 23 23 23 23 25 25 25 25 25 25 31 31 31
38 38 38 42 42 42 52 52 52 108 108 108 140 140 140 137 138 137
123 125 124 117 117 117 109 109 109 94 94 94 79 79 79 67 67 67
60 60 60 57 57 57 56 56 56 57 57 57 53 53 53 52 52 52 51 51 51
49 49 49 45 45 45 42 42 42 40 40 40 38 38 38 36 36 36 33 33 33
31 31 31 29 29 29 27 27 27 26 26 26 24 24 24 22 22 22 19 19 19
15 15 15 13 13 13 9 9 9 4 4 4 5 5 5 7 7 7 6 6 6 5 5 5 5 5 5 4 4 4
4 4 4 4 4 4 3 3 3 3 3 3 3 3 3 3 3 3 3 3 3 3 3 3 4 4 4 4 4 4 4 4 4
176 178 177 172 173 172 159 159 157 138 138 136 108 109 106 80 80 79
66 66 66 60 60 60 55 55 55 48 48 48 46 46 46 45 45 45 46 46 46
46 46 46 47 47 47 48 48 48 49 49 49 50 50 50 50 50 50 49 49 49
43 43 43 41 41 41 36 36 36 28 28 28 24 24 24 13 13 13 9 9 9 10 10 10
11 11 11 10 10 10 7 7 7 7 7 7 6 6 6 5 5 5 5 5 5 6 6 6 0 0 0 49 49 49
137 137 137 86 86 86 74 74 74 88 88 88 110 110 110 141 141 141
164 165 165 182 185 185 201 205 206 204 207 209 214 215 219
231 234 235 222 226 227 199 201 202 197 198 200 186 188 187
178 180 179 148 148 148 89 89 89 52 52 52 33 33 33 26 26 26 23 23 23
23 23 23 24 24 24 25 25 25 26 26 26 30 30 30 35 35 35 39 39 39
45 45 45 71 71 71 113 113 113 141 142 142 142 144 143 130 130 130
115 115 115 104 104 104 87 87 87 77 77 77 66 66 66 59 59 59 60 60 60
58 58 58 54 54 54 52 52 52 51 51 51 48 48 48 45 45 45 42 42 42
39 39 39 38 38 38 35 35 35 32 32 32 31 31 31 29 29 29 26 26 26
26 26 26 25 25 25 22 22 22 19 19 19 15 15 15 13 13 13 9 9 9 4 4 4
5 5 5 7 7 7 6 6 6 6 6 6 5 5 5 5 5 5 4 4 4 4 4 4 3 3 3 3 3 3 3 3 3
3 3 3 3 3 3 3 3 3 4 4 4 4 4 4 4 4 4 193 197 196 191 194 193
183 185 184 166 168 166 140 142 139 109 110 107 91 90 88 82 82 80
71 71 70 59 59 59 50 50 50 46 46 46 46 46 46 47 47 47 48 48 48
48 48 48 49 49 49 50 50 50 50 50 50 50 50 50 42 42 42 42 42 42
38 38 38 30 30 30 27 27 27 15 15 15 9 9 9 9 9 9 11 11 11 10 10 10
8 8 8 8 8 8 7 7 7 6 6 6 5 5 5 7 7 7 0 0 0 43 43 43 146 146 145
103 103 101 98 98 97 97 97 97 114 114 114 153 153 154 192 192 194
212 214 216 219 224 225 213 217 218 221 225 226 231 235 236
217 221 222 211 213 215 197 198 200 188 190 189 179 181 180
149 149 149 86 86 86 45 45 45 30 30 30 25 25 25 22 22 22 24 24 24
24 24 24 25 25 25 28 28 28 31 31 31 34 34 34 41 41 41 45 45 45
59 59 59 88 88 88 118 118 118 127 127 127 130 130 130 123 123 123
106 106 106 100 100 100 89 89 89 75 75 75 66 66 66 66 66 66 60 60 60
55 55 55 49 49 49 49 49 49 49 49 49 46 46 46 41 41 41 38 38 38
37 37 37 35 35 35 32 32 32 31 31 31 29 29 29 27 27 27 25 25 25
24 24 24 22 22 22 19 19 19 15 15 15 12 12 12 8 8 8 5 5 5 6 6 6 7 7 7
6 6 6 5 5 5 5 5 5 5 5 5 4 4 4 3 3 3 3 3 3 3 3 3 3 3 3 3 3 3 3 3 3
3 3 3 4 4 4 4 4 4 4 4 4 208 212 212 207 211 210 201 204 204
188 191 190 166 168 166 137 138 136 116 116 115 106 106 104 94 94 92
78 78 77 62 62 61 51 51 51 47 47 47 47 47 47 47 47 47 48 48 48
48 48 48 50 50 50 51 51 51 51 51 51 43 43 43 43 43 43 41 41 41
32 32 32 29 29 29 18 18 18 10 10 10 10 10 10 11 11 11 11 11 11 8 8 8
8 8 8 8 8 8 7 7 7 5 5 5 6 6 6 0 0 0 33 33 34 149 149 148 107 107 104
100 100 99 102 102 102 124 124 124 169 169 169 200 201 203
216 218 219 211 215 216 216 220 221 231 235 236 235 239 240
223 227 228 216 217 219 200 200 202 192 194 193 176 177 177
128 128 128 77 77 77 40 40 40 26 26 26 24 24 24 23 23 23 24 24 24
24 24 24 25 25 25 28 28 28 31 31 31 32 32 32 42 42 42 49 49 49
57 57 57 77 77 77 101 101 101 116 116 116 113 113 113 109 109 109
106 106 106 103 103 103 92 92 92 81 81 81 77 77 77 69 69 69 60 60 60
53 53 53 50 50 50 48 48 48 49 49 49 47 47 47 43 43 43 38 38 38
35 35 35 34 34 34 32 32 32 31 31 31 29 29 29 27 27 27 24 24 24
22 22 22 21 21 21 18 18 18 15 15 15 13 13 13 8 8 8 4 4 4 6 6 6 8 8 8
6 6 6 5 5 5 5 5 5 5 5 5 4 4 4 4 4 4 3 3 3 3 3 3 3 3 3 3 3 3 3 3 3
3 3 3 4 4 4 4 4 4 4 4 4 220 224 225 219 223 224 213 218 219
205 208 208 188 190 188 162 164 163 141 143 142 130 131 129
118 118 115 99 99 97 79 79 77 61 61 61 50 50 50 47 47 47 47 47 47
48 48 48 48 48 48 50 50 50 51 51 51 50 50 50 46 46 46 43 43 43
43 43 43 37 37 37 29 29 29 20 20 20 13 13 13 11 11 11 10 10 10
12 12 12 10 10 10 7 7 7 7 7 7 8 8 8 6 6 6 6 6 6 1 1 1 22 22 22
140 140 139 109 109 107 97 97 97 102 103 103 121 123 122 166 168 167
200 201 203 223 225 227 217 221 222 229 233 234 244 248 249
230 234 235 225 229 230 225 226 228 191 192 194 181 183 182
174 176 175 112 112 112 72 72 72 44 44 44 29 29 29 22 22 22 22 22 22
22 22 22 23 23 23 24 24 24 28 28 28 30 30 30 34 34 34 46 46 46
54 54 54 62 62 62 73 73 73 91 91 91 107 107 107 107 107 107
106 106 106 102 102 102 93 93 93 86 86 86 85 85 85 80 80 80 70 70 70
60 60 60 55 55 55 53 53 53 51 51 51 47 47 47 47 47 47 43 43 43
38 38 38 37 37 37 33 33 33 32 32 32 31 31 31 29 29 29 27 27 27
24 24 24 23 23 23 21 21 21 17 17 17 14 14 14 12 12 12 8 8 8 4 4 4
7 7 7 8 8 8 6 6 6 5 5 5 5 5 5 5 5 5 5 5 5 4 4 4 3 3 3 3 3 3 3 3 3
3 3 3 3 3 3 3 3 3 3 3 3 4 4 4 4 4 4 229 233 234 228 232 233
224 228 229 217 220 221 203 206 205 181 184 183 164 166 165
153 154 153 141 142 140 122 123 121 99 100 99 78 78 78 59 59 59
49 49 49 47 47 47 48 48 48 48 48 48 49 49 49 49 49 49 49 49 49
50 50 50 44 44 44 43 43 43 40 40 40 31 31 31 22 22 22 18 18 18
23 23 23 14 14 14 13 13 13 12 12 12 8 8 8 7 7 7 9 9 9 7 7 7 6 6 6
3 3 3 15 15 15 125 125 124 105 105 103 99 99 98 104 104 103
120 122 120 166 168 167 201 202 204 225 227 229 236 240 241
245 249 250 242 246 247 228 231 233 229 231 233 226 228 229
187 188 189 181 183 182 162 164 163 120 120 120 76 76 76 35 35 35
26 26 26 21 21 21 20 20 20 21 21 21 23 23 23 24 24 24 27 27 27
31 31 31 37 37 37 47 47 47 57 57 57 62 62 62 72 72 72 90 90 90
107 107 107 111 111 111 115 115 115 109 109 109 100 100 100 91 91 91
80 80 80 77 77 77 71 71 71 60 60 60 55 55 55 51 51 51 49 49 49
45 45 45 45 45 45 42 42 42 40 40 40 37 37 37 34 34 34 31 31 31
31 31 31 29 29 29 26 26 26 24 24 24 24 24 24 21 21 21 17 17 17
14 14 14 12 12 12 6 6 6 4 4 4 10 10 10 9 9 9 7 7 7 5 5 5 5 5 5 5 5 5
5 5 5 4 4 4 4 4 4 3 3 3 3 3 3 3 3 3 3 3 3 3 3 3 4 4 4 4 4 4 4 4 4
235 239 240 234 238 239 232 236 237 226 230 231 213 217 219
197 200 200 183 185 183 172 174 173 162 164 163 144 147 146
121 123 122 96 96 96 72 72 72 54 54 54 48 48 48 47 47 47 48 48 48
48 48 48 49 49 49 49 49 49 56 56 56 50 50 50 42 42 42 41 41 41
34 34 34 26 26 26 18 18 18 26 26 26 21 21 21 12 12 12 14 14 14 9 9 9
7 7 7 9 9 9 10 10 10 7 7 7 4 4 4 10 10 10 113 113 112 105 105 103
100 100 98 105 105 103 129 131 129 176 177 177 209 210 212
231 233 235 242 246 247 241 245 246 234 238 239 235 237 238
235 235 238 230 231 231 181 183 181 168 170 169 157 159 159 98 98 98
52 52 52 26 26 26 21 21 21 20 20 20 20 20 20 21 21 21 22 22 22
24 24 24 28 28 28 33 33 33 42 42 42 48 48 48 58 58 58 66 66 66
78 78 78 91 91 91 109 109 109 113 113 113 116 116 116 113 113 113
105 105 105 96 96 96 85 85 85 78 78 78 68 68 68 58 58 58 53 53 53
50 50 50 46 46 46 43 43 43 41 41 41 40 40 40 39 39 39 36 36 36
34 34 34 32 32 32 30 30 30 28 28 28 26 26 26 24 24 24 22 22 22
21 21 21 17 17 17 14 14 14 12 12 12 5 5 5 5 5 5 11 11 11 9 9 9 8 8 8
6 6 6 5 5 5 4 4 4 5 5 5 4 4 4 4 4 4 3 3 3 3 3 3 3 3 3 3 3 3 3 3 3
3 3 3 4 4 4 4 4 4 239 243 244 239 243 244 237 241 242 232 236 237
223 227 228 210 214 214 197 200 201 189 191 191 180 181 180
164 166 165 143 145 144 117 117 116 89 89 88 65 65 65 50 50 50
47 47 47 48 48 48 48 48 48 48 48 48 48 48 48 54 54 54 51 51 51
43 43 43 45 45 45 38 38 38 29 29 29 21 21 21 18 18 18 20 20 20
17 17 17 16 16 16 12 12 12 7 7 7 9 9 9 11 11 11 8 8 8 6 6 6 3 3 4
94 94 92 104 104 102 97 97 95 113 113 111 142 144 142 181 183 184
209 212 213 223 227 228 238 242 243 238 242 243 232 237 238
234 236 237 234 235 237 219 221 220 162 164 163 167 168 169
129 129 128 74 74 74 37 37 37 24 24 24 21 21 21 20 20 20 19 19 19
20 20 20 20 20 20 23 23 23 27 27 27 34 34 34 47 47 47 55 55 55
64 64 64 71 71 71 85 85 85 100 100 100 117 117 117 114 114 114
112 112 112 116 116 116 103 103 103 94 94 94 87 87 87 73 73 73
67 67 67 59 59 59 52 52 52 48 48 48 45 45 45 42 42 42 40 40 40
39 39 39 38 38 38 35 35 35 33 33 33 32 32 32 30 30 30 28 28 28
26 26 26 23 23 23 20 20 20 21 21 21 16 16 16 14 14 14 11 11 11 4 4 4
7 7 7 12 12 12 9 9 9 9 9 9 6 6 6 5 5 5 4 4 4 4 4 4 4 4 4 3 3 3 3 3 3
3 3 3 3 3 3 3 3 3 3 3 3 4 4 4 4 4 4 4 4 4 242 245 246 241 245 246
240 244 245 237 241 242 231 235 236 220 225 226 209 213 215
202 205 204 194 196 194 180 182 181 161 163 162 136 136 134
106 106 104 76 76 77 54 54 54 47 47 47 47 47 47 48 48 48 48 48 48
48 48 48 47 47 47 46 46 46 43 43 43 48 48 48 45 45 45 29 29 29
22 22 22 19 19 19 25 25 25 25 25 25 20 20 20 19 19 19 7 7 7 10 10 10
11 11 11 8 8 8 7 7 7 0 0 0 67 67 65 104 104 102 93 93 91 118 118 116
148 150 147 186 187 189 209 213 214 222 226 227 227 231 232
234 238 239 231 235 236 229 231 232 239 240 242 192 194 193
170 172 171 174 176 177 110 109 107 73 73 73 38 38 38 23 23 23
21 21 21 20 20 20 20 20 20 19 19 19 19 19 19 20 20 20 22 22 22
27 27 27 37 37 37 56 56 56 77 77 77 89 89 89 101 101 101 112 112 112
121 121 121 118 118 118 116 116 116 113 113 113 102 102 102 92 92 92
80 80 80 69 69 69 66 66 66 59 59 59 50 50 50 46 46 46 43 43 43
41 41 41 39 39 39 38 38 38 37 37 37 35 35 35 33 33 33 32 32 32
31 31 31 29 29 29 25 25 25 23 23 23 20 20 20 19 19 19 16 16 16
14 14 14 9 9 9 3 3 3 9 9 9 12 12 12 10 10 10 9 9 9 6 6 6 5 5 5 4 4 4
4 4 4 4 4 4 4 4 4 3 3 3 3 3 3 3 3 3 3 3 3 3 3 3 4 4 4 4 4 4 4 4 4
242 247 250 243 248 250 242 246 249 240 245 247 237 241 242
229 233 234 219 223 224 212 215 216 204 207 208 192 194 194
175 177 175 152 154 151 121 122 119 88 88 86 62 62 61 48 48 48
47 47 47 48 48 48 48 48 48 48 48 48 48 48 48 46 46 46 44 44 44
47 47 47 47 47 47 35 35 35 22 22 22 18 18 18 28 28 28 30 30 30
23 23 23 30 30 30 19 19 19 8 8 8 10 10 10 8 8 8 8 8 8 0 0 0 38 38 37
104 103 101 94 94 92 113 113 111 149 150 149 190 191 192 212 213 215
227 229 231 229 233 234 231 235 236 232 236 237 231 234 235
237 240 241 178 181 180 181 183 182 163 165 165 116 114 114 70 70 70
36 36 36 23 23 23 21 21 21 20 20 20 20 20 20 19 19 19 18 18 18
18 18 18 20 20 20 23 23 23 27 27 27 35 35 35 72 72 72 109 109 109
123 123 123 131 131 131 128 128 128 116 116 116 121 121 121
117 117 117 106 106 106 92 92 92 79 79 79 70 70 70 62 62 62 59 59 59
52 52 52 46 46 46 43 43 43 40 40 40 38 38 38 37 37 37 36 36 36
35 35 35 33 33 33 32 32 32 31 31 31 29 29 29 25 25 25 22 22 22
19 19 19 18 18 18 16 16 16 14 14 14 7 7 7 4 4 4 12 12 12 12 12 12
11 11 11 10 10 10 7 7 7 5 5 5 5 5 5 5 5 5 4 4 4 4 4 4 4 4 4 3 3 3
3 3 3 3 3 3 4 4 4 4 4 4 4 4 4 4 4 4 243 248 251 244 249 252
243 248 251 242 247 249 240 244 245 235 239 240 228 232 233
220 224 225 212 216 217 202 205 204 187 189 187 164 166 163
133 135 132 100 100 97 69 69 68 50 50 50 47 47 47 47 47 47 48 48 48
49 49 49 50 50 50 47 47 47 45 45 45 45 45 45 44 44 44 46 46 46
29 29 29 17 17 17 26 26 26 32 32 32 28 28 28 34 34 34 36 36 36
13 13 13 8 8 8 8 8 8 7 7 7 3 3 3 14 14 13 89 88 86 96 95 93
106 106 104 144 144 144 186 186 187 204 205 207 224 226 228
239 243 244 244 248 249 245 249 250 246 251 251 224 228 229
173 176 175 198 200 199 162 164 163 120 119 120 67 67 67 37 37 37
25 25 25 23 23 23 22 22 22 20 20 20 20 20 19 20 20 20 20 20 20
20 20 20 20 20 20 24 24 24 28 28 28 47 47 47 119 119 119 142 142 142
141 141 141 131 131 131 127 127 127 124 124 124 117 117 117
106 106 106 92 92 92 80 80 80 68 68 68 61 61 61 57 57 57 53 53 53
48 48 48 42 42 42 40 40 40 38 38 38 37 37 37 36 36 36 35 35 35
33 33 33 32 32 32 31 31 31 28 28 28 24 24 24 22 22 22 20 20 20
19 19 19 16 16 16 13 13 13 5 5 5 5 5 5 14 14 14 12 12 12 11 11 11
10 10 10 7 7 7 5 5 5 5 5 5 5 5 5 5 5 5 4 4 4 3 3 3 3 3 3 4 4 4 4 4 4
4 4 4 4 4 4 4 4 4 4 4 4 244 249 252 244 249 252 244 249 252
243 248 250 242 248 247 239 244 244 234 238 239 228 232 233
221 225 226 210 213 214 194 197 198 173 176 175 144 146 144
110 110 108 76 76 75 54 54 54 47 47 47 47 47 47 48 48 48 48 48 48
49 49 49 47 47 47 45 45 45 45 45 45 43 43 43 52 52 52 39 39 39
20 20 20 26 26 26 27 27 27 29 29 29 29 29 29 30 30 30 19 19 19 8 8 8
7 7 7 6 6 6 6 6 6 0 1 0 62 60 58 102 100 99 99 99 97 136 136 136
179 179 180 203 204 206 225 227 229 242 246 247 248 252 253
246 252 252 254 255 255 214 218 219 189 191 192 220 221 223
190 192 191 116 117 116 75 75 75 47 47 47 30 30 30 27 27 27 25 25 25
24 24 24 22 22 22 22 22 22 22 22 22 22 22 22 21 21 21 21 21 21
26 26 26 48 48 48 117 117 117 142 142 142 138 138 138 136 136 136
135 135 135 127 127 127 117 117 117 106 106 106 94 94 94 80 80 80
69 69 69 63 63 63 58 58 58 52 52 52 46 46 46 42 42 42 40 40 40
38 38 38 37 37 37 35 35 35 35 35 35 33 33 33 33 33 33 31 31 31
28 28 28 24 24 24 21 21 21 20 20 20 19 19 19 16 16 16 11 11 11 3 3 3
8 8 8 15 15 15 13 13 13 12 12 12 10 10 10 7 7 7 6 6 6 5 5 5 4 4 4
5 5 5 4 4 4 4 4 4 3 3 3 4 4 4 4 4 4 4 4 4 4 4 4 4 4 4 4 4 4
244 249 252 245 250 253 245 250 253 244 249 251 243 249 249
241 246 247 238 242 243 233 237 238 226 230 231 216 220 221
200 204 205 181 183 182 152 154 153 119 119 117 85 85 84 59 59 59
48 48 48 47 47 47 48 48 48 48 48 48 48 48 48 48 48 48 46 46 46
44 44 44 42 42 42 59 59 59 50 50 50 25 25 25 34 34 34 28 28 28
30 30 30 26 26 26 22 22 22 13 13 13 7 7 7 6 6 6 6 6 6 6 6 6 1 2 0
22 20 19 93 91 90 97 97 95 126 126 125 170 170 171 199 200 202
227 229 230 243 247 248 248 253 253 246 252 252 252 255 255
213 217 218 205 206 208 236 236 238 222 224 224 150 152 151
102 102 102 66 66 66 47 47 47 39 39 39 34 34 34 30 30 30 26 26 25
25 25 25 25 25 26 24 24 24 24 24 24 19 19 19 23 23 23 64 64 64
120 120 120 132 132 132 136 136 136 137 137 137 133 133 133
127 127 127 120 120 120 101 101 101 91 91 91 78 78 78 70 70 70
64 64 64 57 57 57 50 50 50 44 44 44 41 41 41 39 39 39 38 38 38
36 36 36 35 35 35 34 34 34 32 32 32 31 31 31 30 30 30 27 27 27
24 24 24 22 22 22 21 21 21 18 18 18 15 15 15 8 8 8 4 4 4 11 11 11
15 15 15 13 13 13 12 12 12 11 11 11 8 8 8 6 6 6 5 5 5 4 4 4 4 4 4
4 4 4 4 4 4 4 4 4 4 4 4 4 4 4 4 4 4 4 4 4 4 4 4 4 4 4 244 249 252
245 250 253 245 250 253 245 250 253 244 249 252 243 247 249
241 245 245 237 241 242 230 234 235 220 224 225 205 209 210
186 188 187 159 160 159 126 126 124 92 92 91 64 64 64 50 50 50
47 47 47 47 47 47 48 48 48 48 48 48 48 48 48 46 46 46 44 44 44
40 40 40 58 58 58 54 54 54 26 26 26 41 41 41 30 30 30 29 29 29
24 24 24 20 20 20 12 12 12 7 7 7 6 6 6 6 6 6 5 5 5 5 5 5 0 0 0
55 54 53 99 98 96 111 111 111 169 169 170 198 199 201 227 228 231
242 247 250 247 251 253 247 251 252 250 254 255 231 235 236
192 193 195 213 214 216 207 208 210 177 178 180 120 120 118 73 73 72
54 54 54 46 46 46 43 43 43 42 42 41 44 44 42 40 40 39 30 30 30
27 27 27 27 27 27 20 20 20 26 26 26 89 89 89 117 117 117 127 127 127
132 132 132 133 133 133 131 131 131 127 127 127 116 116 116 99 99 99
89 89 89 80 80 80 69 69 69 65 65 65 59 59 59 51 51 51 46 46 46
42 42 42 40 40 40 38 38 38 36 36 36 34 34 34 32 32 32 32 32 32
30 30 30 29 29 29 26 26 26 24 24 24 22 22 22 21 21 21 18 18 18
13 13 13 5 5 5 5 5 5 13 13 13 15 15 15 14 14 14 13 13 13 12 12 12
9 9 9 6 6 6 5 5 5 4 4 4 4 4 4 4 4 4 4 4 4 3 3 3 4 4 4 4 4 4 4 4 4
4 4 4 4 4 4 4 4 4 244 249 252 245 250 253 245 250 253 245 250 253
244 249 252 243 248 250 242 246 248 239 243 244 233 237 238
223 227 228 208 212 213 189 191 191 163 165 163 130 130 128 96 96 95
67 67 67 51 51 51 47 47 47 47 47 47 47 47 47 48 48 48 48 48 48
47 47 47 44 44 44 38 38 38 52 52 52 62 62 62 24 24 24 26 26 26
26 26 26 24 24 24 20 20 20 15 15 15 11 11 11 7 7 7 6 6 6 6 6 6 5 5 5
6 6 6 3 3 3 13 13 12 83 82 80 103 103 102 157 157 157 198 199 201
219 220 223 238 241 244 245 248 250 247 251 252 246 250 251
246 251 252 214 216 218 179 181 183 197 198 200 189 190 191
145 145 144 92 92 91 58 58 58 36 36 36 28 28 28 28 28 27 31 31 30
55 55 55 63 63 63 42 42 42 31 31 31 18 18 18 50 50 50 93 93 93
106 106 106 120 120 120 124 124 124 127 127 127 129 129 129
124 124 124 112 112 112 97 97 97 85 85 85 78 78 78 69 69 69 64 64 64
56 56 56 49 49 49 47 47 47 44 44 44 41 41 41 39 39 39 37 37 37
35 35 35 33 33 33 31 31 31 30 30 30 29 29 29 25 25 25 23 23 23
22 22 22 20 20 20 18 18 18 10 10 10 4 4 4 8 8 8 16 16 16 16 16 16
14 14 14 15 15 15 13 13 13 9 9 9 6 6 6 5 5 5 4 4 4 4 4 4 4 4 4 4 4 4
4 4 4 4 4 4 4 4 4 4 4 4 4 4 4 4 4 4 4 4 4 245 250 253 246 251 253
246 252 252 245 251 252 245 250 253 244 249 252 242 247 250
240 244 246 235 239 240 225 229 230 210 214 215 192 194 193
166 167 166 133 133 131 100 100 98 71 71 71 53 53 53 48 48 48
47 47 47 47 47 47 48 48 48 48 48 48 46 46 46 42 42 42 37 37 37
51 51 51 65 65 65 27 27 27 15 15 15 23 23 23 21 21 21 18 18 18
12 12 12 9 9 9 9 9 9 7 7 7 6 6 6 5 5 5 5 5 5 6 6 6 0 1 0 37 36 37
95 95 93 134 135 132 193 195 195 217 218 222 231 232 234 242 244 246
245 249 250 246 250 251 241 245 246 245 249 250 192 196 197
154 157 155 178 179 178 168 168 168 107 107 107 40 40 40 15 15 15
20 20 20 23 23 24 14 14 14 47 47 47 89 89 89 55 55 55 23 23 23
33 33 33 61 61 61 72 72 72 91 91 91 103 103 103 109 109 109
119 119 119 121 121 121 116 116 116 104 104 104 90 90 90 80 80 80
75 75 75 68 68 68 62 62 62 55 55 55 50 50 50 47 47 47 45 45 45
43 43 43 40 40 40 38 38 38 36 36 36 33 33 33 31 31 31 29 29 29
27 27 27 24 24 24 23 23 23 22 22 22 21 21 21 16 16 16 7 7 7 4 4 4
12 12 12 18 18 18 17 17 17 15 15 15 15 15 15 14 14 14 9 9 9 6 6 6
5 5 5 5 5 5 5 5 5 4 4 4 4 4 4 4 4 4 4 4 4 4 4 4 4 4 4 4 4 4 4 4 4
4 4 4 245 250 253 246 251 254 246 252 252 246 251 252 245 249 253
243 248 251 242 247 250 240 245 246 236 240 241 225 229 231
211 215 216 193 195 194 166 167 166 134 134 132 101 101 100 72 72 71
54 54 54 48 48 49 47 47 47 47 47 47 48 48 48 48 48 48 47 47 47
42 42 42 37 37 37 48 48 48 60 60 60 30 30 30 17 17 17 32 32 32
21 21 21 16 16 16 10 10 10 7 7 7 11 11 11 10 10 10 6 6 6 6 6 6 5 5 5
5 5 5 4 5 5 4 3 3 61 61 60 112 113 111 176 177 176 215 216 219
226 229 230 237 240 241 243 247 248 243 247 249 242 246 248
245 249 250 242 246 247 178 181 181 154 156 156 152 153 153
123 124 124 65 65 65 33 33 33 35 35 35 38 38 38 38 38 38 46 46 46
40 40 40 26 26 26 26 26 26 40 40 40 48 48 48 55 55 55 69 69 69
81 81 81 91 91 91 101 101 101 107 107 107 106 106 106 96 96 96
87 87 87 79 79 79 72 72 72 67 67 67 62 62 62 57 57 57 52 52 52
48 48 48 47 47 47 45 45 45 41 41 41 38 38 38 35 35 35 32 32 32
30 30 30 28 28 28 26 26 26 24 24 24 24 24 24 23 23 23 21 21 21
12 12 12 5 5 5 6 6 6 17 17 17 19 19 19 17 17 17 16 16 16 15 15 15
13 13 13 9 9 9 6 6 6 5 5 5 5 5 5 5 5 5 4 4 4 4 4 4 4 4 4 4 4 4 4 4 4
4 4 4 4 4 4 4 4 4 4 4 4 245 250 253 246 251 254 246 252 252
246 251 252 245 249 253 244 249 252 243 248 251 241 245 247
235 239 240 225 229 230 210 214 215 191 193 192 163 165 163
131 131 129 100 100 98 73 73 70 54 54 53 48 48 48 47 47 47 46 46 46
48 48 48 49 49 49 48 48 48 42 42 42 39 39 39 49 49 49 60 60 60
27 27 27 20 20 20 36 36 36 18 18 18 16 16 16 12 12 12 7 7 7 13 13 13
15 15 15 9 9 9 6 6 6 6 6 6 5 5 5 6 6 6 2 2 2 14 14 15 83 84 83
150 152 150 212 214 216 229 233 234 236 240 241 241 245 246
242 246 248 243 247 250 246 250 251 250 254 255 242 246 247
207 211 212 194 196 195 159 161 160 131 131 131 97 97 97 71 71 71
57 57 57 48 48 48 31 31 31 20 20 20 24 24 24 30 30 30 34 34 34
40 40 40 48 48 48 59 59 59 68 68 68 79 79 79 88 88 88 89 89 89
92 92 92 85 85 85 81 81 81 77 77 77 71 71 71 66 66 66 62 62 62
58 58 58 53 53 53 48 48 48 46 46 46 45 45 45 43 43 43 39 39 39
34 34 34 32 32 32 30 30 30 28 28 28 26 26 26 25 25 25 24 24 24
24 24 24 19 19 19 10 10 10 4 4 4 10 10 10 21 21 21 19 19 19 18 18 18
16 16 16 15 15 15 13 13 13 10 10 10 7 7 7 5 5 5 5 5 5 4 4 4 4 4 4
4 4 4 4 4 4 4 4 4 4 4 4 4 4 4 4 4 4 4 4 4 4 4 4 245 251 252
246 252 253 246 252 252 246 251 252 245 249 253 244 249 252
243 248 251 240 245 246 234 238 239 223 227 228 208 212 212
188 190 189 159 161 159 128 128 126 97 97 95 71 71 69 54 54 53
49 49 49 48 48 48 46 46 46 48 48 48 50 50 50 48 48 48 41 41 41
42 42 42 48 48 48 60 60 60 26 26 26 17 17 17 28 28 28 15 15 15
18 18 18 19 19 19 8 8 8 13 13 13 22 22 22 14 14 14 7 7 7 6 6 6 5 5 5
5 5 5 6 6 6 0 0 0 33 33 33 119 119 118 196 197 198 233 237 238
238 242 243 242 246 247 243 247 248 244 248 250 248 252 253
244 248 249 234 238 239 229 233 234 220 221 222 165 166 166
141 143 142 146 147 146 146 146 146 104 104 104 53 53 53 32 32 32
29 29 29 30 30 30 31 31 31 34 34 34 40 40 40 45 45 45 52 52 52
63 63 63 73 73 73 75 75 75 76 76 76 77 77 77 78 78 78 74 74 74
71 71 71 69 69 69 64 64 64 61 61 61 58 58 58 54 54 54 50 50 50
47 47 47 45 45 45 43 43 43 39 39 39 36 36 36 32 32 32 30 30 30
28 28 28 26 26 26 25 25 25 25 25 25 22 22 22 16 16 16 8 8 8 4 4 4
16 16 16 22 22 22 20 20 20 20 20 20 17 17 17 15 15 15 13 13 13
10 10 10 7 7 7 5 5 5 5 5 5 4 4 4 4 4 4 4 4 4 4 4 4 4 4 4 4 4 4 4 4 4
4 4 4 4 4 4 4 4 4 245 251 251 246 252 252 246 252 252 246 251 252
245 250 253 243 248 251 243 248 251 240 244 246 233 237 238
220 225 226 204 208 209 183 185 184 155 156 155 123 123 121 94 94 92
69 69 67 54 54 53 49 49 50 48 48 48 47 47 47 48 48 48 51 51 51
50 50 50 41 41 41 46 46 46 45 45 45 51 51 51 23 23 23 13 13 13
19 19 19 16 16 16 22 22 22 23 23 23 11 11 11 16 16 16 25 25 25
22 22 22 9 9 9 7 7 7 5 5 5 5 5 5 5 5 5 6 6 6 1 1 1 64 63 63
170 171 171 228 232 233 240 244 245 242 246 247 244 248 249
245 249 250 247 251 252 243 247 248 235 239 240 229 232 234
216 216 219 164 165 166 142 144 143 146 147 146 166 165 165
153 153 153 75 75 75 45 45 45 36 36 36 34 34 34 35 35 35 36 36 36
39 39 39 43 43 43 49 49 49 61 61 61 69 69 69 69 69 69 68 68 68
66 66 66 66 66 66 64 64 64 63 63 63 63 63 63 61 61 61 58 58 58
56 56 56 54 54 54 51 51 51 47 47 47 45 45 45 43 43 43 40 40 40
36 36 36 32 32 32 30 30 30 28 28 28 27 27 27 26 26 26 25 25 25
20 20 20 13 13 13 6 6 6 8 8 8 21 21 21 21 21 21 20 20 20 19 19 19
18 18 18 15 15 15 13 13 13 9 9 9 6 6 6 5 5 5 5 5 5 4 4 4 4 4 4 4 4 4
4 4 4 4 4 4 4 4 4 4 4 4 4 4 4 4 4 4 4 4 4 245 250 253 246 251 254
246 251 254 246 251 253 245 250 253 243 248 251 243 248 251
240 244 246 231 235 236 217 221 222 199 202 203 176 179 178
148 150 148 118 118 115 90 90 88 67 67 66 54 54 54 50 50 50 49 49 49
48 48 48 48 48 48 51 51 51 52 52 52 44 44 44 50 50 50 43 43 43
35 35 35 17 17 17 12 12 12 20 20 20 26 26 26 30 30 30 24 24 24
13 13 13 17 17 17 31 31 31 28 28 28 14 14 14 8 8 8 6 6 6 5 5 5 5 5 5
6 6 6 3 3 3 10 10 10 119 120 119 220 222 223 242 245 247 243 247 248
244 248 249 246 250 251 246 250 251 242 246 247 237 241 242
231 235 236 212 215 217 151 151 151 143 144 143 157 157 158
162 162 162 176 176 176 104 104 104 55 55 55 45 45 45 40 40 40
38 38 38 38 38 38 40 40 40 43 43 43 50 50 50 60 60 60 66 66 66
65 65 65 62 62 62 60 60 60 57 57 57 56 56 56 56 56 56 56 56 56
55 55 55 54 54 54 52 52 52 51 51 51 49 49 49 47 47 47 44 44 44
41 41 41 39 39 39 36 36 36 33 33 33 30 30 30 29 29 29 27 27 27
27 27 27 24 24 24 19 19 19 10 10 10 5 5 5 13 13 13 24 24 24 22 22 22
21 21 21 20 20 20 17 17 17 15 15 15 12 12 12 9 9 9 6 6 6 5 5 5 5 5 5
5 5 5 4 4 4 4 4 4 4 4 4 4 4 4 4 4 4 4 4 4 4 4 4 4 4 4 4 4 4
245 250 253 246 251 254 246 251 254 245 250 253 245 250 253
244 249 252 243 248 251 239 244 245 230 233 234 213 217 218
192 196 197 169 171 170 139 140 139 111 111 109 85 85 83 63 63 63
53 53 53 50 50 50 50 50 50 50 50 50 48 48 48 53 53 53 57 57 57
51 51 51 55 55 55 40 40 40 27 27 27 15 15 15 14 14 14 24 24 24
29 29 29 28 28 28 17 17 17 11 11 11 16 16 16 31 31 31 32 32 32
17 17 17 9 9 9 6 6 6 5 5 5 5 5 5 5 5 5 6 6 6 0 0 0 40 41 40
191 192 193 241 243 246 243 247 248 245 249 250 245 249 250
243 247 248 239 243 244 236 240 241 232 236 237 205 208 209
140 140 140 135 134 134 145 145 147 137 137 136 156 156 156
124 124 124 59 59 59 41 41 41 39 39 39 38 38 38 38 38 38 41 41 41
44 44 44 48 48 48 57 57 57 63 63 63 64 64 64 59 59 59 55 55 55
53 53 53 52 52 52 51 51 51 51 51 51 51 51 51 50 50 50 49 49 49
48 48 48 47 47 47 46 46 46 43 43 43 41 41 41 38 38 38 35 35 35
32 32 32 31 31 31 29 29 29 29 29 29 25 25 25 24 24 24 16 16 16 7 7 7
7 7 7 18 18 18 24 24 24 22 22 22 21 21 21 20 20 20 18 18 18 14 14 14
11 11 11 9 9 9 5 5 5 5 5 5 5 5 5 5 5 5 4 4 4 4 4 4 4 4 4 4 4 4 4 4 4
4 4 4 4 4 4 4 4 4 4 4 4 245 250 253 246 251 254 246 251 254
245 250 253 245 250 253 244 249 252 243 248 251 239 244 245
228 232 233 210 214 214 187 190 189 161 162 160 131 131 129
105 105 103 80 80 78 61 61 61 53 53 53 51 51 51 51 51 51 53 53 53
53 53 53 60 60 60 65 65 65 57 57 57 53 53 53 41 41 41 29 29 29
17 17 17 16 16 16 34 34 34 23 23 23 21 21 21 14 14 14 9 9 9 13 13 13
14 14 14 21 21 21 19 19 19 12 12 12 6 6 6 5 5 5 5 5 5 5 5 5 5 5 5
6 6 6 0 0 0 104 104 104 236 238 239 242 246 247 244 248 249
243 247 248 241 245 246 240 244 245 236 240 241 235 239 240
192 196 195 114 114 114 95 95 95 74 74 74 67 67 67 86 86 86 86 86 86
48 48 48 32 32 32 28 28 28 29 29 29 32 32 32 37 37 37 41 41 41
46 46 46 52 52 52 61 61 61 62 62 62 56 56 56 53 53 53 52 52 52
49 49 49 48 48 48 47 47 47 47 47 47 47 47 47 47 47 47 47 47 47
46 46 46 44 44 44 43 43 43 41 41 41 37 37 37 34 34 34 32 32 32
30 30 30 30 30 30 29 29 29 27 27 27 25 25 25 11 11 11 6 6 6 12 12 12
22 22 22 24 24 24 23 23 23 22 22 22 20 20 20 17 17 17 14 14 14
11 11 11 8 8 8 6 6 6 5 5 5 5 5 5 5 5 5 4 4 4 4 4 4 4 4 4 4 4 4 4 4 4
4 4 4 4 4 4 4 4 4 4 4 4 245 250 253 246 251 254 246 251 254
245 250 253 245 250 253 244 249 252 243 248 251 239 244 245
228 232 233 209 213 213 184 187 186 156 156 154 126 126 124
101 101 98 77 77 76 60 60 60 53 53 53 51 51 51 51 51 51 56 56 56
65 65 65 67 67 66 67 67 67 60 60 60 58 58 58 43 43 43 32 32 32
18 18 18 19 19 19 38 38 38 23 23 23 17 17 17 13 13 13 9 9 9 11 11 11
11 11 11 13 13 13 18 18 18 15 15 15 7 7 7 5 5 5 5 5 5 5 5 5 5 5 5
6 6 6 3 3 3 14 14 14 176 177 177 249 253 253 244 248 249 242 246 247
241 245 246 241 245 246 240 244 245 233 238 238 161 163 162
106 106 105 103 103 103 82 82 82 74 74 74 99 99 99 89 89 89 67 67 67
46 46 46 37 37 37 33 33 33 29 29 29 30 30 30 32 32 32 38 38 38
44 44 44 57 57 57 63 63 63 59 59 59 56 56 56 52 52 52 49 49 49
46 46 46 46 46 46 46 46 46 46 46 46 46 46 46 45 45 45 44 44 44
44 44 44 42 42 42 39 39 39 35 35 35 34 34 34 32 32 32 30 30 30
31 31 31 29 29 29 31 31 31 19 19 19 8 8 8 8 8 8 19 19 19 23 23 23
24 24 24 23 23 23 21 21 21 19 19 19 16 16 16 13 13 13 11 11 11 8 8 8
6 6 6 5 5 5 5 5 5 5 5 5 5 5 5 5 5 5 5 5 5 5 5 5 4 4 4 4 4 4 4 4 4
4 4 4 4 4 4 245 250 253 246 251 254 245 250 253 245 250 253
245 250 253 244 249 252 243 248 251 239 244 245 228 232 233
210 214 215 184 188 189 156 156 154 125 125 123 99 99 97 75 75 74
59 59 59 53 53 53 51 51 51 53 53 53 61 61 61 76 76 74 81 81 79
67 67 67 63 63 63 68 68 68 38 38 38 41 41 41 22 22 22 29 29 29
46 46 46 27 27 27 15 15 15 9 9 9 8 8 8 12 12 12 12 12 12 10 10 10
16 16 16 18 18 18 8 8 8 5 5 5 5 5 5 5 5 5 5 5 5 5 5 5 8 8 7 0 0 0
65 65 63 233 235 234 246 250 252 243 246 247 242 246 247 241 245 246
242 246 247 218 222 222 134 134 132 98 98 97 105 105 105 105 105 105
89 89 89 77 77 77 57 57 57 56 56 56 44 44 44 43 43 43 42 42 42
38 38 38 37 37 37 35 35 35 31 31 31 35 35 35 49 49 49 60 60 60
60 60 60 59 59 59 53 53 53 50 50 50 47 47 47 45 45 45 45 45 45
45 45 45 45 45 45 44 44 44 43 43 43 43 43 43 42 42 42 40 40 40
36 36 36 35 35 35 34 34 34 33 33 33 31 31 31 31 31 31 31 31 31
17 17 17 8 8 8 11 11 11 22 22 22 23 23 23 24 24 24 22 22 22 20 20 20
18 18 18 14 14 14 13 13 13 11 11 11 8 8 8 6 6 6 5 5 5 5 5 5 6 6 6
5 5 5 5 5 5 5 5 5 5 5 5 5 5 5 4 4 4 4 4 4 4 4 4 4 4 4 245 250 253
246 251 254 246 251 254 245 250 253 245 250 253 245 250 253
243 248 251 239 244 245 229 233 234 212 216 217 187 191 191
158 159 157 127 127 125 98 98 96 74 74 72 57 57 57 52 52 52 52 52 52
56 56 56 65 65 65 79 79 77 95 95 93 76 76 75 67 67 67 65 65 65
40 40 40 51 51 51 23 23 23 36 36 36 54 54 54 36 36 36 21 21 21 8 8 8
8 8 8 11 11 11 10 10 10 9 9 9 14 14 14 21 21 21 11 11 11 6 6 6 5 5 5
5 5 5 5 5 5 5 5 5 5 5 5 6 6 7 0 0 0 139 141 140 253 255 255
241 245 246 243 247 248 243 247 248 239 243 244 200 203 204
126 126 124 85 85 84 77 77 77 69 69 69 59 59 59 43 43 43 32 32 32
45 45 45 39 39 39 33 33 33 29 29 29 32 32 32 37 37 37 42 42 42
38 38 38 35 35 35 40 40 40 56 56 56 63 63 63 63 63 63 59 59 59
55 55 55 51 51 51 47 47 47 46 46 46 45 45 45 45 45 45 44 44 44
43 43 43 42 42 42 41 41 41 40 40 40 37 37 37 35 35 35 34 34 34
34 34 34 32 32 32 33 33 33 29 29 29 13 13 13 7 7 7 16 16 16 23 23 23
22 22 22 24 24 24 21 21 21 19 19 19 16 16 16 14 14 14 13 13 13
12 12 12 8 8 8 6 6 6 5 5 5 6 6 6 6 6 6 4 4 4 5 5 5 5 5 5 5 5 5 5 5 5
5 5 5 4 4 4 4 4 4 4 4 4 245 250 253 245 250 254 246 251 254
246 251 254 245 250 253 245 250 253 243 248 251 240 245 246
231 235 235 214 218 219 191 194 195 162 164 162 129 130 127 99 99 97
72 72 71 56 56 57 53 53 53 53 53 53 59 59 59 70 70 70 85 85 83
96 96 94 89 89 87 79 79 78 54 54 54 61 61 61 61 61 61 32 32 32
53 53 53 54 54 54 52 52 52 34 34 34 8 8 8 8 8 8 11 11 11 8 8 8 9 9 9
11 11 11 18 18 18 12 12 12 6 6 6 5 5 5 5 5 5 5 5 5 5 5 5 5 5 5 7 7 7
0 0 0 27 26 26 208 210 211 250 254 255 241 245 246 245 248 249
233 234 236 188 188 190 121 121 121 92 92 92 90 90 90 69 69 69
54 54 54 48 48 48 53 53 53 56 56 56 61 61 61 58 58 58 77 77 77
48 48 48 41 41 41 36 36 36 41 41 41 41 41 41 37 37 37 43 43 43
59 59 59 62 62 62 61 61 61 59 59 59 55 55 55 51 51 51 47 47 47
46 46 46 46 46 46 45 45 45 43 43 43 42 42 42 41 41 41 39 39 39
36 36 36 35 35 35 34 34 34 34 34 34 34 34 34 34 34 34 26 26 26
10 10 10 8 8 8 19 19 19 22 22 22 22 22 22 22 22 22 20 20 20 18 18 18
15 15 15 14 14 14 13 13 13 13 13 13 9 9 9 6 6 6 5 5 5 7 7 7 5 5 5
4 4 4 4 4 4 5 5 5 5 5 5 5 5 5 5 5 5 5 5 5 5 5 5 5 5 5 245 251 252
246 252 253 246 252 253 246 251 253 245 250 253 244 249 252
244 249 252 241 246 247 233 237 238 216 220 222 193 197 197
165 167 165 131 132 130 99 99 97 71 71 70 56 56 56 53 53 53 55 55 55
63 63 63 75 75 75 93 93 92 98 98 96 94 94 92 106 106 104 56 56 57
82 82 82 79 79 78 41 41 41 59 59 59 58 58 58 68 68 68 48 48 48
12 12 12 7 7 7 9 9 9 7 7 7 8 8 8 10 10 10 14 14 14 13 13 13 7 7 7
5 5 5 5 5 5 5 5 5 5 5 5 5 5 5 5 5 5 8 8 8 0 0 0 82 84 84 246 248 249
244 247 248 245 249 250 224 227 228 178 178 180 122 122 122 78 78 78
64 64 64 44 44 44 24 24 24 89 89 89 149 149 149 154 154 154
123 123 123 102 102 102 109 109 109 86 86 86 62 62 62 18 18 18
15 15 15 21 21 21 21 21 21 23 23 23 27 27 27 36 36 36 56 56 56
60 60 60 56 56 56 54 54 54 51 51 51 49 49 49 47 47 47 46 46 46
45 45 45 43 43 43 42 42 42 39 39 39 36 36 36 35 35 35 36 36 36
36 36 36 35 35 35 33 33 33 22 22 22 8 8 8 12 12 12 21 21 21 21 21 21
22 22 22 21 21 21 20 20 20 17 17 17 15 15 15 14 14 14 14 14 14
14 14 14 9 9 9 6 6 6 5 5 5 6 6 6 5 5 5 4 4 4 4 4 4 5 5 5 5 5 5 5 5 5
6 6 6 5 5 5 5 5 5 4 4 4 245 251 251 246 252 252 246 252 252
246 252 252 245 250 254 244 249 252 243 248 252 242 246 248
234 238 239 218 222 224 196 200 200 168 170 167 133 134 131 98 98 96
69 69 68 55 55 55 53 53 53 56 56 56 65 65 65 81 81 81 100 100 98
101 101 99 105 105 103 121 121 119 67 67 67 97 97 96 98 98 95
41 41 40 53 53 53 58 58 58 79 79 79 58 58 58 13 13 13 7 7 7 8 8 8
7 7 7 7 7 7 9 9 9 13 13 13 13 13 13 8 8 8 5 5 5 5 5 5 5 5 5 5 5 5
5 5 5 5 5 5 5 5 5 6 6 6 0 0 0 153 152 152 255 255 255 242 246 247
225 228 229 160 160 162 116 116 116 112 112 112 77 77 77 13 13 13
4 4 4 20 20 20 60 60 60 102 102 102 72 72 72 42 42 42 47 47 47
37 37 37 21 21 21 13 13 13 11 11 11 9 9 9 9 9 9 11 11 11 17 17 17
29 29 29 53 53 53 59 59 59 58 58 58 56 56 56 54 54 54 52 52 52
50 50 50 48 48 48 45 45 45 45 45 45 43 43 43 40 40 40 38 38 38
37 37 37 36 36 36 36 36 36 34 34 34 30 30 30 18 18 18 7 7 7 16 16 16
22 22 22 21 21 21 22 22 22 20 20 20 18 18 18 17 17 17 17 17 17
16 16 16 16 16 16 15 15 15 9 9 9 6 6 6 7 7 7 6 6 6 5 5 5 5 5 5 4 4 4
5 5 5 5 5 5 6 6 6 6 6 6 5 5 5 5 5 5 5 5 5 245 251 251 246 252 252
246 252 252 246 251 253 245 250 253 244 249 252 243 248 252
242 247 248 235 239 240 220 224 225 198 201 202 169 171 170
133 135 133 97 97 95 67 67 66 54 54 54 53 53 53 57 57 57 67 67 67
85 85 85 105 105 103 105 105 103 116 116 114 128 128 126 75 75 74
111 111 109 117 117 117 41 41 41 50 50 50 47 47 47 96 96 96 84 84 84
13 13 13 5 5 5 7 7 7 6 6 6 7 7 7 8 8 8 11 11 11 12 12 12 8 8 8 5 5 5
5 5 5 5 5 5 5 5 5 5 5 5 5 5 5 5 5 5 6 6 6 0 0 0 29 29 29 218 219 218
249 252 253 230 234 235 183 186 187 154 156 157 152 152 153 98 98 97
31 31 31 18 18 18 19 20 18 17 17 15 18 18 16 19 19 17 19 19 19
19 19 19 18 18 18 18 18 18 21 21 21 17 17 17 23 23 23 21 21 21
20 20 20 26 26 26 36 36 36 44 44 44 51 51 51 54 54 54 55 55 55
55 55 55 53 53 53 52 52 52 50 50 50 48 48 48 46 46 46 44 44 44
42 42 42 40 40 40 38 38 38 37 37 37 36 36 36 33 33 33 28 28 28
14 14 14 8 8 8 17 17 17 20 20 20 21 21 21 22 22 22 20 20 20 19 19 19
20 20 20 21 21 21 20 20 20 18 18 18 16 16 16 10 10 10 7 7 7 6 6 6
6 6 6 6 6 6 4 4 4 4 4 4 5 5 5 5 5 5 6 6 6 7 7 7 6 6 6 5 5 5 5 5 5
245 251 251 246 252 252 246 252 252 246 251 252 245 250 253
245 250 252 243 248 252 242 247 248 235 239 240 220 224 225
198 202 203 170 172 171 133 135 134 95 95 93 65 65 64 54 54 54
53 53 53 57 57 57 69 69 69 89 89 89 108 108 107 115 115 113
125 125 123 139 139 137 85 85 83 115 115 113 140 140 140 52 52 52
43 43 43 37 37 37 124 124 124 131 131 131 34 34 34 2 2 2 7 7 7 6 6 6
6 6 6 7 7 7 9 9 9 12 12 12 9 9 9 5 5 5 5 5 5 5 5 5 5 5 5 5 5 5 5 5 5
5 5 5 5 5 5 7 7 7 0 0 0 98 98 95 249 253 253 234 238 240 228 232 233
217 220 222 146 145 147 71 71 71 38 38 38 38 38 38 38 38 38 36 36 37
35 35 36 37 37 38 36 36 36 31 31 31 26 26 26 23 23 23 22 22 22
30 30 30 23 23 23 23 23 23 22 22 22 27 27 27 36 36 36 43 43 43
45 45 45 50 50 50 51 51 51 52 52 52 52 52 52 51 51 51 50 50 50
48 48 48 46 46 46 44 44 44 42 42 42 41 41 41 40 40 40 38 38 38
36 36 36 35 35 35 27 27 27 10 10 10 10 10 10 20 20 20 18 18 18
23 23 23 24 24 24 24 24 24 24 24 24 24 24 24 24 24 24 25 25 25
19 19 19 17 17 17 11 11 11 7 7 7 6 6 6 6 6 6 5 5 5 4 4 4 5 5 5 5 5 5
5 5 5 9 9 9 10 10 10 8 8 8 6 6 6 6 6 6 245 251 251 246 252 252
246 251 253 245 250 253 245 250 253 245 250 252 244 249 252
242 246 248 234 238 239 219 222 224 197 201 202 168 172 171
131 132 131 92 92 90 63 63 62 55 55 55 54 54 54 58 58 58 71 71 69
90 90 89 114 114 112 124 124 122 130 132 131 151 152 151 100 102 100
108 109 108 155 154 155 64 64 64 48 48 48 31 31 31 117 117 117
150 150 150 44 44 44 3 3 3 11 11 11 6 6 6 6 6 6 6 6 6 8 8 8 12 12 12
10 10 10 6 6 6 5 5 5 5 5 5 5 5 5 5 5 5 5 5 5 5 5 5 5 5 5 5 5 5 4 4 4
3 3 3 164 165 165 252 253 255 233 236 237 221 224 225 140 139 141
73 73 73 52 52 53 44 44 44 47 47 48 48 48 49 44 44 45 41 41 42
40 40 40 36 36 36 30 30 30 34 34 34 27 27 27 34 34 34 25 25 25
21 21 21 24 24 24 31 31 31 40 40 40 44 44 44 45 45 45 47 47 47
47 47 47 49 49 49 49 49 49 49 49 49 49 49 49 48 48 48 47 47 47
44 44 44 41 41 41 40 40 40 39 39 39 38 38 38 37 37 37 34 34 34
23 23 23 10 10 10 10 10 10 20 20 20 23 23 23 30 30 30 27 27 27
29 29 29 27 27 27 27 27 27 28 28 28 30 30 30 21 21 21 19 19 19
11 11 11 7 7 7 6 6 6 6 6 6 5 5 5 4 4 4 4 4 4 5 5 5 8 8 8 14 14 14
13 13 13 11 11 11 8 8 8 7 7 7 245 251 251 245 251 252 245 250 253
245 250 253 245 250 253 245 249 252 243 249 252 242 246 248
232 236 237 216 220 221 194 198 199 165 168 167 127 127 126 87 87 85
63 63 61 55 55 55 54 54 54 59 59 59 72 72 71 93 93 91 118 118 116
133 133 131 136 138 137 157 159 158 125 127 126 99 100 100
148 148 148 87 87 87 67 67 67 30 30 30 69 69 69 140 140 140 52 52 52
3 3 3 16 16 16 9 9 9 6 6 6 6 6 6 7 7 7 10 10 10 10 10 10 6 6 6 5 5 5
5 5 5 5 5 5 5 5 5 5 5 5 5 5 5 5 5 5 5 5 5 6 6 6 0 0 0 25 24 25
194 195 197 246 248 250 218 220 222 124 124 125 59 59 58 65 65 65
68 68 68 73 73 73 53 53 53 57 57 56 54 54 54 61 61 61 57 57 57
28 28 28 27 27 27 25 25 25 21 21 21 22 22 22 24 24 24 31 31 31
40 40 40 42 42 42 44 44 44 45 45 45 45 45 45 47 47 47 48 48 48
49 49 49 48 48 48 47 47 47 46 46 46 45 45 45 43 43 43 41 41 41
40 40 40 39 39 39 38 38 38 38 38 38 33 33 33 22 22 22 11 11 11
11 11 11 28 28 28 27 27 27 32 32 32 33 33 33 33 33 33 32 32 32
32 32 32 33 33 33 35 35 35 24 24 24 21 21 21 12 12 12 7 7 7 5 5 5
6 6 6 5 5 5 5 5 5 5 5 5 6 6 6 14 14 14 20 20 20 16 16 16 16 16 16
12 12 12 11 11 11 245 251 251 245 251 251 245 250 253 245 250 253
245 250 253 244 249 253 243 248 251 240 244 246 230 234 235
213 217 218 190 194 194 160 161 159 120 120 119 83 83 81 61 61 60
55 55 55 54 54 54 60 60 60 73 73 72 95 95 93 120 120 118 140 140 138
145 147 146 158 160 159 156 158 157 95 97 95 122 122 120 108 108 107
114 114 114 55 55 55 41 41 41 93 93 93 65 65 65 5 5 5 23 23 23
21 21 21 8 8 8 7 7 7 8 8 8 9 9 9 8 8 8 6 6 6 5 5 5 5 5 5 5 5 5 5 5 5
5 5 5 5 5 5 5 5 5 5 5 5 4 4 4 6 6 6 0 0 0 36 36 36 197 198 198
241 243 242 153 155 154 60 59 59 60 60 60 88 88 88 101 101 101
70 70 70 80 80 80 83 83 83 82 82 82 71 71 71 25 25 25 24 24 24
24 24 24 25 25 25 26 26 26 35 35 35 42 42 42 43 43 43 44 44 44
44 44 44 44 44 44 44 44 44 45 45 45 47 47 47 47 47 47 47 47 47
46 46 46 44 44 44 44 44 44 42 42 42 41 41 41 40 40 40 38 38 38
37 37 37 37 37 37 32 32 32 20 20 20 12 12 12 12 12 12 33 33 33
32 32 32 37 37 37 37 37 37 36 36 36 36 36 36 36 36 36 38 38 38
41 41 41 25 25 25 21 21 21 11 11 11 7 7 7 6 6 6 5 5 5 5 5 5 5 5 5
5 5 5 10 10 10 23 23 23 23 23 23 20 20 20 21 21 21 17 17 17 14 14 14
245 251 251 245 251 252 245 250 253 245 250 253 245 250 253
244 249 252 243 248 251 239 243 245 228 232 233 210 214 215
186 189 189 153 153 152 114 114 112 78 78 77 59 59 58 54 54 55
55 55 55 61 61 62 75 75 73 96 96 94 119 119 117 143 143 141
156 158 157 161 163 162 172 174 173 115 116 115 96 96 93 118 118 117
142 142 142 101 101 101 64 64 64 58 58 58 36 36 36 12 12 12 19 19 19
33 33 33 16 16 16 9 9 9 11 11 11 10 10 10 8 8 8 6 6 6 5 5 5 5 5 5
5 5 5 5 5 5 5 5 5 5 5 5 5 5 5 5 5 5 5 5 5 4 4 4 7 7 7 0 0 0 32 33 32
184 186 185 218 220 219 109 109 109 61 61 61 54 54 54 60 60 60
64 64 64 52 52 52 55 55 55 47 47 47 39 39 39 29 29 29 26 26 26
29 29 29 36 36 36 42 42 42 46 46 46 46 46 46 45 45 45 46 46 46
45 45 45 45 45 45 45 45 45 45 45 45 45 45 45 46 46 46 46 46 46
45 45 45 45 45 45 43 43 43 41 41 41 38 38 38 38 38 38 37 37 37
35 35 35 33 33 33 30 30 30 25 25 25 14 14 14 16 16 16 32 32 32
37 37 37 37 37 37 42 42 42 40 40 40 41 41 41 43 43 43 45 45 45
47 47 47 26 26 26 20 20 20 11 11 11 7 7 7 5 5 5 5 5 5 5 5 5 5 5 5
6 6 6 20 20 20 33 33 33 26 26 26 24 24 24 24 24 24 20 20 20 18 18 18
244 249 252 245 250 253 245 250 253 245 250 253 245 250 253
244 248 250 243 247 248 237 241 242 225 229 230 208 211 210
182 184 182 146 146 144 106 106 105 75 75 75 58 58 58 54 54 54
55 55 55 62 62 62 75 75 73 95 95 93 119 121 118 142 144 141
162 164 163 171 173 172 178 180 179 140 141 139 90 90 88 111 111 110
144 144 144 127 127 127 84 84 84 78 78 78 28 28 28 10 10 10 9 9 9
30 30 30 32 32 32 15 15 15 16 16 16 17 17 17 10 10 10 7 7 7 6 6 6
5 5 5 5 5 5 5 5 5 5 5 5 5 5 5 5 5 5 5 5 5 5 5 5 5 5 5 4 4 4 7 7 7
0 0 0 22 22 22 173 173 173 185 185 185 123 123 123 99 99 99 61 61 61
42 42 42 37 39 38 38 40 39 38 38 38 37 37 37 39 40 40 47 47 47
53 53 53 56 56 56 52 52 52 51 51 51 49 49 49 48 48 48 48 48 48
47 47 47 47 47 47 46 46 46 45 45 45 45 45 45 46 46 46 45 45 45
44 44 44 43 43 43 42 42 42 40 40 40 37 37 37 37 37 37 36 36 36
31 31 31 33 33 33 43 43 43 34 34 34 18 18 18 19 19 19 39 39 39
45 45 45 39 39 39 45 45 45 47 47 47 48 48 48 51 51 51 56 56 56
54 54 54 30 30 30 17 17 17 10 10 10 7 7 7 6 6 6 5 5 5 5 5 5 5 5 5
11 11 11 33 33 33 38 38 38 32 32 32 31 31 31 27 27 27 22 22 22
23 23 23 244 249 252 245 250 253 245 250 253 245 250 253 244 249 253
244 249 250 242 246 247 235 239 240 221 225 226 204 206 205
176 178 177 138 138 136 99 99 97 70 70 70 57 57 57 55 55 55 56 56 56
61 61 62 74 74 72 93 93 91 118 119 117 142 144 141 161 163 162
179 181 180 187 190 189 158 160 159 105 106 104 105 105 105
137 138 138 150 150 150 85 85 85 75 75 75 54 54 54 15 15 15 7 7 7
14 14 14 26 26 26 20 20 20 18 18 18 21 21 21 12 12 12 7 7 7 6 6 6
5 5 5 5 5 5 5 5 5 5 5 5 5 5 5 5 5 5 5 5 5 5 5 5 5 5 5 5 5 5 4 4 4
7 7 7 0 0 0 27 27 27 165 165 165 168 168 168 189 189 189 187 188 188
164 165 166 153 155 155 146 148 147 125 125 125 100 100 100 94 94 94
91 91 91 84 84 84 72 72 72 63 63 63 59 59 59 54 54 54 51 51 51
50 50 50 49 49 49 47 47 47 45 45 45 45 45 45 45 45 45 45 45 45
44 44 44 42 42 42 40 40 40 40 40 40 38 38 38 37 37 37 35 35 35
26 27 26 35 35 35 56 56 56 59 60 60 57 58 57 38 38 38 33 33 33
63 63 63 86 86 86 80 80 80 70 70 69 66 66 66 62 62 62 63 63 63
64 64 64 58 58 58 32 32 32 14 14 14 9 9 9 7 7 7 6 6 6 5 5 5 5 5 5
6 6 6 24 24 24 40 40 40 40 40 40 37 37 37 34 34 34 28 28 28 27 27 27
28 28 28 244 249 252 245 250 253 245 250 253 245 250 253 244 249 252
244 248 250 241 245 246 233 237 238 217 221 222 198 201 200
168 170 168 129 129 127 91 91 89 66 66 66 56 56 56 55 55 55 56 56 56
62 62 62 74 74 73 93 93 90 115 116 115 139 141 140 159 161 160
182 184 183 193 197 196 179 183 181 133 135 134 112 114 113
119 121 120 156 156 156 96 96 96 47 47 47 61 61 61 32 32 32 8 8 8
12 12 12 22 22 22 22 22 22 12 12 12 16 16 16 11 11 11 8 8 8 6 6 6
5 5 5 5 5 5 5 5 5 5 5 5 5 5 5 5 5 5 5 5 5 5 5 5 5 5 5 5 5 5 5 5 5
4 4 4 7 7 7 0 0 0 41 41 41 157 158 157 180 182 181 218 221 222
222 226 227 224 227 226 198 199 198 155 155 155 117 117 117
111 111 111 101 101 101 95 95 95 85 85 85 79 79 79 69 69 69 57 57 57
53 53 53 51 51 51 49 49 49 46 46 46 44 44 44 43 43 43 42 42 42
42 42 42 41 41 41 39 39 39 38 38 38 37 37 37 38 38 38 30 30 30
27 27 27 67 69 68 115 117 115 133 135 134 138 140 139 141 143 141
111 111 111 102 102 102 105 105 105 132 131 131 129 128 128
126 126 125 109 109 107 91 91 90 78 78 79 71 71 71 56 56 56 27 27 27
11 11 11 8 8 8 7 7 7 6 6 6 5 5 5 5 5 5 15 15 15 38 38 38 43 43 43
42 42 42 40 40 40 35 35 35 32 32 32 33 33 33 33 33 33 243 248 251
244 249 252 245 250 253 245 249 252 245 249 252 244 248 250
239 243 244 229 233 234 213 217 218 191 193 193 159 161 160
120 120 118 83 83 81 61 61 61 56 56 56 55 55 55 56 56 56 62 62 62
75 75 75 96 96 95 117 119 118 140 142 141 161 163 162 184 187 186
198 202 202 188 192 192 176 179 179 146 149 149 106 107 107
125 125 125 114 114 114 47 47 47 40 40 40 47 47 47 13 13 13 22 22 22
45 45 45 51 51 51 22 22 22 9 9 9 10 10 10 9 9 9 6 6 6 5 5 5 5 5 5
5 5 5 5 5 5 6 6 6 6 6 6 5 5 5 5 5 5 5 5 5 5 5 5 5 5 5 5 5 5 4 4 4
7 7 7 0 0 0 67 67 67 184 185 185 217 219 220 207 210 211 202 204 203
182 184 183 141 141 140 115 115 115 112 112 112 106 106 106
101 101 101 88 88 88 78 78 78 70 70 70 59 59 59 54 54 54 50 50 50
46 46 46 44 44 44 42 42 42 41 41 41 39 39 39 39 39 39 39 39 39
38 38 38 36 36 36 34 34 34 24 24 24 48 49 49 126 127 127 178 180 180
195 197 197 201 204 204 201 204 204 198 201 201 174 177 177
169 171 172 149 150 149 188 189 189 175 177 177 163 164 164
154 155 153 127 128 126 103 103 102 85 85 84 59 59 58 26 26 26
12 12 12 7 7 7 6 6 6 6 6 6 5 5 5 10 10 10 33 33 33 46 46 46 46 46 46
45 45 45 44 44 44 41 41 41 39 39 39 38 38 38 37 37 37 243 248 251
244 249 252 245 249 252 245 249 252 245 249 252 244 248 249
238 242 242 225 229 230 207 211 212 184 187 186 150 152 150
109 109 107 76 76 74 58 59 59 55 55 55 55 55 55 56 56 56 62 62 62
77 77 77 100 101 101 121 123 122 140 142 141 165 167 166 187 189 189
197 201 202 192 196 197 192 196 197 196 201 201 150 152 151 85 85 85
102 102 102 80 80 80 30 30 30 37 37 37 21 21 21 16 16 16 58 58 58
75 75 75 52 52 52 18 18 18 14 14 14 10 10 10 7 7 7 6 6 6 5 5 5 5 5 5
6 6 6 6 6 6 6 6 6 6 6 6 6 6 6 6 6 6 5 5 5 5 5 5 5 5 5 5 5 5 5 5 5
4 4 4 2 2 2 134 134 134 224 225 226 212 212 215 196 198 197
172 174 173 133 133 131 114 114 113 109 109 109 104 104 104
103 103 103 87 87 87 75 75 75 65 65 65 57 57 57 54 54 54 49 49 49
45 45 45 43 43 43 40 40 40 39 39 39 38 38 38 37 37 37 37 37 37
36 36 36 34 34 34 33 33 33 92 92 92 184 186 185 213 215 215
215 215 218 215 218 219 213 217 218 209 213 214 206 210 211
197 202 203 205 210 211 169 172 171 200 202 201 217 221 222
196 200 200 178 180 179 159 162 160 132 132 129 106 105 103 61 61 59
36 36 35 13 13 13 7 7 7 6 6 6 5 5 5 5 5 5 21 21 21 49 49 49 50 50 50
52 52 52 50 50 50 48 48 48 46 46 46 44 44 44 41 41 41 40 40 40
244 248 251 244 248 251 245 249 252 245 249 252 245 249 252
242 246 248 236 240 241 223 227 228 203 207 208 178 180 180
142 143 142 101 101 99 70 70 68 58 58 58 56 56 56 55 55 55 57 57 57
63 63 63 79 79 78 103 103 102 125 126 125 141 143 142 163 165 164
187 190 189 196 200 201 194 198 199 199 203 204 206 210 210
195 199 199 107 108 107 72 72 70 82 81 81 34 34 34 24 24 24 22 22 22
6 6 6 43 43 43 87 87 87 47 47 47 22 22 22 17 17 17 11 11 11 9 9 9
7 7 7 8 8 8 8 8 8 7 7 7 7 7 7 7 7 7 6 6 6 6 6 6 6 6 6 7 7 7 6 6 6
5 5 5 5 5 5 4 4 4 6 6 6 0 0 0 54 54 54 214 215 216 209 210 212
189 191 190 155 157 156 122 122 120 111 111 110 109 109 110
114 114 114 103 103 103 82 82 82 73 73 73 63 63 63 54 54 54 51 51 51
48 48 48 44 44 44 41 41 41 39 39 39 37 37 37 36 36 36 36 36 36
34 34 34 35 35 35 35 35 35 65 65 65 136 136 136 148 148 148
149 150 150 166 166 167 189 190 190 208 212 211 209 213 213
217 222 223 211 213 215 213 215 216 213 216 216 191 195 195
220 224 225 218 221 222 200 203 204 180 183 182 161 162 161
125 125 124 76 76 74 52 52 51 10 10 10 7 7 7 6 6 6 6 6 6 6 6 6
30 30 30 55 55 55 53 53 53 55 55 55 53 53 53 49 49 49 47 47 47
46 46 46 44 44 44 43 43 43 244 248 251 244 248 251 245 249 252
245 249 252 245 249 252 242 246 248 234 238 239 220 224 225
200 204 205 172 174 174 133 134 133 93 93 91 66 66 64 57 57 57
56 56 56 56 56 56 57 57 57 65 65 65 80 80 79 102 103 100 126 128 127
144 146 145 162 163 162 180 183 182 192 196 197 193 197 198
201 205 206 206 210 211 207 211 212 153 156 154 75 74 72 49 49 49
27 27 27 13 13 13 19 19 19 28 28 28 16 16 16 84 84 84 88 88 88
19 19 19 10 10 10 11 11 11 10 10 10 10 10 10 10 10 10 14 14 14
11 11 11 10 10 10 12 12 12 10 10 10 7 7 7 7 7 7 8 8 8 6 6 6 5 5 5
5 5 5 5 5 5 4 4 4 4 4 4 0 0 0 148 149 150 219 220 222 177 179 178
144 146 145 111 111 109 99 99 97 98 98 98 94 94 94 88 88 88 76 76 76
68 68 68 63 63 63 54 54 54 52 52 52 50 50 50 46 46 46 43 43 43
40 40 40 37 37 37 35 35 35 34 34 34 37 37 37 34 34 34 23 23 23
25 25 25 26 26 26 27 27 27 29 29 29 36 36 36 62 61 62 113 111 112
163 163 162 194 195 193 209 210 211 210 211 213 220 224 226
214 218 220 218 222 223 221 225 226 213 217 219 197 201 201
180 182 181 137 138 136 98 98 96 52 52 52 9 9 9 6 6 6 6 6 6 5 5 5
10 10 10 41 41 41 58 58 58 57 57 57 56 56 56 54 54 54 50 50 50
48 48 48 47 47 47 46 46 46 46 46 46 243 247 250 244 248 251
245 249 252 245 249 252 244 248 251 241 245 247 232 236 237
217 221 221 196 200 199 167 167 166 125 125 123 86 86 84 63 63 61
56 56 56 56 56 56 56 56 56 58 58 58 67 67 67 83 83 81 102 102 100
124 125 124 143 145 144 163 165 164 179 181 180 185 187 186
180 182 183 192 193 195 209 212 214 207 211 212 189 193 192
121 122 121 50 50 50 30 30 30 11 11 11 11 11 11 47 47 47 39 39 39
49 49 49 116 116 116 56 56 56 13 13 13 8 8 8 10 10 10 12 12 12
19 19 19 38 38 38 25 25 25 10 10 10 18 18 18 18 18 18 9 9 9 9 9 9
10 10 10 8 8 8 6 6 6 6 6 6 5 5 5 5 5 5 6 6 6 0 0 0 38 38 38
196 196 196 183 183 182 133 133 131 103 103 101 92 92 90 87 87 87
85 85 85 78 78 78 74 74 74 68 68 68 64 64 64 56 56 56 54 54 54
51 51 51 48 48 48 44 44 44 40 40 40 37 37 37 36 36 36 36 36 36
27 27 27 15 15 15 12 12 12 14 14 14 15 15 15 15 15 15 14 14 14
10 11 11 5 5 5 9 8 8 31 30 30 70 70 69 127 127 127 178 178 178
199 203 204 220 224 225 218 222 223 224 228 229 221 225 226
214 216 218 195 196 198 154 154 155 102 102 102 35 35 35 6 6 7 6 6 6
6 6 6 4 4 4 18 18 18 53 53 53 60 60 60 59 59 59 58 58 58 55 55 55
51 51 51 47 47 47 46 46 46 46 46 46 46 46 46 244 248 251 244 248 251
245 249 252 245 249 252 244 248 251 240 244 246 230 234 235
214 218 218 191 195 194 160 161 159 117 116 114 79 80 78 61 61 59
56 56 56 56 56 56 57 57 57 60 60 60 69 69 69 85 85 84 106 106 104
126 128 127 146 148 147 163 165 164 176 178 177 171 173 171
170 172 172 189 190 192 207 210 211 206 210 211 187 191 190
151 152 152 89 90 90 52 52 52 36 36 36 18 18 18 24 24 24 41 41 41
32 32 32 110 110 110 110 110 110 37 37 37 6 6 6 9 9 9 8 8 8 32 32 32
64 64 64 64 64 64 22 22 22 20 20 20 34 34 34 18 18 18 10 10 10
11 11 11 11 11 11 8 8 8 7 7 7 6 6 6 5 5 5 5 5 5 7 7 7 0 0 0 73 73 73
185 185 184 129 129 127 92 92 90 90 90 89 84 84 84 82 82 82 79 79 79
73 73 73 69 69 69 66 66 66 61 61 61 57 57 57 52 52 52 47 47 47
45 45 45 43 43 43 41 41 41 32 32 32 16 16 16 8 8 8 11 11 11 14 14 14
15 15 15 17 17 17 17 17 17 16 16 16 14 14 14 11 12 11 9 9 9 4 4 4
3 3 3 16 16 16 57 57 57 116 116 114 175 176 174 215 219 220
221 225 226 225 229 230 218 220 222 210 211 213 177 178 179 73 73 73
20 20 20 8 8 8 6 6 6 6 6 6 5 5 5 31 31 31 59 59 59 60 60 60 60 60 60
59 59 59 56 56 56 52 52 52 47 47 47 45 45 45 45 45 45 46 46 46
243 248 251 244 249 252 245 249 252 245 249 251 243 247 248
238 242 243 228 232 233 211 214 214 188 190 189 153 153 151
109 109 107 75 75 74 60 60 60 56 56 56 56 56 56 58 58 58 62 62 62
71 71 71 88 88 87 111 111 108 133 135 134 153 155 154 167 169 168
167 169 168 155 157 155 165 168 168 196 200 201 213 217 218
209 213 214 194 196 196 160 162 160 113 115 114 93 95 94 121 123 122
94 96 95 29 29 29 20 20 20 18 18 18 49 49 49 104 104 104 55 55 55
11 11 11 12 12 12 8 8 8 21 21 21 59 59 59 80 80 80 51 51 51 26 26 26
49 49 49 56 56 56 17 17 17 10 10 10 13 13 13 12 12 12 10 10 10 7 7 7
6 6 6 5 5 5 5 5 5 5 5 5 0 0 0 74 74 74 132 132 132 96 96 94 87 87 85
84 84 84 81 81 81 76 76 76 72 72 72 69 69 69 66 66 66 65 65 65
61 61 61 56 56 56 53 53 53 49 49 49 40 40 40 22 22 22 7 7 7 6 6 6
9 9 9 11 11 11 13 13 13 14 14 14 15 15 15 15 15 15 14 14 14 12 12 12
9 9 9 9 9 9 10 10 10 11 11 11 9 9 9 6 6 6 18 18 17 56 56 56
139 140 140 206 207 208 225 226 228 230 231 233 228 229 232
147 148 149 31 31 31 18 18 18 7 7 7 5 5 5 6 6 6 10 10 10 45 45 45
63 63 63 62 62 62 61 61 61 59 59 59 58 58 58 54 54 54 49 49 49
46 46 46 45 45 45 44 44 44 243 248 251 244 249 252 245 249 252
244 249 251 242 246 247 236 240 241 224 228 229 206 208 208
181 182 181 144 144 142 101 101 99 70 70 70 59 59 60 57 57 57
56 56 56 58 58 58 63 63 63 74 74 74 93 93 91 116 116 114 140 142 140
161 163 162 171 173 172 163 165 164 146 148 147 156 159 158
198 202 203 221 225 226 221 225 227 215 218 218 194 197 196
159 161 161 156 158 158 190 193 192 186 188 187 92 92 92 26 26 26
20 21 20 10 10 10 40 40 40 37 37 37 18 18 18 19 19 19 14 14 14
13 13 13 23 23 23 43 43 43 48 48 48 25 25 25 40 40 40 83 83 83
43 43 43 10 10 10 15 15 15 16 16 16 14 14 14 11 11 11 8 8 8 6 6 6
5 5 5 5 5 5 5 5 5 0 0 0 38 38 38 80 80 78 88 88 87 86 86 86 82 82 82
76 76 76 72 72 72 70 70 70 69 69 69 66 66 66 60 60 60 52 52 52
40 40 40 22 22 22 7 7 7 3 3 3 5 5 5 8 8 8 8 8 8 9 9 9 11 11 11
13 13 13 14 14 14 14 14 14 12 12 12 11 11 11 9 9 9 8 8 8 8 8 8
11 11 11 12 12 12 15 15 15 15 15 15 11 11 11 31 29 30 111 109 110
188 188 190 213 214 215 189 190 191 87 87 88 51 51 51 17 17 18 3 3 3
6 6 6 5 5 5 19 19 19 55 55 55 64 64 64 63 63 63 63 63 63 62 62 62
59 59 59 55 55 55 50 50 50 47 47 47 44 44 44 42 42 42 243 248 251
244 249 252 243 249 252 243 248 250 241 245 246 234 238 239
219 224 225 200 203 203 173 175 174 135 135 134 94 94 92 67 67 67
58 58 58 57 57 57 57 57 57 58 58 58 63 63 63 75 75 75 96 95 94
120 120 118 146 148 147 164 166 165 165 167 166 163 165 164
167 168 167 189 192 192 218 222 223 234 237 238 234 238 239
231 235 236 224 228 229 205 209 210 194 198 199 207 211 212
211 215 215 151 154 153 89 89 89 101 103 102 43 44 43 10 10 10
12 12 12 18 18 18 24 24 24 17 17 17 16 16 16 13 13 13 23 23 23
32 32 32 21 21 21 18 18 18 51 51 51 53 53 53 19 19 19 16 16 16
17 17 17 15 15 15 14 14 14 10 10 10 7 7 7 6 6 6 5 5 5 5 5 5 6 6 6
1 1 1 8 8 8 31 31 31 51 51 51 59 59 59 59 59 59 53 53 53 44 44 44
36 36 36 28 28 28 19 19 19 10 10 10 3 3 3 2 2 2 4 4 4 5 5 5 5 5 5
7 7 7 8 8 8 9 9 9 10 10 10 12 12 12 12 12 12 11 11 11 11 11 11
10 10 10 8 8 8 8 8 8 9 9 9 11 11 11 13 13 13 16 16 16 18 18 18
20 20 20 17 17 17 21 21 21 87 87 87 162 162 162 178 178 178
127 127 127 56 56 56 0 0 0 6 6 6 2 2 2 16 16 16 42 42 42 61 61 61
63 63 63 63 63 63 63 63 63 62 62 62 60 60 60 56 56 56 52 52 52
47 47 47 45 45 45 43 43 43 243 248 251 243 248 251 243 248 251
243 248 250 240 244 245 231 235 236 216 220 221 195 198 197
165 167 166 126 126 124 88 88 86 64 64 64 57 57 57 56 56 56 56 56 56
57 57 57 62 62 62 75 75 75 97 97 95 122 122 120 148 149 148
164 166 165 168 170 169 179 181 180 198 200 200 218 221 221
232 236 237 240 244 245 239 243 244 237 241 242 233 237 238
222 226 227 213 217 218 210 214 215 219 223 224 191 194 194
137 139 138 176 178 177 151 152 153 64 65 64 17 17 17 13 13 13
16 16 16 15 15 15 18 18 18 21 21 21 23 23 23 29 29 29 21 21 21
17 17 17 24 24 24 31 31 31 41 41 41 32 32 32 24 24 24 18 18 18
14 14 14 10 10 10 8 8 8 7 7 7 6 6 6 6 6 6 6 6 6 7 7 7 6 6 6 4 4 4
8 8 8 17 17 17 21 21 21 19 19 19 15 15 15 7 7 7 3 3 3 3 3 3 4 4 4
5 5 5 5 5 5 5 5 5 5 5 5 5 5 5 7 7 7 7 7 7 8 8 8 9 9 9 10 10 10
10 10 10 10 10 10 9 9 9 8 8 8 8 8 8 9 9 9 10 10 10 13 13 13 15 15 15
17 17 17 19 19 19 20 20 20 21 21 21 20 20 20 22 22 22 84 84 84
109 109 109 45 45 45 3 3 3 7 7 7 4 4 4 20 20 20 92 92 92 109 109 109
86 86 86 67 67 67 63 63 63 62 62 62 61 61 61 59 59 59 57 57 57
53 53 53 49 49 49 47 47 47 46 46 46 243 248 251 243 248 251
243 248 251 243 247 250 239 243 244 229 233 234 213 218 219
191 194 193 159 161 160 119 120 118 83 83 81 63 63 63 57 57 57
56 56 56 57 57 57 57 57 57 62 62 62 75 75 75 97 97 95 124 124 122
147 149 147 165 168 167 174 176 175 187 190 190 208 213 214
225 229 230 235 239 240 241 245 246 240 244 245 240 244 245
236 240 241 228 232 233 221 225 226 216 220 221 220 224 225
217 221 223 159 163 161 168 169 169 191 193 194 136 139 137 54 55 55
16 15 16 13 13 13 12 12 12 14 14 14 20 20 20 23 23 23 34 34 34
31 31 31 23 23 23 38 38 38 37 37 37 64 64 64 63 63 63 35 35 35
23 23 23 15 15 15 12 12 12 9 9 9 7 7 7 6 6 6 6 6 6 6 6 6 6 6 6 6 6 6
8 8 8 11 11 11 15 15 15 20 20 20 21 21 21 20 20 20 15 15 15 9 9 9
6 6 6 5 5 5 5 5 5 5 5 5 5 5 5 5 5 5 6 6 6 7 7 7 7 7 7 8 8 8 9 9 9
9 9 9 9 9 9 9 9 9 8 8 8 8 8 8 8 8 8 9 9 9 11 11 11 14 14 14 17 17 17
20 20 20 21 21 21 20 20 20 21 21 21 22 22 22 22 22 22 25 25 25
17 17 17 12 12 12 10 10 10 9 9 9 17 17 17 106 106 106 191 191 191
183 183 183 136 136 136 91 91 91 70 70 70 65 65 65 64 64 64 61 61 61
58 58 58 54 54 54 51 51 51 49 49 49 48 48 48
