P3
120 75
255
41 4 56 41 4 56 41 4 56 41 4 56 41 4 56 41 4 56 41 4 56 41 4 56
41 4 56 41 4 56 41 4 56 41 4 56 41 4 56 41 4 59 41 4 57 41 4 56
41 4 56 41 4 56 41 4 56 41 4 56 41 4 56 41 4 56 41 4 56 41 4 56
41 4 56 41 4 56 41 4 56 41 4 59 41 4 58 42 5 59 41 4 58 40 6 58
37 5 55 37 4 54 40 4 55 41 4 56 41 4 56 41 4 56 42 5 57 41 4 56
41 4 56 41 4 56 42 5 57 42 5 58 41 4 58 42 5 57 41 4 56 41 4 56
41 4 56 41 4 56 41 4 56 41 4 56 41 4 56 41 4 56 41 4 56 41 4 56
41 4 56 41 4 56 41 4 59 41 4 58 42 5 59 41 4 58 40 6 58 37 5 55
37 4 54 40 4 55 41 4 56 41 4 56 41 4 56 41 4 56 41 4 56 41 4 56
41 4 56 41 4 56 41 4 56 41 4 56 41 4 56 41 4 56 41 4 57 41 3 58
41 4 59 41 4 58 42 5 59 41 4 59 40 6 58 39 3 54 40 3 55 40 3 55
41 4 56 41 4 56 41 4 56 41 5 56 41 4 56 41 4 56 41 4 56 42 4 59
41 4 59 41 4 57 42 5 56 42 5 57 42 5 57 42 5 57 42 5 57 42 5 57
42 5 57 42 5 57 43 6 58 42 5 57 41 4 58 41 4 59 42 5 57 42 5 57
42 5 59 43 6 60 42 5 59 42 5 57 43 6 58 43 6 58 42 5 57 42 5 57
41 4 56 42 5 57 41 4 56 41 4 56 41 4 56 41 4 56 41 4 56 41 4 56
41 4 56 41 4 56 41 5 56 41 4 56 41 4 56 41 4 56 41 4 56 41 4 56
41 4 56 41 4 56 41 4 56 41 5 56 41 4 56 41 4 56 41 4 56 41 4 56
41 4 56 41 4 56 41 4 56 41 4 56 41 4 56 41 4 56 41 4 56 41 5 56
40 4 55 41 4 56 41 5 56 41 4 56 41 4 56 42 5 57 42 5 57 41 4 56
41 4 56 42 5 57 42 5 57 42 5 57 42 5 57 42 5 57 41 4 56 41 4 56
41 4 56 41 4 56 41 5 56 41 4 56 41 4 56 41 4 56 41 4 56 41 4 56
41 4 56 41 4 56 41 4 56 41 4 56 41 4 56 41 4 56 41 5 56 40 4 55
41 4 56 41 5 56 41 4 56 41 4 56 41 4 56 42 6 57 41 4 56 41 4 56
41 4 56 41 4 56 41 4 56 42 5 57 42 5 57 41 4 56 41 4 56 41 4 56
41 5 56 41 4 56 41 4 56 41 4 56 41 5 56 40 3 55 41 4 56 41 4 56
41 4 56 41 4 56 42 5 57 41 4 56 41 4 56 42 5 57 42 5 57 42 5 57
42 5 57 42 5 58 42 4 59 42 4 57 42 5 57 42 5 57 42 5 57 42 5 57
42 5 57 42 5 57 42 5 57 42 5 57 42 5 57 43 6 58 43 6 58 42 5 57
43 5 58 43 6 58 43 6 58 44 7 59 44 7 59 43 6 58 44 7 59 44 7 59
41 4 56 42 5 57 41 4 56 41 4 57 42 5 57 41 4 56 41 4 56 42 5 57
41 4 56 42 5 57 42 5 59 42 4 59 41 4 57 42 4 59 42 4 59 41 4 56
41 4 56 42 6 57 42 5 57 41 4 56 41 4 56 42 5 57 41 5 56 41 4 56
42 5 58 42 4 59 41 4 59 41 4 57 42 5 57 41 4 56 41 4 56 41 4 56
41 4 56 42 5 57 42 5 57 42 5 57 42 5 57 42 5 57 43 6 58 43 5 58
43 5 57 43 6 58 43 6 58 42 5 57 42 5 57 43 6 58 43 6 58 43 5 57
42 5 58 39 6 59 41 4 57 41 4 56 41 4 56 41 4 56 41 4 56 41 4 56
42 5 57 42 5 59 41 4 59 41 4 56 41 4 56 41 4 56 41 4 56 41 4 56
42 5 57 42 5 57 41 4 56 41 4 56 42 6 57 43 9 59 40 3 55 45 14 61
43 7 57 40 3 56 40 3 55 50 13 67 44 7 60 41 4 55 42 6 58 42 5 59
42 5 58 41 4 56 41 4 56 41 4 56 41 4 56 41 4 56 42 5 57 42 5 57
42 5 57 42 5 57 42 5 57 43 6 58 43 6 58 43 6 58 43 6 58 42 5 57
42 5 57 42 5 57 41 5 58 41 5 57 41 5 56 43 6 58 44 7 59 42 5 57
43 6 58 43 6 58 43 6 58 44 7 59 43 6 58 44 7 59 43 6 58 44 7 59
43 6 58 43 6 58 43 6 58 43 6 58 44 7 59 44 7 59 45 8 60 44 7 59
41 4 56 42 5 57 42 6 56 41 5 55 41 4 56 42 5 57 42 5 57 42 5 57
41 4 56 41 4 56 41 4 57 41 4 57 41 4 56 41 4 57 41 4 57 41 4 56
41 4 56 41 4 56 41 4 57 41 4 56 41 4 56 41 4 56 42 5 57 41 4 56
41 4 56 41 4 57 41 4 57 42 5 57 41 4 56 41 4 56 41 4 56 41 4 56
42 5 57 43 7 58 42 5 57 42 5 57 42 5 57 42 5 57 43 6 58 43 6 58
43 7 58 43 6 58 44 7 59 43 6 58 44 7 59 45 8 60 45 8 60 44 7 59
42 5 57 41 4 56 41 4 56 41 4 56 41 4 56 41 4 56 42 5 57 42 6 57
41 4 56 41 4 57 41 4 56 41 4 57 41 4 56 41 4 56 41 5 57 42 5 57
43 7 58 42 5 57 42 5 58 41 4 56 41 4 56 40 3 55 41 4 56 41 4 56
41 4 57 43 9 59 41 4 57 42 5 57 42 6 57 41 4 56 41 4 56 41 4 57
41 4 56 41 4 56 41 4 56 41 4 56 41 5 57 40 8 58 41 8 59 42 5 57
42 5 57 42 5 57 43 6 58 43 6 58 43 6 58 43 7 58 43 7 58 44 7 59
43 6 58 43 6 58 42 6 58 42 7 58 43 7 57 42 5 56 42 5 56 43 6 58
43 6 58 43 6 58 43 7 58 43 6 58 44 7 59 43 6 58 44 7 59 44 7 59
44 6 59 44 7 59 44 7 59 44 7 59 44 7 59 44 7 59 44 7 59 44 8 60
41 4 56 42 5 57 43 6 57 43 6 56 42 5 56 41 4 56 41 4 56 41 8 58
41 5 56 41 4 56 42 5 57 41 4 56 41 4 56 42 5 57 41 5 56 41 4 56
41 4 56 40 4 54 41 4 55 41 4 56 41 4 56 42 5 57 43 7 58 41 4 56
41 4 56 42 5 57 41 4 56 42 5 57 40 6 57 42 5 57 42 5 57 42 5 57
43 6 58 42 5 57 42 5 57 42 5 57 42 5 57 42 5 57 42 5 57 43 6 58
43 7 58 44 7 59 44 7 59 44 7 59 44 7 59 45 8 60 45 8 60 44 7 59
42 5 57 41 4 56 41 4 56 42 6 58 40 6 57 42 5 57 42 5 57 42 6 57
41 4 56 42 5 57 41 4 56 42 5 57 40 6 57 42 5 57 42 5 57 43 6 58
42 6 57 41 4 57 41 4 59 41 4 56 41 4 56 41 4 56 41 4 55 40 3 54
41 4 55 43 7 58 41 4 56 41 5 57 41 7 58 41 3 56 42 5 57 42 5 57
41 4 56 42 6 57 41 7 58 42 5 57 42 5 57 41 8 58 41 5 57 43 6 57
42 5 57 42 5 57 43 6 57 42 6 57 43 6 58 43 7 59 44 7 59 44 7 59
43 6 58 43 6 58 43 6 58 43 7 59 44 7 59 43 6 58 43 6 57 43 6 57
43 6 59 44 7 59 43 7 59 44 7 59 44 7 59 44 7 59 45 8 60 44 7 59
44 8 59 44 7 59 44 7 59 44 7 59 44 7 59 44 7 59 44 7 59 44 8 59
41 4 56 41 4 56 41 4 55 41 4 56 42 5 57 41 4 56 42 5 57 42 5 57
42 5 57 42 5 57 41 5 55 41 5 57 42 5 57 41 4 55 41 4 56 41 4 56
41 4 57 41 4 55 41 4 54 42 5 56 41 4 55 42 5 57 42 5 57 42 5 57
41 4 56 41 4 55 41 4 57 41 5 57 42 6 58 42 5 58 42 5 57 43 6 58
42 5 57 42 5 57 43 6 57 43 6 56 43 6 58 43 6 58 44 7 59 44 7 59
44 7 59 44 8 59 45 8 60 43 7 59 44 7 59 45 8 60 45 7 60 43 7 59
41 5 56 41 4 55 42 5 57 42 6 57 40 7 57 42 6 58 43 6 58 42 5 57
42 5 57 41 5 55 41 4 56 42 5 57 42 6 57 42 5 57 43 6 58 43 6 58
42 5 57 41 4 56 41 4 56 42 5 57 42 5 57 41 4 56 41 4 57 41 4 54
41 4 55 41 3 56 42 5 56 42 5 57 42 5 57 41 4 56 41 4 56 41 5 55
42 5 57 42 5 57 42 6 57 42 5 58 42 5 57 43 5 57 43 6 58 43 6 57
43 6 57 43 6 58 43 7 59 44 8 60 44 7 59 45 7 59 45 8 60 45 8 60
44 7 59 43 6 58 43 6 58 43 7 58 43 7 58 44 7 59 44 8 60 44 7 59
44 7 60 44 7 59 44 7 59 45 8 60 44 7 59 45 8 60 44 7 59 44 7 59
45 8 60 46 9 61 44 7 59 44 7 59 44 7 59 44 7 59 44 7 59 44 7 59
41 4 56 42 5 56 41 4 56 41 4 56 42 5 57 42 5 57 42 5 57 42 5 57
42 5 57 42 5 57 42 5 57 42 5 57 42 5 57 43 6 57 41 4 56 41 4 56
42 5 57 41 4 56 41 4 56 41 4 56 41 4 56 41 4 56 41 4 56 41 4 56
42 5 57 42 5 56 41 5 55 42 5 56 42 4 55 43 6 57 43 6 57 43 6 58
43 6 58 43 6 58 43 6 58 42 5 56 42 6 56 42 6 57 44 7 59 45 8 60
45 8 59 44 7 59 45 8 60 44 8 59 44 7 59 44 7 59 44 7 59 43 6 58
42 5 57 42 5 56 42 5 56 41 4 55 42 6 56 43 6 57 43 6 58 43 6 58
42 5 56 42 5 56 41 4 55 41 4 55 42 4 55 43 7 57 43 6 57 43 6 58
42 5 57 41 4 56 42 5 57 42 5 57 42 6 57 43 9 58 42 5 56 41 4 55
42 5 56 42 5 57 42 5 56 42 5 57 42 5 57 42 5 57 42 5 56 42 5 56
41 5 55 41 4 55 42 5 56 43 6 57 43 6 58 43 6 58 43 6 58 42 5 56
42 5 56 42 5 56 43 6 58 44 7 59 45 8 60 44 7 59 45 8 60 44 8 60
44 7 59 44 7 59 44 8 59 44 8 60 44 7 59 44 8 59 44 7 59 44 7 59
44 7 59 45 8 60 44 7 59 45 8 60 45 8 60 44 7 59 44 7 59 45 7 60
45 7 60 45 8 60 45 8 60 43 6 58 44 7 59 44 8 60 44 8 60 45 9 61
42 5 57 42 5 57 42 5 57 41 4 57 42 5 57 41 4 56 41 4 56 42 5 57
41 4 56 42 5 57 42 5 57 41 4 55 41 4 56 43 6 57 41 4 56 41 4 56
42 5 57 41 4 56 41 4 55 41 4 56 41 4 56 41 4 56 42 5 57 41 4 56
42 5 57 42 5 56 41 4 55 42 5 56 42 5 56 43 6 56 43 6 58 43 6 58
43 6 58 43 6 58 43 7 59 44 8 60 43 7 58 43 7 59 44 7 59 45 8 60
44 8 60 45 8 60 45 8 60 45 9 61 44 8 60 45 8 60 44 7 59 43 6 58
43 6 58 42 5 57 42 5 56 42 5 56 42 5 56 43 6 57 43 6 58 43 6 58
43 6 57 42 5 56 42 5 56 42 5 56 42 5 56 43 6 56 43 6 58 43 6 58
43 6 58 42 5 57 42 5 57 42 5 57 41 5 56 42 6 57 43 6 57 42 5 56
42 5 56 42 5 57 42 5 57 43 6 58 43 6 58 44 7 59 42 6 57 41 4 55
42 5 55 42 5 56 42 5 56 43 6 57 43 6 58 43 6 58 43 6 58 44 7 59
44 7 59 43 7 59 44 7 59 44 7 59 45 8 60 44 8 60 45 8 60 45 9 60
44 8 60 45 7 59 45 8 60 45 8 60 45 8 60 44 8 60 45 8 60 45 8 60
44 7 58 45 8 60 44 8 60 45 8 60 45 8 60 45 8 60 45 8 60 44 8 60
45 8 60 46 9 61 45 8 60 50 14 65 45 10 62 48 17 65 47 11 63 46 8 61
42 5 58 42 5 57 42 5 57 42 5 57 42 5 58 42 5 57 42 5 56 43 6 58
42 5 57 42 5 58 42 5 57 42 5 58 42 5 57 42 5 56 42 5 57 42 5 56
41 5 56 42 5 56 42 5 55 41 5 55 41 5 55 41 4 56 42 5 57 43 7 58
42 5 57 42 5 56 43 6 57 43 6 57 43 6 57 43 7 58 42 6 58 43 6 58
45 8 60 44 7 59 44 7 59 44 8 59 45 7 59 44 7 59 45 8 60 45 8 60
45 9 60 45 9 61 46 9 61 47 9 61 46 9 61 45 8 60 44 7 59 42 5 57
42 5 57 42 5 57 43 6 58 43 6 58 42 5 58 43 6 58 43 6 58 44 7 58
43 6 57 42 5 56 43 6 57 43 6 57 44 7 58 43 7 59 43 6 58 44 8 59
43 6 58 42 5 57 42 5 57 42 5 56 42 5 57 42 4 56 41 4 55 43 6 56
43 6 57 44 7 59 43 6 58 45 8 60 44 7 59 44 7 58 42 5 56 42 6 57
44 7 58 43 6 57 44 7 58 43 6 58 44 7 59 45 8 60 44 7 59 43 8 59
44 7 59 44 7 59 45 7 60 44 9 60 45 9 60 44 8 60 46 9 61 47 9 61
46 8 61 44 8 60 44 7 59 44 8 60 44 8 60 45 8 60 44 8 60 45 8 60
45 8 59 46 9 60 45 9 60 45 9 60 46 9 61 46 9 61 45 8 60 44 9 60
45 9 61 45 9 61 47 10 62 49 12 64 46 9 62 48 12 63 47 10 62 46 9 61
42 5 58 42 5 57 42 5 57 43 6 56 43 7 57 43 6 59 44 7 58 44 6 58
43 6 59 43 6 58 44 7 57 44 7 58 43 6 58 43 6 58 42 5 57 43 6 58
43 5 58 43 6 57 43 6 57 43 6 57 42 5 56 41 5 55 41 5 55 42 5 56
43 6 58 43 6 57 44 7 58 45 8 59 44 7 58 44 7 59 43 7 59 44 7 59
45 8 60 44 7 59 44 7 59 44 7 59 44 7 59 45 8 60 45 8 60 44 7 59
46 9 61 46 9 61 46 9 61 46 9 61 45 9 61 44 7 59 43 6 58 42 5 58
43 6 58 43 6 58 43 6 58 43 6 58 43 7 57 43 6 57 43 6 57 43 6 57
43 5 57 44 7 58 44 7 58 44 8 59 44 7 59 43 7 59 44 7 59 44 7 59
43 6 58 43 6 58 43 6 58 43 6 58 43 6 58 43 6 58 42 5 58 43 5 59
43 5 58 43 6 57 43 7 57 43 6 58 43 6 57 42 5 56 43 6 57 44 7 58
45 8 59 44 8 58 44 7 59 44 7 59 44 7 59 44 8 59 44 7 59 44 7 59
44 7 59 44 8 59 45 8 60 44 7 59 45 8 60 46 9 61 46 9 61 46 9 61
46 9 61 44 8 60 44 8 60 44 8 60 45 9 61 45 9 60 44 9 60 45 8 59
45 10 60 45 10 60 46 8 61 46 9 61 46 9 61 46 9 61 46 9 61 46 9 61
46 9 61 46 9 61 47 10 62 46 9 61 46 9 61 44 8 60 43 7 57 44 7 58
42 5 56 43 6 57 42 5 58 43 6 56 43 7 56 44 7 58 44 7 58 43 7 58
43 6 57 42 5 56 44 7 58 44 7 58 43 8 59 44 7 59 44 7 59 43 6 58
43 6 58 43 6 57 44 7 58 44 8 58 43 6 57 42 5 56 42 5 56 42 6 56
44 7 58 43 6 58 44 7 57 44 7 58 44 7 60 44 8 60 45 7 59 44 7 59
44 8 59 45 7 59 46 8 61 44 9 60 43 7 59 46 9 62 45 8 60 44 8 59
46 9 60 46 9 61 46 9 61 46 9 61 45 9 60 44 7 59 43 6 58 43 6 59
43 6 58 44 7 59 43 6 58 43 6 58 43 6 57 42 5 56 43 6 57 43 6 57
44 7 58 44 7 58 44 8 58 44 8 60 45 8 61 45 8 60 44 7 59 45 8 60
45 8 60 45 8 60 45 8 60 44 7 59 43 6 59 43 6 57 43 7 57 43 7 58
43 6 59 44 7 58 42 5 56 42 5 56 42 5 56 43 6 57 44 7 58 44 7 58
45 8 59 44 7 59 45 8 60 44 7 59 45 7 59 45 8 60 44 7 59 46 9 61
44 8 59 43 8 60 46 8 61 44 7 59 45 9 60 46 9 60 46 9 61 45 9 61
45 9 61 46 8 61 45 9 61 47 9 61 46 9 61 46 9 61 46 8 60 46 9 61
46 10 60 45 9 60 45 9 61 46 9 61 46 9 61 46 10 62 46 9 61 45 9 60
46 9 61 46 9 61 46 9 61 46 9 61 46 9 61 46 9 61 45 9 60 49 15 64
43 6 57 44 7 58 44 7 58 43 6 57 43 6 57 44 7 58 44 8 58 44 8 59
43 6 57 43 6 57 44 7 58 44 7 58 44 7 59 45 9 60 44 7 59 44 7 59
44 6 58 43 6 57 44 6 58 44 7 58 43 6 57 43 6 57 43 6 57 43 6 57
44 7 58 44 7 58 44 7 58 44 8 58 44 7 60 44 9 60 45 8 59 43 7 59
44 8 60 45 7 59 45 8 60 44 8 60 44 8 59 45 8 60 45 8 60 46 9 61
47 9 61 46 10 61 46 10 61 47 9 61 45 9 60 44 8 59 44 7 59 44 7 59
43 6 57 43 6 57 43 6 57 43 6 57 43 6 57 44 7 58 44 7 58 43 7 58
44 7 58 44 7 58 44 7 58 44 7 59 45 8 60 45 8 60 43 8 59 44 8 60
44 8 59 44 7 59 44 7 59 44 7 58 43 6 57 43 6 56 43 6 57 44 7 58
44 8 60 44 7 58 43 6 56 43 6 57 43 6 57 44 7 57 44 7 58 44 7 57
45 8 59 44 7 59 45 8 60 45 8 60 43 8 59 45 8 60 45 8 60 45 8 60
43 8 59 44 8 60 45 8 61 45 9 60 46 9 61 46 9 61 46 9 61 46 9 61
46 9 61 45 9 61 45 9 61 46 9 61 46 9 61 46 10 61 46 9 61 47 9 61
46 10 60 45 10 60 46 9 60 46 9 60 46 9 61 46 9 61 46 9 61 47 9 61
47 9 61 46 10 61 46 9 61 46 9 61 47 10 62 47 10 62 46 9 62 46 10 61
44 7 58 45 8 59 44 7 58 43 6 57 44 7 58 44 7 58 44 7 58 44 7 58
45 7 59 44 8 58 44 8 59 45 8 59 44 7 59 44 8 60 44 8 60 44 7 59
43 7 58 44 7 59 44 7 58 44 7 58 44 8 58 44 8 58 44 7 58 44 7 58
45 8 59 45 8 59 44 9 59 45 8 59 45 8 60 44 8 60 46 9 61 44 9 61
44 8 60 44 8 59 45 9 60 46 9 61 46 9 61 46 9 61 46 9 60 46 10 61
46 10 62 46 9 61 46 10 62 46 10 62 46 9 61 45 8 60 45 9 61 45 8 60
43 7 57 43 7 57 43 7 58 43 7 57 43 7 58 44 8 58 45 8 59 44 8 60
45 8 59 44 9 59 44 8 59 45 8 60 45 8 60 46 9 61 44 9 61 44 8 60
45 8 59 46 9 61 46 9 60 43 7 57 43 7 57 43 7 58 44 7 58 44 7 58
44 8 58 43 7 58 44 7 59 44 8 58 44 8 58 45 8 59 45 8 59 44 8 58
45 8 59 45 8 60 45 8 60 45 9 61 44 9 60 44 8 60 45 8 60 46 9 61
46 9 61 46 9 62 46 10 60 46 10 60 46 10 62 46 9 61 46 10 62 47 10 62
46 9 62 46 9 60 46 9 60 45 10 61 45 9 61 46 9 61 46 10 62 46 10 62
46 9 62 46 10 60 46 9 60 46 9 60 45 10 61 47 9 62 46 10 62 46 10 61
46 9 62 46 9 61 46 9 61 46 9 61 46 9 61 46 9 61 46 9 61 47 9 62
45 10 60 46 9 61 44 9 60 43 8 59 43 8 58 43 8 58 44 8 58 44 8 59
46 9 60 45 9 60 45 9 60 45 9 60 45 10 60 44 9 60 44 9 61 43 8 59
43 8 58 43 8 58 44 8 59 44 8 59 43 8 58 45 9 60 45 9 60 45 10 60
45 10 60 46 9 60 45 9 60 46 9 60 47 10 61 47 10 61 47 9 60 47 9 60
46 9 60 43 8 58 46 9 61 47 11 62 47 10 63 48 10 63 47 10 61 47 10 61
47 10 62 47 11 62 47 10 61 47 10 61 47 10 61 45 8 59 46 9 60 45 8 59
45 8 61 44 8 59 43 8 59 43 8 58 44 9 59 45 9 60 46 10 61 47 10 61
46 9 60 45 9 59 45 9 60 46 10 61 47 10 61 47 10 61 47 9 61 46 9 60
45 8 59 46 10 60 46 9 60 43 8 59 43 8 59 43 8 58 43 8 58 43 8 58
43 8 58 43 8 58 43 9 58 45 10 60 45 9 60 46 9 61 46 10 60 45 10 60
46 9 61 47 10 61 47 10 61 47 9 60 47 9 61 46 9 59 45 8 59 47 9 63
47 10 61 47 10 63 47 10 62 46 10 61 47 10 61 47 10 61 47 10 61
48 10 63 48 11 62 47 9 60 47 10 60 47 10 61 47 10 61 47 10 61
48 10 62 48 10 62 48 10 63 46 9 61 46 10 61 47 10 61 47 10 61
47 10 61 47 10 62 47 10 62 47 10 61 47 9 60 47 10 61 46 9 60 44 8 58
47 10 61 46 9 60 45 9 59 51 12 61 50 12 61 48 11 60 47 10 59 47 10 59
48 11 60 50 11 61 49 11 60 51 12 61 49 11 60 48 11 60 48 11 59
51 11 62 51 11 60 50 11 60 48 10 59 47 10 59 47 10 59 48 10 59
48 10 59 49 10 60 48 11 60 49 11 60 50 10 60 50 10 60 50 10 61
50 10 60 49 10 60 50 11 60 51 12 61 50 11 60 50 11 60 50 12 61
50 10 60 50 10 61 50 11 60 50 10 59 50 11 60 51 11 61 51 12 61
50 10 59 50 11 61 51 11 60 50 10 59 51 12 61 50 11 60 50 10 60
50 11 60 49 10 59 50 11 59 47 10 59 47 10 59 50 11 60 50 10 60
50 11 59 50 12 61 51 11 62 50 11 61 49 10 59 50 11 60 51 12 61
51 12 60 50 11 60 50 11 59 50 11 60 50 11 60 50 11 59 48 11 59
48 11 59 48 10 59 47 10 59 47 10 59 47 10 60 48 10 59 48 11 59
50 11 60 50 10 59 50 11 60 50 11 60 49 10 60 49 10 59 50 11 60
51 12 61 50 11 60 50 10 59 50 11 60 49 10 59 50 11 59 49 10 59
50 11 60 50 11 60 51 12 61 49 12 61 50 10 60 50 11 60 50 10 60
51 12 60 51 12 61 49 10 59 51 11 61 51 11 61 50 11 60 50 10 59
50 11 59 51 12 62 51 11 60 49 10 60 51 12 61 49 11 60 50 11 60
50 11 60 50 11 60 51 12 60 50 11 60 50 11 60 51 12 61 49 10 60
50 10 60 50 11 60 50 11 60 55 12 58 55 12 58 55 12 57 54 11 57
53 11 59 55 12 60 56 13 58 55 12 59 56 12 59 55 12 58 55 11 59
54 11 57 55 12 60 56 11 59 56 12 61 55 11 60 54 11 59 52 11 57
49 9 54 51 11 56 52 11 58 51 10 58 53 12 58 54 11 59 55 11 60
55 12 60 55 11 60 56 11 58 56 12 59 56 12 59 56 12 59 57 12 61
56 12 61 56 12 60 55 11 60 56 12 58 56 12 59 56 12 59 56 12 58
56 12 58 56 12 58 56 12 59 56 12 59 56 12 59 56 12 61 56 12 61
55 12 60 56 12 59 55 11 58 54 13 57 54 10 59 55 11 59 55 11 60
55 11 59 56 12 58 56 12 59 56 12 60 55 11 61 55 11 58 56 12 58
56 12 59 57 13 59 56 12 60 56 12 59 56 12 60 55 11 60 55 12 58
55 12 58 55 12 58 55 11 59 54 11 59 53 11 59 55 11 60 55 11 58
53 11 57 52 12 57 55 11 58 57 12 58 55 12 57 54 11 57 55 11 57
56 12 59 56 12 58 57 12 59 56 12 61 56 11 59 56 12 60 55 11 58
55 12 58 56 12 59 56 12 58 56 12 58 56 12 58 55 12 58 55 12 58
55 12 58 56 12 59 56 13 59 56 12 60 56 12 60 55 12 57 55 11 57
55 11 57 56 12 59 56 13 59 56 12 58 55 12 57 56 12 58 55 12 57
55 11 57 55 11 57 56 12 59 56 12 59 56 12 59 56 12 61 56 12 61
56 12 60 55 12 57 56 12 58 56 12 61 59 13 59 62 14 60 60 14 59
60 14 59 60 14 59 60 14 59 61 13 59 61 13 60 61 13 61 60 14 59
59 14 59 60 13 60 60 13 59 61 13 60 60 13 62 58 12 57 57 12 55
57 11 55 58 12 56 58 13 57 57 11 55 58 11 56 58 12 56 58 13 57
58 13 57 59 14 58 59 13 58 59 13 59 61 14 59 61 13 60 61 13 61
61 13 61 61 13 60 60 14 59 58 13 58 59 14 59 60 14 59 61 14 60
60 14 59 61 14 60 61 14 60 61 13 60 61 14 60 61 13 60 61 13 61
60 13 60 58 13 58 59 13 58 59 14 58 60 14 60 61 14 60 61 13 60
60 14 59 60 14 59 60 14 59 61 14 59 58 14 58 59 13 58 60 14 60
61 14 60 61 13 60 61 13 60 61 13 61 61 13 61 61 13 61 58 13 57
59 13 59 60 14 58 60 14 59 59 13 58 58 13 56 58 13 57 58 13 56
57 12 54 57 12 55 58 13 56 59 14 58 61 13 59 60 14 59 60 14 59
61 14 60 62 13 60 61 13 60 60 13 60 60 13 61 61 13 61 59 13 59
58 13 58 60 14 59 61 13 59 60 14 60 60 14 59 61 14 60 60 14 59
61 13 60 62 14 61 62 14 60 61 13 60 61 14 61 61 13 61 61 13 59
60 14 59 61 14 60 62 13 60 61 13 60 60 14 60 60 14 60 61 13 59
62 14 60 61 14 59 60 13 60 62 14 59 61 13 59 61 13 61 61 13 61
61 14 61 59 13 59 57 12 58 59 13 59 59 14 58 63 13 59 64 13 59
64 14 60 63 14 59 62 14 59 63 13 59 64 13 60 64 13 61 63 13 59
63 14 59 65 14 60 63 13 59 63 14 60 64 13 60 63 14 60 61 13 56
61 12 55 63 13 59 64 14 58 62 14 57 63 14 58 62 14 58 63 14 59
64 13 58 64 13 59 64 14 59 62 13 59 63 13 59 64 14 59 65 13 59
64 14 60 64 14 60 64 14 60 63 14 57 63 14 58 63 13 57 63 13 57
63 14 59 64 13 59 64 14 60 64 14 61 63 13 60 64 14 60 64 14 61
63 13 60 63 13 59 63 13 57 64 14 57 63 13 58 64 14 59 64 14 60
64 14 60 63 14 57 63 13 56 63 14 57 63 13 58 63 13 59 63 14 58
65 13 60 64 14 60 64 13 60 64 14 60 63 14 60 63 13 60 63 13 59
63 13 57 63 14 57 63 13 58 63 13 58 62 13 56 60 12 56 60 13 57
60 13 57 62 13 58 64 14 59 64 14 59 64 14 59 64 14 60 64 14 60
63 14 59 63 14 59 64 13 59 65 13 60 65 14 61 64 14 61 63 13 60
63 13 58 63 13 57 63 13 57 62 14 57 63 13 59 63 13 59 64 14 60
64 14 60 63 14 60 64 14 60 64 13 59 66 13 61 64 14 61 63 13 60
64 14 60 64 14 60 63 14 59 62 14 59 64 13 59 64 14 59 64 14 60
65 15 60 64 14 60 64 14 60 63 14 60 64 13 58 65 13 57 65 13 60
63 14 60 63 13 59 64 13 60 64 14 59 64 14 60 63 14 59 68 14 59
69 15 60 68 15 60 67 15 60 67 14 59 69 14 61 69 14 60 68 15 60
66 15 57 66 15 57 68 15 61 68 15 60 69 15 60 69 14 61 68 15 61
68 15 58 68 15 58 67 15 55 69 14 57 68 14 56 67 15 57 67 15 58
69 14 58 68 14 60 70 15 59 71 14 59 69 15 56 70 14 57 69 15 58
70 15 60 69 14 60 69 14 61 69 15 58 67 15 54 68 14 57 67 14 57
67 15 56 68 15 56 69 15 59 70 15 59 70 15 60 70 15 60 70 14 60
69 14 62 68 15 59 67 14 56 68 14 55 68 15 55 68 15 58 69 15 58
69 14 61 69 14 57 67 15 54 68 14 54 67 14 54 68 15 57 68 15 58
69 14 61 70 14 61 70 14 61 70 15 60 69 14 60 69 14 60 68 15 60
67 14 56 68 14 54 67 15 54 67 14 58 67 14 57 67 15 55 68 15 58
67 15 55 67 15 57 68 15 58 68 16 56 69 15 59 70 14 60 69 15 60
69 16 61 69 15 61 69 15 60 69 14 61 70 14 61 70 14 60 70 14 58
69 14 58 67 14 55 68 14 57 67 15 57 67 15 57 68 15 57 69 15 58
70 15 60 70 15 60 69 16 61 69 14 60 69 14 61 70 14 60 68 15 58
68 15 57 67 15 57 70 15 61 70 15 61 69 15 60 70 15 62 70 14 58
69 14 60 72 15 62 70 15 60 70 15 61 69 15 61 69 14 60 70 14 61
69 14 61 68 15 61 69 14 61 70 15 61 69 14 61 69 15 61 67 14 60
71 15 55 72 15 55 72 15 57 74 15 60 73 15 59 72 15 59 70 15 54
70 15 53 71 16 55 72 15 55 73 15 57 74 15 60 74 15 59 72 15 58
71 14 57 70 15 53 73 15 54 73 15 56 73 14 56 75 16 57 74 15 57
73 15 55 73 15 56 71 15 55 72 16 54 73 16 55 73 15 55 72 16 55
73 15 55 72 15 55 73 15 56 73 14 55 72 15 54 73 15 55 73 15 56
74 16 57 74 15 56 73 15 55 73 15 55 72 15 56 72 15 55 72 16 55
73 16 56 73 15 55 73 15 55 73 15 55 73 15 55 73 15 56 73 15 55
71 15 55 74 15 56 73 15 55 74 16 56 71 15 55 70 15 54 70 16 54
70 15 54 71 15 55 71 15 54 72 15 55 72 16 55 73 15 56 72 16 55
73 15 55 74 16 55 72 15 55 70 15 54 70 16 54 70 15 53 72 15 55
73 15 54 71 16 55 70 15 54 73 15 56 73 16 56 73 15 57 72 15 56
72 15 56 73 15 59 73 15 60 74 15 59 73 15 60 71 14 57 70 15 53
72 15 54 73 15 54 73 15 56 74 15 57 75 16 57 74 15 56 73 16 55
72 16 55 73 15 56 72 15 57 72 16 59 73 15 60 72 15 60 70 15 54
70 15 53 73 15 54 72 15 55 73 15 57 73 16 60 74 15 59 74 15 60
74 16 58 72 16 59 73 15 58 73 15 56 73 15 59 73 15 59 74 15 60
72 15 59 73 14 59 74 15 60 73 15 60 73 14 59 74 16 60 73 16 60
74 14 59 77 17 57 77 17 57 75 17 57 76 17 57 77 17 57 75 16 56
74 17 56 75 17 54 74 15 53 74 16 56 75 16 56 76 17 57 74 16 56
74 17 56 74 16 55 75 17 55 75 16 54 75 16 54 75 16 56 75 16 56
78 16 57 77 16 57 77 16 57 77 17 57 77 17 57 78 17 58 78 17 57
77 17 57 77 17 57 75 17 54 78 17 58 78 17 57 75 16 54 75 16 54
75 17 56 77 16 57 78 16 57 77 16 58 77 16 57 77 17 57 77 17 58
77 17 57 78 17 57 78 17 57 77 16 57 77 17 57 75 17 54 78 16 57
78 17 57 75 17 56 77 16 56 76 17 56 76 16 56 75 17 54 75 17 55
75 16 56 75 17 55 74 16 54 74 16 54 75 17 54 74 17 54 78 17 58
77 17 57 75 16 56 76 17 56 75 17 54 75 17 55 75 17 55 75 17 55
75 16 53 75 16 54 75 16 56 74 16 54 77 16 57 78 16 58 77 17 57
77 17 57 77 17 58 78 17 58 77 17 57 78 17 57 78 16 57 75 17 56
75 17 55 75 16 54 74 16 54 75 16 56 75 17 57 77 16 57 77 16 57
77 17 57 77 17 57 77 16 57 76 16 57 78 17 58 78 17 57 77 16 57
75 17 56 75 17 55 74 16 54 75 16 56 75 17 56 75 17 57 74 16 56
75 17 56 74 17 56 79 18 58 83 19 60 76 16 57 76 17 58 77 17 58
77 17 57 77 16 57 77 16 57 77 17 57 77 16 57 78 18 58 79 17 58
77 17 57 79 16 58 83 17 58 82 17 57 82 17 57 82 17 57 82 17 57
82 17 57 82 17 57 81 17 57 81 17 56 79 17 56 78 17 55 81 17 56
80 17 56 78 18 56 80 17 56 82 17 57 82 18 57 83 16 57 81 17 56
79 17 54 81 17 56 81 17 57 84 16 57 84 16 60 84 16 60 84 16 58
84 17 58 84 16 58 84 16 58 83 16 57 84 17 58 83 17 58 83 17 58
83 16 58 81 16 56 79 17 54 81 17 56 83 17 57 84 17 58 84 17 58
85 16 60 85 16 60 84 16 58 84 17 58 84 16 57 84 16 58 84 17 58
84 16 57 82 17 58 83 16 57 83 16 57 83 17 57 84 16 57 84 16 57
82 18 56 82 18 57 82 18 55 83 17 56 83 17 57 83 16 57 83 16 57
84 17 57 83 17 58 83 17 57 84 16 57 83 17 57 82 18 56 82 18 57
82 17 55 83 17 56 83 17 57 83 16 57 83 16 57 84 17 57 82 17 57
84 16 58 83 16 57 82 17 57 83 17 57 83 16 57 84 17 57 84 17 57
83 16 57 82 18 56 82 18 57 83 17 57 83 16 57 81 17 55 79 17 56
82 17 56 84 17 57 83 18 58 82 17 57 82 17 57 83 17 57 84 17 57
84 16 57 83 16 57 82 17 58 82 17 57 81 17 56 80 18 54 81 17 56
81 16 56 80 17 56 80 17 56 81 17 56 83 18 58 82 17 57 84 19 60
82 17 59 82 17 57 82 17 60 82 18 60 83 18 60 83 18 60 82 17 57
84 17 59 81 17 57 80 16 57 87 17 57 85 18 56 84 17 55 84 16 56
84 16 55 82 18 55 85 17 56 87 17 56 88 17 58 86 18 57 85 18 57
85 18 57 87 17 59 86 17 58 85 17 58 87 17 57 87 17 56 87 18 57
88 17 57 86 17 57 86 18 56 86 17 56 87 17 58 88 16 58 89 17 59
87 17 59 87 16 58 89 17 59 90 16 57 90 16 57 91 16 59 89 16 59
87 17 57 87 17 58 85 17 56 84 18 56 86 18 57 85 18 56 86 18 57
87 17 57 87 17 56 88 17 56 88 15 58 87 16 59 89 17 59 91 16 59
91 16 59 91 16 60 89 16 59 87 17 57 87 17 57 84 17 55 84 16 55
85 17 56 86 17 56 87 18 57 87 17 57 88 18 57 87 17 56 87 17 57
91 17 58 91 16 59 89 16 59 87 17 57 84 17 56 85 17 56 87 17 56
87 18 57 87 17 57 88 18 57 87 17 57 87 17 57 85 17 56 83 17 55
84 17 55 88 17 59 86 17 57 82 18 55 84 17 55 83 17 55 84 16 55
84 16 55 84 17 56 86 17 56 87 17 56 87 17 56 86 17 56 84 17 55
86 18 57 86 18 56 86 18 56 86 18 57 85 18 56 83 18 55 83 17 55
83 17 55 84 16 55 85 17 56 87 17 56 88 18 58 87 18 57 85 18 57
86 18 57 87 17 59 87 17 59 87 17 59 88 17 59 87 17 58 87 17 59
89 18 60 86 17 58 87 17 59 87 17 60 87 17 61 88 17 61 87 17 59
88 18 60 87 17 61 87 17 59 87 16 59 90 17 53 90 17 54 91 18 56
91 18 54 91 18 54 89 17 52 90 17 53 92 18 56 94 19 58 92 19 57
92 18 58 93 18 59 94 17 59 94 17 59 93 17 59 93 18 57 93 18 57
93 17 57 94 18 57 94 18 57 93 18 57 92 18 57 92 18 57 92 18 57
92 18 56 93 18 57 95 18 58 96 18 57 96 17 58 98 17 60 94 17 56
92 18 56 92 18 56 91 18 55 91 18 55 93 19 56 97 19 59 91 18 55
90 18 54 90 18 54 91 18 54 91 18 55 94 18 57 95 17 59 96 17 59
96 17 59 98 17 60 95 17 57 92 18 56 92 18 55 92 19 54 91 18 55
90 17 53 90 18 54 92 19 56 93 19 57 91 18 55 94 18 57 95 18 56
93 19 56 98 17 60 94 17 57 92 18 56 92 18 54 91 18 54 91 18 54
94 18 57 93 18 57 91 18 55 94 18 57 96 18 59 96 18 59 91 18 54
91 18 54 90 17 55 94 18 57 93 18 57 92 19 56 91 19 55 91 18 54
90 17 54 90 17 54 90 17 53 91 18 55 93 18 58 92 18 55 91 18 55
92 19 56 95 19 58 95 19 57 91 18 54 91 18 53 91 18 55 92 19 56
91 19 54 91 18 54 90 17 53 90 18 54 92 19 55 94 19 58 95 19 58
94 18 59 94 17 59 94 18 59 95 17 59 94 18 59 96 17 60 97 17 60
95 18 60 94 18 59 94 18 60 95 18 60 94 17 59 94 17 59 94 17 58
95 17 59 94 18 59 96 18 60 95 17 60 94 17 59 98 18 55 99 18 55
100 19 57 99 18 55 97 19 55 97 18 54 98 18 56 99 18 56 99 18 57
101 18 58 101 18 58 99 18 58 98 18 57 101 17 57 100 18 57 98 18 57
98 18 57 101 17 57 100 18 57 99 19 57 99 18 57 99 18 57 98 18 58
99 18 57 99 18 57 99 18 57 100 18 58 100 18 57 101 18 58 99 18 57
96 19 55 98 19 56 98 18 55 99 19 56 99 18 57 98 18 56 98 18 56
99 18 55 99 18 55 99 18 56 99 18 56 99 18 57 98 18 57 100 18 57
101 17 57 102 18 58 101 18 58 98 18 55 98 18 56 98 18 56 98 18 56
98 18 56 99 18 55 100 18 56 99 18 56 98 18 56 98 18 56 98 18 56
98 18 56 100 17 56 100 18 57 96 19 55 98 19 56 98 18 55 100 19 55
98 18 56 98 18 56 99 18 56 98 18 56 98 18 56 101 18 57 100 19 57
99 19 57 99 18 56 97 19 57 98 19 57 99 18 56 100 19 57 99 18 56
98 19 54 98 18 54 99 19 56 98 18 55 98 18 56 99 18 57 98 18 56
99 19 57 99 19 57 99 18 57 98 18 56 98 18 55 99 18 55 98 18 56
100 19 57 99 18 56 99 18 54 98 18 55 99 19 56 99 18 56 99 18 56
101 18 58 101 18 57 100 18 58 100 18 57 101 17 58 101 18 58 100 18 57
100 19 58 100 19 57 101 18 58 101 18 58 101 17 59 101 18 58 99 18 57
98 18 57 99 19 58 99 19 59 99 19 57 101 17 58 101 17 59 109 18 59
105 18 57 105 18 57 106 19 56 105 17 57 104 17 57 104 18 57 105 17 56
105 17 58 106 17 58 105 17 57 105 18 59 105 18 58 107 17 58 107 17 58
105 17 56 104 18 55 105 18 56 105 18 56 104 18 55 105 17 56 105 17 56
104 18 56 104 17 55 104 17 55 105 18 56 105 18 56 105 18 56 104 18 55
102 18 56 105 19 55 106 19 55 104 18 54 104 18 54 104 18 53 104 18 53
105 18 54 105 18 55 108 18 58 106 18 57 107 18 55 105 18 54 105 19 55
105 18 55 105 18 56 104 18 55 104 17 55 104 17 56 104 17 55 105 18 55
104 17 56 104 17 56 105 17 57 105 17 56 105 17 56 104 17 56 104 17 55
105 18 56 105 17 55 105 17 56 102 18 56 104 19 55 106 19 55 105 18 54
105 18 54 104 18 53 104 18 54 104 17 56 105 18 56 105 17 56 105 18 56
105 18 56 105 17 56 105 17 56 104 17 56 106 19 57 105 17 56 105 18 57
106 18 58 105 18 57 104 17 56 104 17 56 105 18 57 104 18 54 105 18 54
104 18 54 104 18 54 104 18 53 104 18 54 105 19 54 106 18 55 109 19 59
105 18 57 105 18 57 105 19 55 105 18 54 105 18 57 105 18 57 105 17 56
106 18 57 106 17 58 105 18 57 107 18 59 106 17 58 107 17 59 107 17 58
106 18 58 106 18 58 106 18 57 105 17 58 106 18 58 107 17 58 105 18 57
105 18 57 105 17 58 105 18 58 105 17 58 106 17 57 105 17 58 104 17 58
113 18 58 110 19 56 110 19 56 111 19 56 110 19 56 110 19 56 110 18 56
109 18 56 109 18 56 113 19 58 112 18 58 110 19 58 110 19 57 111 19 59
111 18 57 109 18 55 110 19 55 110 18 55 110 18 55 110 19 55 109 18 56
110 18 56 110 19 55 110 19 55 110 18 55 112 19 56 109 19 55 109 18 55
110 19 55 110 18 55 111 18 55 109 19 55 110 19 55 110 19 55 110 19 55
112 18 56 111 18 55 110 19 55 113 19 57 112 18 56 111 18 56 111 19 56
111 19 56 110 19 56 110 19 56 110 19 55 110 18 55 110 19 56 110 19 56
109 18 55 111 19 57 113 20 58 111 18 56 110 19 55 109 18 56 110 19 56
110 19 55 110 19 55 109 18 55 110 19 56 110 19 56 111 18 55 109 19 55
110 19 55 110 19 55 110 19 55 112 18 55 110 18 55 109 19 56 110 19 57
110 19 56 109 18 55 114 19 58 113 19 57 111 18 57 114 19 58 110 19 57
111 19 57 110 18 56 110 18 55 109 18 55 109 18 55 110 19 57 110 19 55
110 19 55 111 19 55 110 18 55 110 19 55 110 18 55 111 18 55 111 19 56
113 19 57 112 18 56 110 19 56 110 19 55 111 19 56 110 19 57 110 19 56
109 18 54 109 18 56 115 18 58 114 18 58 112 19 59 112 18 58 112 18 57
112 18 57 112 19 59 113 18 58 114 18 60 112 18 59 113 19 58 112 18 57
110 18 56 110 19 57 112 19 57 110 18 56 112 18 58 112 18 57 110 19 57
110 18 58 114 19 55 115 19 56 115 18 56 116 18 56 115 20 56 114 18 57
115 19 57 114 18 56 115 19 55 115 19 55 115 19 56 117 17 57 116 19 57
114 18 57 115 18 56 114 18 56 115 20 57 114 19 56 115 19 54 116 19 54
115 18 56 115 19 56 115 19 56 115 19 56 115 19 54 115 18 56 115 18 57
115 18 56 115 18 56 115 19 54 115 18 56 115 19 54 115 19 54 115 19 54
116 19 56 115 19 56 115 19 56 117 18 56 115 19 56 115 18 56 115 18 56
115 18 56 116 19 56 115 19 56 115 18 56 115 18 56 114 18 56 115 18 56
115 19 56 114 19 55 115 19 56 117 18 57 116 18 56 115 18 56 115 18 56
116 18 56 115 18 56 115 19 57 115 18 56 115 19 56 115 19 54 115 18 56
115 19 54 115 19 54 115 19 54 116 19 56 116 19 56 114 19 55 114 18 56
115 18 55 115 19 56 114 18 56 116 18 56 116 19 56 116 18 56 115 18 55
115 18 56 115 18 56 116 18 56 115 19 57 115 18 56 115 19 54 115 18 56
115 18 56 115 19 54 115 19 54 115 19 54 116 19 56 115 19 55 116 18 56
116 19 56 115 19 56 115 19 56 115 19 56 117 18 56 117 19 56 114 18 56
115 18 57 115 18 57 115 19 56 115 19 57 115 19 56 118 18 58 117 18 57
115 18 56 116 18 57 115 18 57 114 19 56 116 17 57 116 17 57 116 17 56
117 18 57 117 18 57 116 18 56 116 18 57 115 18 57 115 18 57 115 18 56
115 18 56 115 17 56 121 20 55 121 20 54 120 20 54 121 21 55 121 21 55
121 19 56 121 19 56 120 19 56 121 20 56 120 19 56 120 20 56 120 19 55
120 20 56 121 19 57 122 19 57 121 19 56 120 20 56 119 20 55 121 20 54
122 21 54 123 20 55 122 21 55 121 20 54 121 20 55 121 20 54 121 20 54
122 20 57 121 20 56 120 20 54 121 20 54 121 20 54 122 20 56 122 21 55
122 21 54 123 20 55 121 21 55 121 21 53 122 21 55 122 21 56 122 21 55
121 20 55 122 21 55 122 22 56 122 21 55 120 20 55 118 21 54 120 20 56
121 20 56 120 19 55 120 20 54 119 21 54 120 20 54 121 20 56 122 20 57
121 20 56 120 20 56 121 20 56 122 19 57 121 20 56 120 20 54 121 20 54
121 20 54 122 20 56 122 21 55 122 21 54 123 21 55 122 21 54 121 20 55
121 20 57 121 20 56 118 21 54 119 21 54 119 21 54 120 20 55 122 20 56
122 20 56 121 20 54 120 20 56 122 20 57 122 20 57 121 20 54 121 21 54
121 20 54 121 20 54 122 20 56 122 21 55 122 21 53 122 21 55 121 21 54
121 21 53 122 21 55 122 21 55 122 20 55 121 21 55 122 22 55 122 22 56
122 20 57 121 19 56 122 20 57 122 20 57 120 20 56 121 20 56 120 20 56
120 20 56 122 20 57 122 20 57 121 20 57 122 20 57 121 20 57 122 20 57
122 20 57 123 20 58 123 21 58 123 21 58 122 20 57 122 20 57 121 20 57
122 20 57 121 19 57 121 20 57 129 25 58 127 26 57 126 25 57 127 24 56
131 25 59 130 25 58 129 24 57 129 24 58 127 25 58 128 25 59 127 25 58
127 26 58 127 25 57 130 25 58 131 25 58 130 24 58 130 25 59 128 25 58
128 25 58 129 26 58 128 26 56 129 25 57 126 26 57 127 26 58 127 26 56
128 26 58 127 26 58 126 26 58 127 26 58 127 26 56 128 26 58 130 25 58
127 26 55 129 26 57 128 26 57 129 25 57 128 26 56 130 26 57 131 26 58
128 26 58 127 26 58 127 25 55 130 25 59 132 26 59 126 25 57 127 26 58
127 25 58 127 25 58 124 25 55 125 25 56 128 26 58 127 25 57 127 25 58
127 26 58 127 26 58 126 25 55 126 26 57 126 26 57 126 26 58 127 26 58
127 26 56 128 26 58 130 25 58 127 26 55 129 26 57 128 26 56 129 25 58
128 26 58 127 26 58 126 26 57 125 25 56 126 26 57 128 26 58 126 25 58
127 26 58 127 26 58 127 26 57 127 25 56 126 25 57 126 25 57 127 26 57
127 25 55 127 26 55 128 26 58 129 25 56 127 26 56 129 26 56 128 26 58
129 26 56 128 26 56 130 26 57 130 26 59 128 26 58 130 26 57 129 25 57
131 25 59 131 26 59 130 25 58 130 25 58 129 26 59 130 25 59 129 26 58
129 26 59 128 26 58 130 25 58 131 26 59 128 26 59 130 26 59 131 26 59
129 26 58 128 26 58 130 25 58 128 26 58 130 25 59 131 27 59 128 26 58
127 26 58 130 26 58 128 26 58 128 26 58 136 32 60 135 31 59 134 31 59
133 30 57 135 31 59 135 31 59 135 31 59 135 31 60 135 31 61 134 30 59
135 31 61 136 31 62 134 30 60 135 31 59 136 31 61 135 30 61 136 30 61
136 31 61 136 31 62 136 31 60 135 31 59 135 30 59 135 31 59 135 31 59
135 31 59 136 31 59 134 30 59 135 30 59 135 31 59 135 31 59 136 31 59
135 31 59 135 31 59 136 31 60 135 31 59 136 31 60 136 31 60 137 32 60
136 32 60 134 30 59 135 31 59 134 30 58 136 31 60 135 31 59 134 30 59
134 30 59 134 31 59 134 30 58 134 30 58 135 30 59 134 30 58 134 30 58
134 30 58 134 30 58 135 30 59 135 31 59 134 31 59 134 30 59 135 31 59
135 31 59 135 31 59 136 31 59 135 31 59 135 31 59 136 31 60 136 31 59
136 31 59 135 31 59 134 31 59 133 30 58 134 30 58 135 30 59 134 30 59
134 30 58 134 30 58 135 31 59 135 31 59 135 30 59 134 30 58 134 30 58
135 30 59 135 30 59 135 31 59 136 31 60 135 30 58 135 31 59 136 31 59
135 31 59 136 31 60 136 31 59 135 32 60 138 33 61 135 31 59 136 31 59
134 30 58 135 31 59 136 31 60 135 32 60 136 32 60 136 31 61 135 31 60
137 32 60 137 32 61 136 31 60 136 31 60 137 32 62 137 32 63 137 32 62
137 32 61 136 31 59 136 31 60 135 31 59 135 31 59 135 31 59 136 31 59
135 31 59 135 31 59 136 31 60 136 31 61 135 31 61 141 37 61 140 36 60
139 36 60 139 36 60 139 36 59 139 36 59 139 36 60 142 38 62 141 36 61
140 37 60 140 37 61 139 36 62 140 36 62 140 36 62 140 36 63 140 36 62
140 37 63 140 36 60 140 36 60 140 36 60 141 37 61 140 37 61 140 37 61
140 37 61 141 37 61 140 37 60 140 36 60 139 36 59 141 37 61 140 37 61
140 36 60 140 37 61 141 37 61 140 37 61 140 36 60 140 37 60 140 37 61
140 37 61 140 37 60 140 37 61 140 36 61 140 37 61 141 37 61 140 37 61
140 36 60 140 37 60 139 37 60 139 37 60 140 37 61 140 37 61 139 36 60
140 37 60 140 37 60 141 37 61 140 36 60 140 36 60 141 37 61 140 36 60
139 36 59 141 37 61 140 37 61 140 36 60 140 37 61 140 37 61 141 37 61
140 37 61 140 37 61 140 37 61 140 36 61 145 38 63 143 38 63 139 37 60
139 36 60 139 37 60 140 37 61 141 37 61 139 37 61 140 37 61 142 37 62
139 35 59 139 36 60 141 37 61 140 37 61 140 37 60 140 37 61 141 37 61
140 37 61 140 36 60 140 37 61 141 37 61 141 37 61 141 37 62 141 37 61
140 36 60 140 36 60 140 36 60 140 36 60 140 37 61 143 38 62 141 36 61
140 37 60 140 37 61 140 37 61 141 37 63 140 37 61 140 36 62 141 38 64
142 38 63 141 37 61 140 37 61 140 37 61 140 37 61 140 37 61 141 37 61
140 37 61 140 37 61 140 37 61 141 37 63 141 37 62 141 37 63 146 41 65
145 41 65 143 40 62 144 40 62 145 40 62 146 41 63 147 41 65 145 40 64
146 41 64 147 41 66 145 41 64 145 40 62 146 40 65 146 41 66 146 41 65
146 41 65 145 40 64 146 41 63 147 41 65 144 41 64 146 41 63 146 41 65
146 41 65 147 41 65 146 41 63 145 41 63 144 40 62 146 41 65 146 41 63
146 41 63 145 41 63 146 42 64 146 42 64 146 41 65 146 41 65 146 41 64
145 42 65 146 41 65 146 41 63 146 41 65 145 41 65 146 41 65 147 41 65
146 41 65 146 41 65 146 41 65 146 41 65 146 41 63 145 42 63 145 41 63
146 41 65 146 41 65 146 41 65 145 41 65 146 41 65 147 41 66 146 41 65
144 40 62 146 41 65 146 41 63 146 41 63 145 41 63 146 41 65 146 41 65
145 41 65 146 41 65 146 41 65 146 41 65 146 41 65 151 43 68 150 42 67
145 41 65 146 41 65 146 41 64 146 41 65 145 41 65 146 41 65 147 42 66
146 41 64 144 40 62 146 42 65 145 42 63 145 41 63 146 41 63 146 41 65
146 42 64 146 41 65 146 41 64 146 42 64 148 42 66 147 42 66 146 42 65
146 42 63 146 41 62 144 41 62 145 41 63 147 42 64 147 41 65 145 41 63
146 42 64 148 42 66 147 42 66 146 41 65 146 41 65 146 41 65 145 41 65
147 42 66 147 42 66 146 41 65 146 42 66 147 42 66 146 41 65 146 41 65
146 41 65 146 41 65 147 41 65 146 41 65 146 41 65 145 41 65 145 41 65
153 46 66 153 46 66 152 45 65 152 45 63 153 46 64 153 46 64 151 45 63
151 45 62 153 46 66 152 46 66 152 46 64 152 46 64 153 45 66 152 46 66
153 46 66 153 45 66 152 45 64 153 46 63 151 45 63 151 45 62 152 45 65
152 45 66 153 45 66 153 46 66 152 46 64 152 46 64 152 46 64 153 46 65
153 46 64 152 45 63 153 46 65 153 46 65 154 46 66 155 46 67 153 46 66
153 47 66 153 46 65 155 45 66 153 46 66 153 46 67 153 46 67 152 45 65
153 46 65 155 45 66 155 45 67 155 45 67 154 46 67 153 46 66 152 46 64
153 46 66 153 46 67 153 47 67 153 46 65 153 47 65 155 45 67 154 46 67
151 45 64 152 46 64 153 46 66 153 46 64 152 45 63 153 46 64 153 46 67
153 46 66 152 46 66 153 46 66 153 46 66 152 45 65 153 46 65 152 46 65
151 46 64 153 46 65 154 47 67 153 46 66 153 46 66 153 46 65 155 45 66
153 46 66 152 46 64 153 46 66 153 46 66 152 46 64 152 46 63 153 46 64
153 46 66 154 46 66 154 46 66 153 46 66 152 46 65 155 47 68 155 47 67
153 47 65 152 46 62 152 46 62 152 46 64 153 46 65 154 46 62 151 45 62
152 46 63 153 46 66 153 46 66 153 46 67 155 46 67 153 46 65 153 46 66
152 45 66 153 46 67 153 46 66 153 45 66 153 46 66 153 46 67 153 46 66
152 45 65 153 46 66 153 46 66 153 46 67 153 46 66 153 46 66 152 45 66
153 46 67 156 48 64 158 50 67 158 49 66 157 49 65 157 49 65 157 49 65
157 49 65 158 49 65 158 50 66 158 50 66 159 50 66 157 49 65 158 50 66
158 50 66 158 50 66 157 49 66 157 49 65 157 49 64 156 48 64 157 49 65
158 50 66 157 49 65 158 50 66 158 50 66 158 49 65 157 49 65 158 50 66
159 51 67 159 51 67 158 50 66 158 50 66 159 51 67 159 51 68 159 51 67
160 51 68 158 50 67 157 49 65 159 51 67 159 51 68 159 51 67 158 50 66
158 50 67 157 49 66 158 49 65 158 50 66 159 51 68 160 51 68 159 51 67
158 50 67 157 49 65 157 49 65 158 50 65 158 50 66 158 49 65 158 49 65
157 49 65 158 49 65 158 50 66 159 51 67 159 51 67 158 50 66 158 50 66
159 51 67 159 51 67 158 50 66 158 50 67 159 51 67 158 50 66 157 49 66
157 49 65 155 47 63 155 47 63 158 50 66 159 51 68 158 49 66 157 49 65
158 49 65 157 49 65 158 50 66 158 50 67 159 51 67 159 51 68 158 50 65
158 50 66 159 51 68 159 51 68 159 51 68 160 51 68 159 51 68 159 51 67
161 51 68 160 52 68 159 51 66 160 50 66 160 49 65 158 50 66 158 51 66
158 50 65 159 49 65 159 51 67 161 51 68 159 51 67 160 52 68 159 51 67
159 50 66 160 51 67 159 51 68 159 50 67 159 51 67 159 51 67 159 51 67
158 50 66 158 50 66 159 51 67 158 50 67 158 50 66 158 49 66 158 50 66
158 50 66 159 50 66 162 52 65 162 53 65 164 55 67 165 55 68 165 55 69
165 55 68 164 55 68 165 55 68 165 55 69 164 55 68 165 55 69 164 54 67
164 54 67 165 55 69 165 55 70 164 54 67 165 54 67 164 54 68 164 54 68
164 54 68 165 55 69 165 55 69 166 56 70 166 56 70 165 55 69 165 55 69
166 55 69 165 55 68 166 56 68 165 55 69 164 54 68 165 55 68 166 56 70
166 56 71 167 56 71 166 55 68 164 54 68 165 56 69 166 55 70 166 56 71
166 56 69 166 56 69 165 55 69 164 54 68 164 54 68 166 56 70 166 56 70
166 56 69 166 56 70 166 56 70 165 55 69 166 55 70 166 55 69 166 56 69
166 56 70 165 55 69 165 55 69 166 55 69 165 55 68 166 56 68 165 55 69
165 54 68 166 55 70 166 56 69 166 56 70 165 55 68 165 55 69 164 53 67
164 54 67 164 54 68 164 53 67 163 53 67 162 53 66 164 54 67 165 56 69
166 56 70 165 56 70 165 55 69 166 55 70 166 55 69 165 55 68 166 55 68
165 54 68 165 54 68 165 56 68 166 56 70 166 56 70 166 56 70 167 57 70
166 56 69 166 55 70 167 56 69 167 56 70 166 55 69 165 55 69 165 55 68
166 55 68 166 55 69 166 55 69 166 56 69 167 56 70 167 56 70 167 56 71
166 56 70 166 55 70 166 55 71 166 56 70 165 55 69 166 55 70 166 55 70
166 56 69 166 56 69 164 54 69 164 54 68 164 54 67 165 55 68 165 55 68
165 55 68 165 55 68 165 55 69 172 57 69 171 57 68 171 56 66 173 58 70
174 59 73 174 59 73 173 58 72 173 59 72 173 58 70 173 58 70 173 58 72
172 58 69 172 57 68 173 58 70 173 58 73 172 57 69 173 58 69 172 58 70
172 58 69 172 58 69 172 57 69 173 58 70 174 59 72 175 60 72 174 60 72
174 59 71 174 60 72 173 59 70 174 60 70 174 59 70 173 58 70 173 58 69
174 59 71 173 59 70 173 59 70 174 59 71 173 58 70 173 58 70 173 59 70
173 59 71 173 58 69 172 58 69 173 58 70 172 57 69 172 58 69 173 59 70
174 59 71 173 58 69 174 60 71 174 60 72 174 59 72 174 60 71 174 60 71
174 59 71 175 60 73 175 60 72 174 59 71 174 60 72 173 59 70 174 60 70
174 59 70 173 58 70 173 58 70 173 58 70 172 58 69 172 58 70 173 58 70
171 57 68 171 57 68 173 58 70 172 57 69 172 58 70 173 58 70 171 57 68
172 58 69 174 60 71 174 60 72 174 59 72 174 60 71 174 60 70 174 59 70
174 59 71 173 59 70 173 58 69 173 59 70 174 59 71 174 59 70 173 59 71
174 60 71 173 59 70 172 58 69 173 58 70 172 58 69 174 59 71 173 59 71
173 58 70 172 58 69 173 58 70 173 59 70 173 59 71 174 60 71 174 59 71
173 59 70 173 59 70 173 59 70 174 59 71 173 59 70 173 58 70 173 59 70
173 59 70 173 59 70 174 60 71 174 59 71 174 59 71 174 59 71 173 59 71
173 59 71 172 58 70 173 59 70 172 59 70 178 62 71 178 62 72 178 62 72
178 62 72 179 62 73 176 62 71 177 62 71 177 62 72 178 63 72 180 63 73
180 63 73 179 63 73 179 62 72 179 62 71 179 63 73 178 62 72 179 63 71
178 62 70 179 63 70 179 63 71 179 62 70 179 63 71 179 63 71 180 64 71
181 64 72 181 64 72 181 64 72 181 64 72 180 64 73 180 64 73 180 64 72
180 63 71 180 63 71 181 64 71 181 65 73 180 64 72 180 64 72 180 63 71
180 64 72 179 62 72 180 62 72 179 62 70 179 63 70 179 63 70 179 63 71
180 63 72 180 63 71 179 63 71 179 63 71 179 62 70 179 63 70 180 64 72
179 64 71 179 63 71 180 63 70 179 63 70 180 63 72 181 64 72 181 64 73
180 64 73 180 64 73 180 64 72 179 62 70 180 63 71 179 62 70 179 63 70
179 63 71 179 62 70 178 62 70 180 63 73 179 62 70 179 63 70 179 63 71
179 63 71 179 63 71 179 63 71 179 62 70 179 63 70 180 64 72 181 64 72
181 64 73 180 64 73 180 64 73 180 64 72 180 63 71 179 63 71 180 64 73
181 64 72 180 64 71 179 62 70 179 63 71 180 63 71 179 63 71 178 62 70
178 62 68 178 62 70 178 63 71 179 65 71 180 64 71 180 64 71 179 64 71
180 63 71 180 63 71 180 64 72 180 64 71 180 63 71 180 63 71 179 62 70
179 63 71 179 63 71 179 63 71 178 62 70 179 62 70 180 62 70 179 62 70
178 61 69 178 62 70 178 62 70 178 61 70 177 61 69 186 67 73 185 67 72
186 68 74 186 67 74 185 67 71 184 66 70 183 66 70 184 66 72 183 66 70
185 67 73 184 67 71 184 67 70 186 67 72 186 68 72 186 68 71 186 68 72
187 67 71 187 68 72 188 69 74 186 68 74 186 68 72 186 68 72 186 69 72
186 68 72 187 68 72 187 68 73 186 66 73 185 66 73 186 67 71 187 67 71
187 67 71 187 67 72 186 67 71 185 66 70 187 66 71 187 67 71 187 67 71
185 66 70 186 66 70 187 67 72 187 67 72 188 68 72 187 68 74 186 68 72
186 68 72 187 68 74 186 68 72 186 69 72 186 68 72 186 67 71 184 66 70
184 66 70 185 68 72 186 69 72 186 68 72 184 67 70 184 66 70 185 66 71
185 66 71 186 67 71 186 66 71 187 67 71 187 68 72 187 68 72 188 68 74
187 68 74 186 68 72 187 68 72 187 68 72 187 68 72 188 68 72 187 68 74
186 68 72 186 68 72 186 69 73 186 68 72 186 67 71 184 66 70 184 66 70
185 67 71 185 66 71 185 66 71 186 66 71 187 67 71 188 68 72 187 66 71
186 66 71 187 67 72 187 67 71 187 67 71 189 67 70 188 66 69 188 66 71
187 65 70 186 63 67 185 64 66 187 63 70 190 63 71 191 68 70 189 63 68
187 63 69 187 66 68 187 65 70 187 65 70 188 66 69 187 65 70 187 65 70
186 64 69 186 64 69 186 64 69 186 63 69 185 62 68 185 63 68 185 62 68
184 62 67 184 61 67 184 62 66 185 62 67 184 61 67 184 61 66 195 73 76
195 73 74 194 72 75 193 72 72 193 72 72 193 72 72 193 71 71 192 70 70
192 70 70 191 70 70 191 69 69 192 67 68 193 72 72 195 74 74 195 73 73
194 73 73 193 73 73 194 74 74 195 73 75 195 73 74 195 73 74 195 73 74
194 72 72 194 72 73 193 72 73 193 72 72 192 71 71 192 71 70 193 70 70
193 69 69 192 68 69 193 69 69 192 69 70 192 69 69 192 68 68 193 69 70
193 69 69 191 70 70 192 68 68 192 73 72 193 74 73 193 74 74 195 74 75
195 73 74 194 73 73 195 73 74 195 73 74 194 73 74 194 72 72 194 73 73
194 72 73 193 71 71 193 71 71 194 72 72 193 72 73 194 72 73 193 71 71
192 71 70 192 71 71 192 70 70 192 68 68 192 69 70 192 74 74 193 74 73
194 74 74 195 74 75 195 73 74 194 73 73 192 74 73 193 74 73 194 74 74
195 74 74 195 73 74 194 73 74 195 73 73 194 72 72 194 73 73 194 72 73
192 71 71 192 70 70 192 71 70 192 70 70 192 68 68 192 68 69 193 69 69
192 68 69 193 68 70 193 69 70 193 69 70 193 69 70 193 68 69 194 68 70
194 68 70 194 67 69 194 68 70 195 65 67 205 83 70 226 136 89
234 153 96 227 136 90 206 86 74 195 64 67 193 67 69 192 66 68
193 67 69 195 67 69 194 66 69 194 66 68 194 66 69 194 66 69 192 66 67
192 66 68 192 66 68 193 67 69 193 67 69 192 66 68 193 66 69 192 66 68
193 66 69 192 66 70 201 75 72 200 74 74 200 74 73 199 73 70 199 73 70
199 74 73 200 72 71 201 70 70 199 71 70 201 71 70 201 71 70 202 71 71
201 75 72 201 75 72 200 74 71 200 76 72 200 77 73 199 74 71 200 74 71
201 75 72 202 74 72 201 73 71 200 73 71 201 73 71 201 73 71 201 71 69
201 71 69 201 71 69 202 71 70 202 71 70 201 71 70 202 71 70 201 71 69
201 71 70 201 71 69 201 71 70 201 71 70 202 71 70 201 72 71 200 77 73
199 76 72 199 74 71 201 75 72 201 75 72 202 74 71 201 75 72 200 75 72
201 73 73 201 73 71 201 73 72 201 73 73 201 71 69 201 71 69 200 72 70
201 73 71 201 73 73 201 71 70 201 71 69 201 71 70 202 71 70 202 71 70
200 74 71 199 77 73 199 76 72 200 74 71 201 75 72 200 74 73 199 75 72
199 77 73 199 76 72 199 74 70 201 75 72 201 75 72 201 75 72 201 73 71
199 73 70 201 73 73 201 72 73 201 71 69 201 71 70 202 71 70 201 72 70
202 71 70 201 71 69 202 71 70 201 70 69 200 71 69 201 71 69 201 70 70
201 71 69 201 71 69 202 71 70 202 71 69 201 70 69 201 69 69 210 88 73
240 170 99 247 181 100 246 177 99 247 184 102 240 171 98 211 89 74
200 67 68 200 70 69 201 71 69 200 69 68 202 70 69 201 71 69 201 69 71
200 68 69 199 68 67 199 68 69 200 69 70 200 69 70 200 69 70 200 68 70
200 69 70 199 68 70 199 68 69 199 68 69 205 75 69 205 75 69 207 75 70
206 76 71 206 76 71 207 75 70 207 74 71 206 75 71 206 75 71 207 74 70
207 74 70 206 74 69 207 75 70 207 74 70 206 75 69 206 76 70 208 77 72
207 75 69 207 75 70 207 75 70 207 74 69 208 75 71 207 76 71 208 75 71
206 74 69 207 75 69 208 76 71 208 75 71 207 75 70 208 75 70 208 75 70
208 76 71 208 75 70 207 75 70 207 75 70 208 75 70 208 75 71 208 75 71
208 75 71 207 77 72 207 77 72 207 75 69 207 75 70 206 75 69 207 75 70
207 74 69 207 75 69 208 75 71 208 76 71 207 75 70 207 75 70 208 75 70
208 75 71 207 76 71 207 75 71 207 75 70 208 75 70 208 75 71 208 75 71
207 74 69 208 75 70 207 76 72 208 77 73 207 76 71 207 74 69 206 75 70
206 75 69 206 76 71 208 77 71 207 77 71 207 75 69 207 75 70 206 75 70
207 75 69 208 76 71 207 77 72 207 75 71 207 75 70 208 75 70 208 75 71
208 75 71 207 74 70 207 74 70 208 75 70 207 75 70 207 75 70 206 74 69
207 74 70 207 74 70 208 75 71 207 75 70 207 75 70 207 74 70 207 75 70
208 71 68 231 137 87 245 184 103 242 171 100 243 172 98 241 168 96
246 184 103 230 139 89 207 71 68 207 72 68 208 72 69 207 73 69
208 71 68 207 73 69 206 74 70 207 73 69 207 73 69 206 74 69 207 73 69
206 73 69 207 73 69 207 72 69 207 73 71 206 73 71 207 73 71 207 72 69
213 78 70 213 77 69 214 78 70 214 78 72 214 78 72 215 78 72 215 79 73
215 78 73 215 78 72 215 78 72 214 78 72 214 78 70 215 79 71 214 78 70
214 78 70 215 79 71 214 78 71 214 78 71 215 79 71 214 78 71 214 78 70
215 79 71 215 80 72 215 79 71 214 78 70 214 78 71 215 79 71 214 79 70
215 80 71 215 79 71 215 79 71 215 79 71 215 79 73 215 79 73 215 80 72
215 79 71 215 79 73 215 79 71 215 79 70 215 79 71 215 79 71 214 78 70
214 78 70 215 79 71 215 79 71 214 78 71 214 78 70 215 79 71 215 79 70
215 79 71 215 79 73 215 79 71 215 79 73 215 79 73 215 79 71 215 79 71
215 79 71 215 79 73 215 79 71 214 78 70 214 78 70 215 79 71 215 79 71
215 79 70 214 79 70 214 79 71 213 78 70 215 79 71 215 79 71 214 78 70
214 78 71 214 79 70 214 78 70 214 78 70 215 79 71 215 79 71 215 79 71
215 79 73 215 79 71 215 79 73 215 79 73 215 79 73 215 79 72 216 79 71
215 79 71 215 78 72 215 78 70 215 79 71 214 78 72 215 78 72 215 78 73
215 79 73 215 79 73 215 78 72 216 78 70 239 153 92 245 179 101
243 174 99 243 175 100 241 171 97 244 176 99 237 151 92 216 78 68
215 77 70 213 77 70 214 77 70 214 76 69 214 75 69 214 75 69 214 78 72
214 78 72 215 78 72 215 79 73 215 79 73 215 78 72 214 77 72 214 78 72
214 78 73 215 78 73 214 78 72 221 83 70 222 82 70 222 81 70 221 81 70
221 82 70 222 83 71 221 83 72 222 82 72 221 81 73 222 82 71 222 82 70
223 83 72 223 83 71 223 82 71 223 82 71 222 82 70 222 82 71 223 83 71
223 83 72 223 83 71 222 82 71 222 82 71 222 84 72 223 83 71 223 83 71
223 82 71 222 82 70 222 82 71 222 83 71 221 83 72 223 82 73 223 82 73
223 82 73 222 83 72 221 83 73 221 83 73 223 83 74 222 84 74 222 83 71
222 82 70 222 82 71 222 82 71 222 82 70 223 83 71 223 83 72 223 83 71
223 83 72 222 82 70 222 82 71 222 82 71 223 82 72 223 83 72 223 82 72
223 83 73 222 83 71 222 83 72 222 83 71 223 83 72 223 83 71 223 82 71
222 82 71 222 81 70 222 82 70 222 83 72 222 83 73 223 82 71 223 83 71
222 82 71 222 82 71 222 82 71 224 84 72 223 83 71 223 82 71 222 82 71
223 81 70 222 82 71 222 82 71 223 83 72 223 82 72 223 82 72 223 82 73
223 83 73 223 83 71 221 83 73 222 83 73 222 83 74 222 83 74 222 82 71
222 82 71 222 82 71 222 82 72 222 82 71 223 83 71 223 83 72 222 80 71
235 140 89 246 183 103 244 171 99 241 172 97 241 167 94 243 180 100
235 141 89 223 79 68 222 83 71 221 82 71 222 82 70 222 81 71
221 81 71 221 80 71 222 80 69 221 82 73 222 82 74 223 82 73 222 82 73
222 82 75 222 82 73 222 81 75 221 83 75 222 82 75 222 81 75 230 87 72
231 87 74 231 86 72 229 84 70 230 85 71 231 86 74 231 87 74 231 86 74
231 86 74 231 87 73 231 87 72 232 87 74 232 87 73 233 87 73 232 88 73
231 86 72 231 86 72 232 87 74 231 87 73 232 87 73 232 88 73 231 87 73
231 88 73 231 87 72 234 87 74 232 87 72 230 85 70 231 86 72 231 87 73
231 87 73 233 87 76 232 87 75 232 87 73 232 88 75 232 87 74 232 87 73
231 87 71 231 87 72 232 88 74 231 86 72 231 86 72 231 86 72 230 86 72
232 87 74 231 87 73 232 87 73 232 88 73 231 86 71 230 86 71 231 87 72
231 87 73 231 87 73 233 87 75 232 87 73 232 87 73 231 86 72 231 86 72
232 88 74 231 87 73 233 87 74 232 87 72 231 85 71 231 86 72 231 86 72
231 87 73 232 87 75 233 87 73 231 86 71 231 86 72 230 86 72 232 88 74
231 87 73 233 87 73 232 88 73 231 85 70 231 86 71 231 87 73 231 87 72
233 86 75 233 87 75 232 87 73 232 88 74 232 87 73 232 87 73 232 87 72
231 86 72 232 88 75 232 87 73 231 86 71 231 87 72 231 86 72 231 86 72
231 86 72 231 87 72 233 86 73 234 102 77 241 168 96 244 182 101
243 177 99 242 179 99 242 167 95 233 103 77 232 86 73 231 87 72
231 86 72 231 86 72 231 86 74 231 86 75 232 87 75 231 84 70 231 84 70
231 86 73 232 88 76 232 86 74 231 87 75 232 87 75 233 86 75 232 86 74
232 87 75 232 87 75 241 90 75 240 92 75 240 91 75 240 90 74 243 91 76
243 92 76 241 92 76 241 92 75 242 91 74 242 91 74 242 91 74 242 89 74
242 90 74 242 91 74 241 92 75 242 91 75 242 91 74 242 89 73 241 90 74
242 90 74 243 91 75 242 90 74 242 90 74 241 90 74 242 91 75 242 91 75
241 90 74 243 92 76 242 93 76 243 92 76 243 92 76 239 92 75 241 90 73
242 91 75 242 90 74 241 91 74 241 93 75 241 91 75 242 91 75 241 92 76
241 92 76 242 91 75 242 91 74 243 89 74 241 90 74 242 91 74 241 92 75
241 91 74 242 91 75 241 93 76 240 93 76 241 93 76 242 91 76 242 90 75
241 90 74 241 91 74 241 90 74 241 90 73 242 90 74 242 91 75 242 91 75
241 90 75 242 91 76 242 93 76 243 92 76 242 93 76 242 92 76 242 91 74
241 91 74 242 91 74 242 89 74 242 90 74 242 91 74 243 91 75 241 91 74
242 91 75 242 93 77 243 92 76 242 93 76 242 92 76 241 90 75 242 90 74
242 90 74 242 91 74 241 93 75 241 91 74 242 91 75 241 91 75 241 92 75
241 93 76 241 92 76 241 92 75 243 91 76 242 92 75 241 93 76 242 92 76
241 107 78 243 142 88 244 153 91 242 142 87 241 105 78 241 90 74
241 93 76 242 92 75 241 92 75 241 91 74 240 92 74 241 93 75 242 91 74
241 92 74 241 92 74 240 89 73 241 89 72 242 92 75 241 94 77 242 93 78
241 92 79 242 92 77 243 91 75 243 92 75 241 92 73 242 93 75 242 94 77
241 93 76 242 94 76 241 97 77 242 97 79 242 96 78 242 96 77 242 94 74
243 93 74 241 93 73 241 93 73 241 93 73 242 94 77 242 94 77 243 93 74
241 93 73 242 93 74 241 93 74 241 93 75 241 94 74 241 93 73 242 93 74
241 93 75 241 95 78 241 94 76 241 95 76 241 98 78 241 98 79 240 97 78
241 97 77 242 93 74 242 93 73 242 94 74 241 94 74 242 96 78 241 96 78
241 94 76 242 95 77 242 96 78 241 95 75 242 94 74 241 93 73 242 93 74
241 93 73 242 94 77 241 94 77 241 93 76 242 96 77 241 98 79 240 97 78
241 97 78 242 94 76 242 93 73 241 94 74 241 94 74 241 93 73 242 94 74
241 93 74 242 94 77 242 94 77 241 94 76 240 97 77 241 98 79 241 97 78
242 96 77 242 94 75 241 94 74 242 94 74 241 93 73 241 93 73 241 93 73
243 94 77 242 94 77 240 93 75 242 96 77 241 98 79 241 98 78 242 97 78
242 94 76 242 93 73 242 95 74 242 94 74 241 96 78 242 97 78 241 95 75
242 94 76 241 96 77 242 97 78 242 97 79 240 97 79 242 96 78 242 96 78
241 96 78 242 97 79 242 95 76 242 94 74 242 96 75 241 94 74 241 95 75
242 95 77 241 96 78 242 97 78 241 96 78 241 95 76 242 96 74 244 99 77
244 99 77 243 98 77 242 98 79 242 96 77 242 93 75 242 92 73 241 94 75
241 97 77 242 97 78 241 95 77 243 94 76 242 96 77 241 98 74 240 98 74
241 99 75 242 98 73 241 98 74 240 99 76 241 99 76 241 99 75 241 99 74
241 98 74 242 97 74 242 98 75 242 98 74 240 97 74 241 98 74 242 98 74
243 97 74 242 98 75 242 98 74 242 98 75 242 98 75 242 98 74 242 98 74
241 98 75 240 98 74 241 99 75 242 98 74 242 99 75 241 100 76
241 100 75 241 99 75 242 99 75 242 99 77 242 100 76 242 99 75
240 98 74 241 98 74 241 98 74 240 97 73 241 96 73 242 97 73 241 98 74
242 98 74 242 98 74 242 98 75 241 98 74 241 99 74 242 99 75 242 98 74
242 99 77 241 100 75 241 99 75 241 99 75 242 99 77 242 99 75
242 97 74 243 98 74 242 98 75 242 98 74 241 98 74 241 99 75 243 98 74
243 99 75 241 100 76 241 99 75 241 100 75 241 99 75 241 99 75
242 98 74 242 98 74 242 98 74 242 98 74 240 97 74 241 99 75 241 98 74
242 97 74 242 100 75 241 99 75 241 99 76 242 99 75 242 99 77
241 99 77 242 100 76 241 98 74 241 98 74 241 98 74 240 97 73
241 97 73 242 97 73 242 97 73 242 97 74 242 98 74 242 98 74 242 98 74
242 98 74 242 98 74 241 98 74 241 99 75 242 99 75 242 99 75 242 99 75
241 99 75 241 99 75 242 100 78 242 99 76 243 106 78 238 120 75
231 131 75 231 134 74 234 129 74 242 113 80 242 103 79 243 100 79
242 100 78 241 97 76 241 96 76 242 99 78 243 101 81 243 101 79
242 100 78 243 102 77 242 103 77 244 104 78 244 101 76 242 104 79
242 104 79 242 100 76 243 102 77 242 104 79 242 104 79 243 101 76
243 100 76 243 101 76 242 102 77 243 103 78 243 102 77 243 101 76
243 101 76 243 101 76 243 101 76 243 101 77 243 101 77 243 101 76
244 102 77 243 103 78 243 104 78 243 102 77 242 105 79 243 105 79
243 101 77 242 103 78 242 105 79 243 106 80 242 105 79 242 104 79
242 102 76 243 103 77 242 105 79 243 101 77 243 101 76 243 101 77
243 101 76 243 101 77 243 101 76 243 101 76 243 103 77 242 104 78
244 103 78 242 103 78 242 106 80 243 103 78 242 102 77 242 104 78
242 106 80 242 104 79 243 101 76 243 101 77 243 101 76 244 101 76
243 104 78 243 105 79 243 102 77 242 104 79 243 105 80 243 101 76
243 102 78 242 105 79 241 104 78 243 100 76 243 101 77 243 101 76
243 101 76 243 103 78 242 104 78 243 103 78 242 104 78 243 106 80
242 102 77 243 102 77 242 104 79 242 105 80 243 105 80 243 104 79
242 102 77 244 101 76 242 105 78 243 102 77 243 101 76 243 100 76
243 101 77 242 100 76 243 100 76 243 100 75 243 100 76 243 100 76
243 100 76 243 101 76 242 103 77 242 103 77 243 103 78 243 102 77
243 100 76 242 100 75 242 102 77 244 110 80 236 133 78 226 150 73
226 150 76 226 150 76 225 151 76 228 144 73 242 119 80 243 106 81
242 105 79 242 105 81 243 103 78 242 103 78 243 104 79 243 104 81
243 105 81 242 107 80 241 108 81 242 108 81 242 109 82 242 109 82
242 107 80 243 106 80 242 107 80 242 108 81 243 108 81 242 107 80
242 106 78 243 105 79 242 108 81 243 107 81 243 108 82 242 109 82
241 108 81 242 107 80 242 106 78 241 108 81 241 108 81 242 105 78
243 107 80 242 109 81 242 108 81 243 110 82 242 109 82 241 108 81
242 107 81 242 108 81 242 109 81 243 108 81 242 108 81 241 108 80
241 107 78 243 105 77 243 106 78 241 106 78 243 106 78 243 107 80
242 106 80 241 108 81 242 107 78 242 106 78 241 109 82 241 108 81
241 109 81 243 110 82 241 108 81 242 107 80 242 108 81 241 108 81
242 108 81 242 106 80 242 107 80 241 108 81 241 106 78 242 107 80
242 109 82 241 109 81 242 109 82 242 110 82 241 108 81 242 107 80
241 108 81 241 109 81 243 107 81 242 107 80 241 108 81 242 106 78
242 106 80 241 109 81 241 108 81 242 109 82 243 110 83 241 108 81
243 107 81 242 108 81 241 108 81 242 108 81 241 108 80 242 108 81
242 107 78 243 106 78 242 106 78 242 106 78 243 106 78 242 107 80
241 107 78 242 107 80 242 107 79 243 106 78 243 105 77 243 106 78
242 105 77 243 106 78 243 106 78 243 105 77 244 106 79 243 107 80
243 106 78 243 106 77 244 106 78 240 124 80 224 146 72 228 150 78
228 151 79 228 151 79 230 152 81 226 151 77 230 141 74 245 117 84
243 110 83 243 109 82 242 109 81 242 108 81 242 107 80 242 107 80
241 108 81 243 111 81 243 110 81 243 110 81 244 111 82 244 111 82
243 111 81 243 111 81 242 110 80 243 110 80 243 110 81 244 110 81
244 110 81 242 110 81 244 110 81 243 110 80 243 111 82 242 112 82
243 111 81 243 110 81 243 111 81 243 110 80 243 111 81 243 110 81
243 111 82 243 110 80 242 111 81 243 112 82 243 111 82 243 111 81
244 112 82 243 110 80 243 110 81 243 111 81 243 110 80 244 110 80
243 110 80 243 108 79 243 108 79 243 109 80 242 108 79 243 108 79
243 110 80 243 111 81 244 111 81 243 111 81 244 110 81 243 110 81
243 112 82 243 112 82 243 111 81 244 111 82 244 111 81 243 110 82
243 115 85 243 109 79 244 110 81 244 111 81 243 110 81 243 111 82
244 110 81 243 111 81 243 112 82 243 111 81 243 111 81 244 112 82
243 110 80 243 113 85 244 112 82 243 109 79 243 111 81 243 111 81
242 111 81 244 110 81 243 111 81 243 112 82 244 111 82 243 111 82
243 111 81 244 110 80 243 112 83 244 114 83 243 110 79 243 110 80
243 110 80 242 109 79 242 108 78 243 108 79 243 109 80 242 108 79
242 109 79 243 109 79 242 108 79 242 109 80 243 109 80 243 109 80
243 110 80 243 109 79 243 108 79 242 109 79 242 109 79 242 109 79
242 108 79 242 108 79 244 112 81 234 135 76 224 148 75 228 151 80
228 154 81 228 154 80 228 155 82 228 153 80 228 148 74 242 127 83
243 112 83 243 113 84 243 111 83 244 111 84 244 111 84 244 112 85
243 111 84 244 111 81 244 111 82 243 115 84 244 115 84 243 115 83
243 115 84 242 118 85 243 115 84 244 113 83 243 114 83 243 113 83
244 112 83 244 112 82 244 110 81 244 113 84 243 116 84 243 115 83
243 115 84 243 116 85 243 116 85 243 114 84 243 114 83 243 112 82
244 111 81 244 111 82 244 115 84 243 116 84 243 115 84 243 115 85
243 118 86 244 116 85 244 114 83 243 114 83 242 115 84 243 114 84
245 112 83 245 113 84 244 113 83 244 111 82 243 111 81 244 112 82
244 114 83 243 115 84 244 112 83 244 112 82 244 111 81 244 113 83
244 116 84 243 115 84 243 115 84 244 116 85 244 117 86 245 114 84
244 113 84 243 113 83 243 114 84 243 114 84 244 112 82 244 111 82
244 111 82 244 115 84 244 116 84 243 115 84 243 115 84 243 117 85
243 116 85 244 114 84 244 114 84 244 114 84 243 115 84 244 113 83
244 112 82 244 111 82 244 115 84 243 116 84 243 115 84 244 115 84
243 116 85 244 117 85 244 114 84 244 113 83 244 114 83 243 115 84
245 112 83 245 112 83 244 113 83 244 111 82 243 111 82 244 111 81
245 112 83 243 115 84 243 115 84 243 115 84 243 115 84 243 114 84
243 116 85 244 115 85 244 114 84 244 112 83 244 112 83 244 111 82
244 113 83 243 113 83 245 119 86 234 138 77 223 146 73 228 150 78
229 151 79 229 152 80 229 152 80 228 153 80 227 149 76 243 130 86
244 115 85 243 114 83 243 115 84 244 116 85 244 116 85 244 116 85
244 116 87 244 114 80 244 116 83 243 118 86 243 118 86 243 118 87
243 119 87 244 119 86 244 118 86 244 116 83 243 118 86 243 120 87
243 115 82 244 113 79 244 116 82 244 117 86 244 118 87 243 118 86
243 119 87 244 119 87 243 119 87 244 120 87 243 119 84 243 114 79
243 115 80 243 118 83 243 118 86 244 118 86 244 119 87 243 119 86
243 119 87 243 118 87 244 116 83 244 116 82 243 117 83 243 116 83
244 115 82 244 116 84 243 118 83 243 118 86 244 117 83 244 117 83
244 119 87 244 120 88 243 116 82 243 113 79 244 117 82 243 118 84
243 118 86 243 118 87 243 119 87 244 119 87 244 119 87 244 118 84
244 116 82 244 117 83 243 119 87 243 119 86 243 115 81 244 114 80
243 118 83 243 118 86 244 118 87 243 118 87 243 119 87 244 119 87
243 119 87 244 117 83 243 117 83 243 119 87 243 120 85 243 115 81
244 113 80 244 117 82 243 118 86 244 118 87 244 119 87 243 119 87
244 119 86 244 119 87 244 117 84 243 116 82 244 117 83 243 117 85
243 115 82 244 115 83 244 117 83 242 118 86 243 117 85 243 117 83
243 117 83 243 117 83 244 117 83 244 117 83 244 118 83 244 118 84
243 118 86 243 119 87 244 119 86 244 115 82 244 114 82 244 116 83
244 118 86 244 119 87 247 121 87 240 140 84 222 147 72 228 151 80
229 152 80 229 152 80 229 150 79 224 147 74 228 145 73 245 129 86
243 117 83 244 118 86 244 119 87 245 119 87 244 120 87 244 121 88
243 120 89 244 120 84 245 121 85 243 121 85 244 122 86 245 122 88
244 121 86 246 120 86 244 121 86 245 120 84 244 121 85 244 119 83
244 119 83 244 119 83 245 121 84 245 120 85 244 121 86 246 122 87
245 121 87 245 120 86 244 121 86 244 121 84 244 120 84 244 119 84
245 121 85 245 122 85 244 121 86 245 122 87 245 122 89 244 122 86
245 121 86 244 121 86 245 120 84 245 121 84 245 121 85 244 121 84
245 120 84 245 120 84 244 120 84 244 122 85 245 120 84 244 120 84
244 121 86 244 121 84 245 120 84 244 120 84 246 122 85 244 122 85
244 122 86 245 122 88 245 122 87 245 121 87 246 120 86 245 120 84
245 120 83 246 120 85 245 121 86 244 120 83 244 120 83 244 120 84
245 122 85 244 121 86 244 122 86 245 123 87 244 122 86 245 121 86
244 121 85 245 121 84 245 121 85 244 121 85 244 120 83 244 120 83
244 120 84 246 122 85 244 121 85 244 122 86 245 122 88 245 122 87
245 121 86 246 120 86 246 120 84 245 120 84 246 121 85 244 121 84
244 120 83 245 120 83 245 121 84 244 121 84 245 121 85 244 120 83
244 119 83 244 119 83 244 119 83 244 119 82 244 120 84 244 121 84
245 120 84 244 121 84 243 120 83 243 118 82 244 119 82 244 120 83
245 121 85 244 123 86 244 123 86 247 134 89 232 148 77 223 146 72
227 149 77 227 149 76 224 147 74 222 145 72 239 140 83 245 123 86
245 122 89 244 124 90 243 123 89 244 123 90 245 125 91 244 124 90
245 122 89 246 124 87 246 124 87 246 124 86 245 123 86 245 124 87
246 124 87 246 124 87 244 124 86 245 124 87 245 123 86 245 123 86
245 123 87 246 123 87 246 124 87 246 124 87 245 123 85 246 122 84
245 123 86 246 124 87 246 124 87 245 123 86 246 124 87 246 123 87
246 124 87 246 124 87 245 124 86 245 123 85 244 122 85 244 124 87
244 124 87 246 124 87 246 124 87 246 124 87 245 124 87 244 124 87
244 124 87 246 123 87 246 123 87 244 124 87 245 123 86 245 123 87
245 123 86 245 123 86 246 123 87 245 124 87 246 124 87 246 124 87
246 123 86 246 121 84 245 123 86 244 124 87 245 124 87 245 124 87
245 124 87 244 124 87 245 123 86 246 123 87 246 123 87 245 124 87
246 124 87 246 124 86 245 123 85 246 121 85 246 123 86 244 124 87
246 124 86 246 124 87 246 124 88 245 123 87 245 123 87 246 124 87
246 124 87 246 124 87 246 124 87 245 123 85 245 121 84 245 123 86
244 124 87 247 124 87 246 124 87 246 124 87 245 125 88 244 124 87
244 124 87 245 123 87 244 123 86 244 123 86 245 124 87 246 123 87
245 123 87 245 124 87 245 124 87 245 123 87 244 124 87 245 125 87
244 125 87 245 124 87 245 123 87 244 124 87 245 123 86 244 124 87
244 127 88 244 126 87 244 125 88 244 125 87 246 139 89 237 149 84
228 148 77 227 147 74 230 150 78 243 147 89 246 131 90 244 124 87
245 126 92 245 127 93 245 127 92 245 127 93 245 128 93 244 127 92
245 126 92 244 125 85 244 126 88 244 126 87 244 125 86 245 125 88
244 126 88 244 126 88 244 127 88 245 126 88 244 127 89 244 126 89
244 127 89 244 125 87 244 125 85 244 125 88 244 125 85 245 124 85
244 125 88 246 125 88 244 126 88 244 126 88 244 129 89 244 126 87
244 125 85 244 126 86 244 126 86 245 124 85 244 126 88 244 127 89
244 126 88 245 125 88 245 125 88 244 125 88 244 126 88 245 127 89
245 126 88 244 126 88 244 127 89 244 127 89 244 126 88 244 126 88
244 127 88 243 128 89 244 127 89 244 126 87 244 126 85 243 127 86
244 126 86 244 125 85 245 127 89 244 126 88 244 127 89 245 127 89
244 128 89 244 126 88 244 128 89 244 129 89 244 126 88 245 125 86
244 126 86 244 126 86 245 124 85 245 125 88 245 127 90 245 126 89
245 127 89 245 126 88 245 127 89 244 128 88 244 129 89 245 127 88
245 125 86 244 126 86 244 126 86 244 126 86 245 126 86 243 128 89
245 126 89 245 125 87 245 125 87 244 126 88 244 126 88 244 126 88
245 127 89 244 127 88 244 127 89 244 127 89 244 127 89 244 126 88
245 127 89 245 126 89 245 127 89 244 126 88 244 128 90 245 130 91
244 129 90 244 127 89 244 129 90 245 131 92 246 132 93 246 131 92
245 131 92 245 130 92 245 130 91 244 128 89 245 130 92 246 137 94
247 143 92 247 144 92 248 140 93 246 130 89 245 127 89 245 127 90
245 129 90 246 132 94 246 133 96 246 130 92 246 129 91 245 130 93
246 130 95 244 129 88 244 130 89 245 131 89 244 129 88 245 127 87
244 131 89 245 130 89 245 129 88 245 130 89 245 130 89 245 131 90
246 131 90 245 131 89 245 130 88 245 130 89 245 131 89 245 133 91
245 130 89 244 128 87 245 131 90 245 131 89 245 130 89 245 130 88
244 129 88 245 131 89 245 131 89 245 131 90 245 131 90 246 134 91
245 135 92 245 130 89 244 128 87 245 131 89 246 131 90 245 130 89
246 130 89 245 131 89 245 131 89 246 133 90 245 133 90 246 132 90
246 131 90 246 132 90 244 135 92 245 133 91 244 129 88 245 128 87
246 131 90 245 131 89 245 130 89 245 131 89 244 131 89 246 131 89
245 134 92 245 132 90 246 132 90 245 132 90 246 131 90 244 129 88
245 131 89 244 131 89 245 131 89 246 131 90 246 131 89 245 131 89
245 131 89 246 131 90 246 132 90 245 133 90 245 133 90 246 132 90
244 129 88 245 131 89 243 131 89 245 131 90 244 131 89 245 133 90
245 134 93 245 132 90 244 128 87 244 130 89 246 131 90 245 130 89
244 131 89 245 131 90 245 132 89 245 132 89 246 133 92 246 132 90
246 132 89 245 131 89 245 131 89 246 131 90 246 131 92 245 131 89
246 131 91 246 131 92 246 132 91 245 134 92 245 136 94 246 136 95
246 136 94 244 137 95 244 135 93 245 133 91 245 132 91 245 131 90
246 132 91 245 134 92 246 133 90 245 132 92 246 131 90 245 130 90
246 131 91 246 132 92 246 134 94 246 133 93 247 134 94 246 135 95
245 137 97 246 135 92 246 134 91 246 136 93 245 135 92 245 134 91
245 136 93 246 138 95 245 136 93 245 135 92 245 136 93 245 136 92
245 135 92 245 137 93 245 137 93 246 137 94 245 137 93 245 137 93
246 136 93 245 134 91 245 135 92 246 139 95 247 136 94 246 136 93
245 137 93 245 137 93 246 136 93 245 137 93 247 136 93 247 137 93
246 136 93 245 136 93 245 135 92 246 135 92 246 138 94 245 137 94
246 136 93 245 137 93 246 137 93 247 136 93 246 138 93 245 137 93
245 137 93 246 138 94 247 136 93 244 137 93 245 136 92 245 134 92
245 137 93 246 138 94 245 136 93 246 136 93 245 137 93 245 137 93
245 137 93 246 137 94 245 137 93 245 138 94 245 137 94 245 137 93
246 136 93 245 135 92 246 137 94 246 137 93 245 137 93 245 138 93
245 137 93 245 136 93 245 135 92 244 136 92 246 138 94 247 136 93
245 135 92 246 135 92 245 136 92 245 138 94 245 137 93 247 136 93
246 136 93 245 137 93 244 135 92 246 134 91 246 138 94 246 138 94
245 136 92 244 136 92 245 137 93 245 136 92 245 137 93 246 137 93
246 137 93 245 138 93 245 137 93 245 137 93 245 136 92 245 137 92
245 138 94 245 137 94 246 138 94 245 139 94 247 139 94 247 139 95
246 139 95 245 137 93 247 136 93 246 137 93 246 137 94 246 138 94
247 137 94 245 138 95 247 138 95 246 138 95 246 138 95 246 139 95
246 135 93 246 136 93 246 141 96 246 142 96 247 142 97 247 139 97
247 139 97 246 138 94 247 138 94 246 141 96 246 142 97 246 140 96
245 138 94 246 141 96 247 140 96 246 139 95 245 141 96 247 140 96
247 140 96 246 141 97 247 140 96 247 142 97 247 143 98 246 143 97
246 142 98 247 141 97 246 138 95 246 141 96 246 141 96 247 139 96
246 142 97 246 141 96 246 140 96 246 141 97 245 139 95 248 141 97
247 143 98 246 142 97 246 141 96 246 138 95 246 141 96 246 141 97
247 139 96 246 141 96 246 140 96 246 140 96 246 141 97 246 141 96
247 142 97 247 144 98 247 142 98 246 142 97 246 142 97 246 140 96
247 139 95 246 141 97 247 140 96 246 140 96 246 141 97 245 140 96
246 141 96 246 141 96 246 141 96 247 143 98 247 143 99 247 142 97
247 141 97 247 142 97 246 141 96 246 140 96 247 141 97 247 144 99
247 144 99 247 142 97 246 141 97 247 142 97 247 141 97 247 141 97
246 138 95 246 137 94 246 139 95 246 141 96 246 138 95 246 140 96
246 143 98 246 142 97 247 141 97 247 139 95 246 140 96 246 142 97
247 140 96 246 140 96 246 141 97 245 140 96 246 141 96 246 141 96
246 141 97 247 144 98 247 144 99 246 143 98 247 142 97 247 142 98
246 142 97 247 141 97 246 143 98 246 143 97 247 141 97 247 142 97
246 139 95 246 141 96 248 145 99 248 144 99 246 146 99 247 144 98
246 143 98 246 144 98 247 141 96 247 142 96 245 144 97 246 143 97
246 140 96 245 143 97 246 144 98 246 143 97 246 143 98 247 144 99
247 143 98 246 141 96 247 142 97 247 142 98 247 143 98 247 146 100
246 145 99 245 145 98 247 145 99 246 145 99 246 145 98 246 145 99
246 145 99 247 146 99 247 145 99 246 147 100 247 149 101 247 148 101
248 146 101 248 148 101 247 146 100 247 145 100 247 146 100
246 146 99 246 145 99 247 145 99 247 146 99 247 146 99 247 146 100
247 147 101 247 148 101 247 147 100 247 148 101 246 147 100
246 146 99 247 146 99 247 146 100 246 145 99 247 146 99 247 146 99
247 146 100 247 146 100 247 146 99 247 149 101 247 150 103
248 147 101 247 147 101 248 147 101 246 146 99 246 146 99 248 146 100
246 145 99 247 145 99 247 146 100 247 145 100 247 146 100 247 146 100
246 148 101 247 150 102 247 149 101 247 146 100 247 146 100
248 147 101 247 148 102 247 146 100 247 148 101 247 150 102
246 148 101 248 146 100 248 149 102 247 149 102 247 148 101
247 142 95 246 144 95 247 145 96 246 145 99 244 142 97 242 144 98
242 146 99 245 145 99 248 147 101 248 147 101 247 146 99 246 146 99
247 146 100 246 145 99 246 145 99 247 146 99 246 146 99 247 146 100
247 146 100 247 148 100 247 149 102 247 148 101 248 146 100
247 146 100 248 147 101 247 149 102 247 147 100 248 147 101
246 147 101 246 145 99 247 146 99 247 148 101 247 152 103 249 151 104
248 150 102 247 149 101 248 147 101 247 147 99 247 146 99 247 146 99
247 146 99 247 146 98 248 147 100 247 146 100 248 147 100 247 148 102
246 148 102 247 148 101 248 150 103 246 145 99 247 145 98 248 144 99
247 144 98 246 146 100 247 149 101 247 152 101 247 150 99 248 150 100
248 150 100 248 151 100 248 151 100 248 151 100 248 151 100
248 151 101 247 154 104 248 153 101 248 153 102 248 154 105
248 153 102 248 152 101 248 150 102 248 150 100 246 152 100
248 152 101 247 152 101 247 151 100 248 152 101 247 153 102
247 153 104 247 155 105 247 154 105 248 153 102 247 152 101
247 151 100 248 150 100 246 151 102 248 152 101 248 152 101
247 151 100 249 151 101 248 152 101 247 155 105 248 154 103
248 153 104 248 154 103 248 153 104 247 153 101 246 153 100
248 150 99 248 151 100 247 152 100 248 153 101 247 152 101
248 151 101 248 153 101 248 153 102 248 155 105 248 153 101
249 152 101 248 153 101 248 154 103 247 154 102 248 154 102
248 155 106 247 154 104 247 152 100 247 149 99 247 152 101
248 156 104 247 154 102 247 149 98 248 150 99 247 150 99 246 149 99
255 161 106 255 165 110 255 166 111 255 161 109 245 153 102
248 153 102 247 152 101 247 151 102 247 150 99 247 152 100
247 152 101 248 152 101 247 152 101 248 151 101 248 153 101
248 153 102 248 154 105 248 152 101 248 152 101 248 153 102
248 154 104 247 154 102 248 153 102 248 155 106 248 154 103
248 152 101 247 156 106 247 155 103 247 152 101 249 151 101
248 150 100 248 151 100 243 149 101 244 149 100 249 151 100
247 149 99 247 150 99 247 151 100 247 152 101 247 152 101 248 152 101
249 154 104 248 153 104 248 154 105 248 155 106 248 147 98 248 148 98
248 147 98 247 149 99 247 152 101 247 151 103 247 155 102 247 157 103
247 157 104 248 158 106 249 159 106 249 159 105 249 158 105
248 157 104 248 157 104 249 158 105 247 157 104 248 157 104
248 157 105 248 157 104 247 156 104 248 157 105 248 158 105
248 159 106 248 160 107 249 159 105 249 158 105 249 157 104
249 157 104 249 158 106 249 158 106 248 157 105 248 158 104
247 157 103 248 157 105 249 158 105 248 159 106 249 160 107
249 159 106 249 158 105 248 157 103 248 157 104 249 158 105
248 157 104 248 157 105 248 158 105 249 159 107 248 157 105
248 157 104 248 158 106 248 158 105 247 160 107 249 159 106
249 159 105 248 157 104 248 157 103 249 158 105 249 158 106
248 157 105 248 157 105 247 157 104 249 158 105 249 158 106
248 158 106 248 157 105 248 154 103 247 156 103 248 154 101
248 154 103 248 154 103 247 156 103 248 160 107 245 156 104
249 155 102 255 163 108 182 115 78 124 72 51 128 75 54 196 125 86
255 166 110 246 156 104 245 155 103 248 157 104 248 158 105
248 158 105 249 160 107 249 159 106 249 158 105 248 158 104
249 157 104 250 158 105 249 158 105 247 157 104 247 158 104
247 158 104 247 159 105 248 158 105 248 158 105 248 157 104
249 157 104 249 158 105 249 159 106 248 159 106 248 157 104
247 156 104 247 156 104 248 156 103 243 155 103 244 155 104
249 155 103 247 154 102 248 156 103 248 157 102 248 155 100
247 156 102 248 157 104 248 157 105 248 157 104 249 159 107
250 159 109 248 158 105 248 157 104 249 158 105 249 158 105
249 159 105 248 160 106 248 160 108 249 161 108 249 161 106
249 162 106 249 161 106 249 157 103 248 157 100 248 157 100
249 157 101 249 158 103 248 162 106 249 160 107 249 161 106
248 164 109 248 165 108 248 162 107 250 163 106 250 164 107
249 162 107 249 158 104 248 158 101 248 158 101 249 159 102
250 158 104 249 160 107 248 160 106 248 163 109 249 160 107
247 160 107 248 162 107 249 161 106 248 161 106 249 158 103
248 158 100 248 158 101 248 158 101 249 158 101 248 159 104
248 162 106 248 161 105 249 161 106 250 160 105 248 161 106
249 161 106 249 161 105 249 161 105 248 160 105 249 158 102
248 158 101 248 158 101 248 159 104 249 161 106 248 161 105
249 159 104 249 158 101 249 160 104 250 162 104 249 161 103
248 160 105 250 160 103 249 159 102 249 159 101 248 158 101
250 159 105 249 158 102 247 159 105 255 168 109 255 169 108 111 66 49
14 0 0 16 0 0 16 0 0 17 0 1 137 84 61 255 179 117 255 168 111
246 159 105 246 164 107 249 161 106 249 161 106 249 159 104
248 157 101 247 157 100 250 160 102 244 159 104 244 161 107
251 162 107 247 164 109 247 164 108 248 162 107 248 161 106
248 162 106 247 159 101 248 161 106 247 166 110 248 162 108
248 161 106 248 162 108 248 162 108 248 159 106 255 166 108
202 132 90 201 132 89 255 166 108 247 160 104 249 159 102 249 159 102
249 158 101 249 158 101 250 160 103 248 160 105 249 161 106
249 161 108 248 162 109 250 170 111 249 170 109 248 170 108
248 169 108 249 170 110 248 168 110 248 168 107 249 167 105
248 168 107 249 168 107 250 169 107 251 170 108 251 169 108
250 168 107 249 167 106 248 168 106 249 169 107 248 168 107
248 169 105 249 168 107 250 168 107 248 168 107 248 167 104
248 167 105 248 166 106 249 168 107 250 170 109 248 168 107
247 168 106 249 170 107 249 172 109 250 173 109 249 173 109
249 171 108 248 170 107 248 169 106 249 169 108 250 170 108
250 170 108 250 170 109 249 168 107 249 169 107 249 169 107
249 170 108 250 168 107 249 170 108 250 169 108 249 168 107
250 169 107 249 169 107 249 169 107 250 170 108 250 171 108
250 170 109 249 169 108 249 170 108 250 169 108 250 169 107
249 170 107 250 171 107 250 170 109 249 170 105 250 171 108
251 172 109 250 171 107 250 172 109 251 168 107 251 172 110
250 171 106 249 170 107 249 170 108 252 170 106 216 144 93 136 87 63
11 0 0 33 4 7 35 5 9 35 6 9 26 0 4 21 0 4 130 83 57 200 134 89
255 173 111 249 167 104 249 169 107 250 170 108 250 171 108
250 170 108 246 166 106 255 177 112 162 106 74 124 81 57 255 181 112
249 169 106 251 173 108 251 174 110 251 172 109 247 171 108
247 171 108 249 172 109 249 174 112 249 173 110 248 172 109
249 173 109 248 172 107 246 169 106 255 183 115 181 121 82 181 121 81
255 182 112 246 170 106 248 172 108 249 171 106 249 172 107
247 167 103 249 166 105 251 171 108 250 173 109 250 173 110
250 173 110 249 161 103 247 163 103 247 166 106 248 164 105
247 165 104 248 164 104 246 164 103 247 163 104 247 164 104
245 158 102 239 148 95 237 139 91 235 134 91 232 129 89 231 128 86
231 128 85 231 127 86 232 128 85 235 128 85 233 128 85 231 128 85
235 129 88 234 127 84 232 122 83 231 122 83 231 123 83 235 131 88
238 126 87 237 122 86 240 129 91 240 132 94 222 123 87 245 140 94
246 148 96 246 148 98 245 151 99 243 153 99 239 144 93 236 133 90
233 128 88 231 125 84 232 126 84 231 126 86 237 135 90 236 132 90
237 132 89 233 129 88 230 126 85 236 135 89 238 135 89 243 148 97
242 149 97 238 137 91 235 131 88 231 126 84 234 130 86 237 135 90
237 133 91 238 136 91 238 139 91 239 145 95 239 145 94 240 147 95
240 149 97 240 150 97 243 157 102 240 152 99 239 149 97 239 150 98
239 147 96 239 145 93 253 156 99 86 45 36 9 0 0 32 6 7 28 3 7 29 2 7
27 2 6 29 4 8 29 3 6 13 0 0 18 0 3 163 110 76 254 168 109 245 156 100
241 146 95 238 135 91 234 129 89 227 124 82 248 132 90 119 60 46
98 45 35 255 140 96 234 128 86 229 123 87 229 120 87 209 111 81
237 126 88 243 133 91 243 140 95 244 145 94 246 148 97 246 151 99
245 150 98 243 150 97 243 149 97 245 151 99 112 67 50 106 61 47
240 143 94 242 139 91 239 138 91 241 138 90 240 132 88 237 119 82
232 114 80 225 113 81 228 118 85 233 125 87 238 127 89 207 83 72
212 86 72 218 89 72 221 91 75 222 91 76 220 90 74 218 88 74 216 87 75
213 86 74 216 87 71 222 91 73 225 92 72 229 95 76 229 95 76 226 92 75
229 95 74 230 96 76 224 91 73 210 81 70 216 87 72 224 92 75 204 80 69
206 82 70 220 88 74 222 90 74 224 91 75 215 87 74 168 58 58 131 40 47
138 41 49 123 35 45 98 31 36 148 46 52 168 56 60 184 64 64 194 69 66
203 76 69 212 82 71 219 86 72 223 89 73 224 91 74 224 91 75 224 91 75
223 89 73 219 88 71 218 85 71 222 89 73 225 91 76 224 89 74 213 82 70
198 72 66 207 80 70 216 84 70 221 87 73 224 91 75 223 90 72 223 89 72
218 86 72 213 82 70 218 85 71 221 87 73 222 89 72 228 95 72 229 92 71
228 91 70 225 91 72 228 95 72 227 91 70 229 90 71 229 92 71 216 84 70
222 84 75 84 27 26 22 0 2 34 4 7 27 2 5 26 2 5 29 1 6 29 4 8 26 2 5
34 6 9 28 2 5 20 0 3 166 64 61 205 76 70 208 80 70 217 84 70
221 88 72 223 91 73 228 92 76 147 58 52 105 38 42 161 50 57 140 39 53
142 38 57 133 35 54 85 23 31 131 39 48 145 44 52 158 50 55 171 57 59
184 64 63 194 69 66 199 72 67 196 68 67 196 67 68 180 64 65 55 16 19
52 13 17 168 55 60 179 57 62 173 54 60 170 54 60 159 50 55 153 50 54
150 46 54 138 37 55 141 38 54 133 36 50 129 34 47 76 16 30 78 18 31
83 20 32 91 22 33 94 23 35 92 22 34 93 23 35 94 23 36 94 23 37
85 21 34 88 23 34 101 28 37 111 33 41 99 30 36 103 29 38 115 34 41
97 29 34 76 21 27 54 11 17 62 14 20 76 20 26 56 11 18 50 9 17
62 14 21 67 16 23 86 22 30 71 17 27 34 3 9 21 0 2 24 0 4 20 0 2
28 3 7 29 2 8 31 3 9 39 4 12 52 9 18 62 12 23 68 15 26 72 17 28
86 21 32 83 22 30 83 22 30 85 22 30 87 24 32 77 20 27 74 18 29
90 23 35 87 22 32 86 22 31 69 16 25 57 11 21 64 13 26 70 16 27
86 22 32 87 24 31 84 22 29 86 24 31 72 18 26 70 16 28 76 19 29
85 22 32 86 23 31 122 38 45 142 47 53 133 43 50 113 33 45 132 41 49
152 49 56 144 48 51 137 46 49 107 32 43 91 25 36 43 8 13 24 1 4
29 1 6 29 1 5 30 3 6 27 2 5 27 2 5 29 1 5 29 1 6 30 2 6 29 2 6
61 11 24 64 13 26 68 15 27 72 18 26 87 23 31 88 23 31 66 16 23
41 8 13 32 3 9 29 1 8 32 3 9 38 7 11 34 6 10 27 4 7 33 4 11 36 4 14
42 5 15 47 6 17 51 8 19 53 9 21 59 12 23 60 12 21 63 14 24 60 13 23
35 6 9 31 5 9 48 8 16 47 8 17 46 7 16 42 8 15 31 5 9 25 2 7 31 3 7
37 6 10 36 5 9 28 2 7 27 1 7 25 0 3 22 0 3 21 0 2 18 0 2 17 0 1
19 0 2 21 0 2 19 0 2 20 3 4 21 1 3 20 0 2 22 0 3 18 0 3 16 0 1 17 0 1
17 0 2 18 0 1 19 0 1 23 0 2 21 0 1 17 0 1 21 0 2 24 0 4 21 0 2 19 0 1
19 0 1 19 0 2 24 0 4 29 1 4 29 1 4 27 1 5 28 0 4 28 0 4 27 0 4 24 0 4
25 0 4 23 1 3 21 1 3 20 0 3 18 0 2 18 0 2 18 0 1 17 0 1 18 0 1 17 0 0
21 0 1 21 0 2 19 0 1 19 0 1 19 0 2 24 1 4 22 1 2 20 1 3 22 0 3 18 0 2
17 0 1 18 0 0 18 0 1 23 0 3 20 0 2 21 0 2 21 0 2 22 0 3 23 0 5 27 0 6
25 0 5 26 0 6 28 3 7 19 0 3 20 0 3 20 0 2 20 0 1 26 0 4 27 1 5 27 2 6
27 2 6 31 2 6 29 1 5 30 2 7 31 1 8 30 2 6 30 2 8 28 2 9 26 1 4 24 1 3
22 2 3 20 1 3 19 0 2 20 0 2 21 0 2 24 2 4 27 3 5 27 2 5 25 1 4 25 4 6
27 4 7 29 1 6 27 3 5 28 1 4 26 2 5 25 1 4 24 1 3 22 1 3 20 0 2 20 0 2
21 1 3 22 2 4 27 0 4 27 2 6 24 2 4 25 0 2 26 1 4 26 0 3 25 1 4 27 2 5
25 1 4 24 0 4 26 0 4 25 1 4 26 1 4 28 3 6 27 2 6 29 2 6 29 3 7 29 3 7
28 3 6 29 2 6 32 3 10 32 3 8 33 3 9 33 3 7 29 3 7 29 3 7 29 3 6
29 3 7 31 2 6 29 3 6 29 2 7 28 2 5 28 3 5 29 3 7 31 3 7 30 3 9 33 3 8
33 4 8 30 3 8 29 3 6 27 2 6 27 2 6 27 2 6 26 2 4 27 2 5 28 2 5 28 2 6
31 2 8 30 3 9 33 2 10 33 3 8 29 3 7 29 3 7 29 3 7 30 1 5 29 2 6
30 1 5 28 2 5 29 1 5 30 1 5 30 1 5 28 2 5 29 3 5 32 1 9 34 3 10
31 3 8 29 3 7 29 3 7 28 3 6 30 4 7 28 2 6 28 3 5 28 2 5 29 3 7 29 3 7
31 2 6 29 3 6 28 4 6 27 3 6 27 2 5 28 0 5 28 3 4 28 2 5 28 2 7 29 3 6
28 2 6 29 1 5 30 1 6 29 1 6 30 1 8 31 2 7 31 2 7 30 2 6 28 3 5 27 2 6
29 2 7 30 3 9 32 2 9 33 3 10 30 4 8 29 3 7 29 3 7 29 2 6 28 3 7
26 1 5 27 2 4 26 1 4 27 3 6 27 2 6 28 2 6 28 3 6 28 3 7 27 2 6 27 2 6
28 3 6 28 2 5 28 2 6 28 3 6 28 2 6 29 3 6 27 2 6 29 1 5 28 3 6 28 3 6
29 3 6 29 1 5 27 2 6 26 1 5 27 2 6 29 1 5 27 1 5 26 1 5 29 1 5 26 1 5
27 2 5 28 0 4 28 1 5 27 2 6 27 2 5 25 1 3 27 3 6 28 2 6 29 3 6 31 3 7
31 3 8 30 2 7 27 2 6 27 3 6 27 3 6 26 2 5 28 1 5 27 2 6 26 1 5 28 0 4
27 2 6 27 2 6 28 2 5 31 2 7 31 2 9 30 2 7 28 3 7 26 2 5 27 3 6 26 2 5
27 2 5 26 2 5 28 0 4 27 2 4 29 2 6 28 2 6 29 2 7 31 2 9 30 2 7 28 3 6
26 2 6 27 3 6 27 2 5 28 0 5 27 1 5 27 2 6 29 0 5 28 0 5 27 2 5 28 1 6
28 2 6 31 2 9 31 2 9 28 2 7 27 2 6 27 3 6 27 2 6 26 1 5 27 2 6 27 2 5
27 2 6 27 2 6 27 2 6 28 4 7 29 4 7 27 2 5 26 1 5 24 3 3 24 1 2 27 2 6
26 2 5 26 1 4 26 1 4 28 2 6 27 2 5 27 2 6 28 3 7 27 2 6 27 2 5 26 2 5
26 1 4 28 1 4 27 3 6 28 2 6 29 2 7 31 2 9 31 2 9 28 2 7 29 2 6 27 3 6
27 2 6 26 1 5 27 2 6 27 2 6 27 3 6 27 3 6 27 2 5 28 4 6 27 3 6 26 2 5
27 2 5 28 1 5 27 2 6 27 2 6 26 1 5 29 1 5 27 2 5 26 1 5 26 2 5 26 1 6
26 1 5 27 2 6 27 2 6 27 2 6 27 2 6 26 2 4 26 2 4 27 2 6 28 0 4 28 0 5
26 1 4 28 0 5 27 2 5 27 2 6 29 1 6 27 2 6 26 1 5 26 1 5 27 3 5 29 1 5
29 1 6 30 2 6 31 2 7 29 1 6 28 3 6 27 3 7 26 2 5 28 3 6 29 2 6 27 2 5
27 2 6 26 1 5 26 3 5 26 1 4 28 1 5 30 2 7 31 1 6 29 1 5 28 3 7 28 3 7
26 2 5 27 2 6 27 2 6 26 2 5 26 1 5 26 2 4 26 1 4 29 1 5 29 2 7 30 2 7
29 1 5 28 2 6 28 4 8 29 1 5 27 2 5 27 2 6 29 1 6 27 2 6 26 1 5 26 2 5
26 2 4 29 1 5 29 1 5 30 2 6 30 1 6 29 1 5 29 3 7 27 3 6 26 2 5 27 2 6
29 4 7 27 2 6 27 2 6 27 2 6 27 2 5 28 0 4 23 1 1 22 1 2 23 1 3 24 2 4
25 1 4 27 2 6 27 3 6 26 3 6 26 1 5 26 1 4 29 1 5 27 2 5 26 2 6 27 2 6
27 2 6 27 2 6 26 1 5 27 2 5 26 2 5 26 1 5 29 1 6 30 2 6 30 1 6 28 2 6
28 4 7 26 2 5 26 2 6 28 3 6 29 4 7 27 2 5 27 2 6 27 2 6 26 1 5 28 0 4
26 1 5 26 2 5 26 2 5 27 3 6 27 1 5 29 1 5 28 1 5 26 1 5 26 1 5 26 1 3
26 2 5 25 1 4 25 1 4 27 2 4 27 2 6 25 1 4 27 2 6 28 2 6 28 0 4 26 1 4
26 1 5 26 2 5 27 2 6 28 1 5 27 2 6 26 2 5 26 1 5 28 1 5 27 2 6 26 1 5
26 1 4 27 3 5 28 1 5 29 1 6 31 4 7 28 3 6 26 2 5 28 1 5 27 2 6 27 2 5
26 1 5 26 1 5 27 2 5 26 1 5 28 1 5 27 3 5 28 1 3 29 1 5 29 3 7 28 4 6
26 2 5 26 1 5 26 1 5 26 1 5 25 1 5 27 2 6 26 1 5 26 1 4 27 3 6 26 2 5
29 1 5 30 3 7 28 4 7 26 2 5 27 2 6 26 1 5 28 1 5 26 1 4 25 1 4 26 1 5
27 2 6 28 0 4 26 2 5 27 2 6 28 1 4 30 2 5 30 3 6 28 3 5 28 2 6 31 2 7
31 2 6 30 2 6 29 1 6 29 1 6 27 2 6 26 1 5 27 1 4 28 3 7 25 1 4 27 2 4
26 1 3 26 2 4 27 2 5 25 2 4 24 1 3 26 1 4 26 1 5 27 2 6 27 2 6 26 2 5
26 2 5 26 1 5 28 0 4 26 1 5 27 2 5 26 1 5 27 2 5 27 2 4 28 1 4 30 2 6
29 4 7 27 2 4 29 3 6 32 3 7 30 3 6 30 2 5 28 1 6 27 2 6 27 2 6 26 1 5
26 1 5 27 3 6 27 2 6 27 1 5 28 1 4 27 2 3 28 2 4 26 1 4 25 1 2 26 1 3
27 2 5 26 1 3 26 1 3 28 1 4 26 1 4 26 1 5 29 1 5 28 1 5 26 1 5 24 2 5
26 2 5 27 2 6 28 1 5 27 2 5 28 1 5 26 1 5 26 2 5 26 3 5 26 1 5 26 1 5
26 1 5 28 0 5 26 1 5 28 1 5 26 1 5 27 2 5 26 1 5 27 1 5 29 1 5 29 0 5
26 2 5 27 2 5 26 1 5 26 1 5 27 1 5 28 0 5 27 1 5 27 1 5 26 1 5 26 1 5
26 1 5 26 1 5 28 0 4 26 1 5 27 3 6 27 1 5 28 1 5 28 1 5 28 0 5 26 1 5
27 1 5 26 0 4 26 1 4 27 2 5 26 1 5 27 2 6 28 0 4 26 1 4 27 2 6 27 2 6
28 0 5 27 1 5 28 0 5 28 0 5 26 1 5 25 1 4 28 1 5 26 2 4 28 1 5 29 2 7
27 2 6 30 2 6 27 2 6 27 2 6 27 1 5 28 0 5 25 1 3 26 1 3 24 3 3 24 1 2
25 3 4 23 1 3 23 1 3 25 1 4 26 1 5 26 2 5 26 2 5 27 1 5 28 0 5 27 2 6
26 0 4 26 1 4 27 2 6 27 2 6 28 1 5 26 1 5 28 0 5 28 0 5 26 1 5 27 0 4
26 1 5 26 2 4 28 2 6 29 1 6 27 2 5 27 2 6 27 2 6 29 1 6 29 1 6 27 3 6
27 2 6 27 2 5 26 2 3 27 2 5 28 1 4 26 1 4 29 1 5 27 1 4 26 1 4 28 0 5
29 0 5 29 1 6 27 2 6 26 1 5 26 1 5 26 1 5 28 0 5 27 2 5 26 1 5 27 2 6
26 1 5 26 1 5 26 1 5 28 0 5 26 1 5 26 1 5 26 1 5 27 0 4 28 0 4 26 1 5
28 1 5 28 0 4 26 0 4 28 0 4 27 1 5 28 3 5 28 0 4 28 0 5 26 1 5 28 0 4
26 1 5 27 0 4 28 0 4 26 1 5 28 1 4 28 0 3 28 0 4 26 1 4 25 1 4 27 2 5
28 0 4 26 1 5 28 0 4 26 1 5 28 0 5 28 0 4 26 1 4 26 1 4 25 0 3 25 0 3
26 0 4 28 0 5 26 1 4 27 2 4 26 1 5 26 1 5 28 0 4 26 1 4 26 1 5 28 0 4
28 0 4 25 1 4 26 1 4 27 0 3 26 0 4 28 0 4 27 2 6 26 2 5 26 2 3 26 3 5
26 1 5 27 2 6 27 2 5 26 1 5 26 1 4 28 0 3 25 1 3 23 2 2 25 2 3 24 1 1
21 1 2 24 2 3 23 1 3 26 1 5 27 2 6 27 2 5 26 1 4 26 2 4 28 0 4 26 1 5
28 0 5 26 1 4 26 1 5 27 0 4 29 1 5 26 1 5 25 0 4 28 0 4 28 0 4 26 0 5
27 3 6 26 2 3 26 3 3 26 2 5 27 2 5 26 2 5 27 2 6 28 2 6 29 1 5 27 2 6
26 1 5 27 2 6 26 1 3 26 2 5 26 1 5 26 1 5 27 2 6 28 1 5 26 1 5 26 1 5
28 0 5 27 1 5 27 2 5 25 0 4 26 1 5 26 1 5 28 0 5 27 1 5 28 0 4 27 1 5
26 1 4 25 1 2 26 1 4 29 0 5 26 1 5 26 2 4 26 2 4 29 4 8 28 0 5 26 1 3
23 1 2 26 1 3 28 0 4 26 0 4 29 1 5 27 2 5 28 0 4 26 1 4 26 1 5 26 2 5
26 2 5 29 4 8 29 1 5 26 1 4 23 2 1 26 2 3 29 0 4 26 1 5 25 1 4 26 1 4
29 0 5 26 1 5 26 2 5 26 2 5 29 4 8 27 1 5 25 1 4 23 2 1 26 1 3 26 1 5
25 1 5 26 1 5 26 1 4 25 1 3 28 0 5 26 1 5 26 1 5 26 2 4 27 3 5 28 3 7
28 0 4 25 1 2 25 1 2 26 1 4 26 1 4 28 0 4 26 1 5 27 1 5 26 2 2 25 1 3
24 1 3 26 2 5 26 2 5 26 1 5 27 2 5 28 0 4 27 1 3 25 3 3 24 1 3 24 1 1
24 1 1 27 3 5 27 1 5 28 0 5 29 1 5 29 1 5 25 1 4 25 1 4 28 0 5 26 1 4
26 1 5 26 2 4 28 4 6 28 3 6 28 0 4 25 1 3 25 1 3 26 1 4 26 1 5 28 0 4
27 2 5 26 1 4 24 2 2 25 1 3 24 1 2 26 2 5 26 1 5 26 1 5 29 1 6 28 0 5
26 1 5 26 1 5 26 1 5 26 1 5 29 1 5 29 1 5 26 1 5 26 1 4 26 1 5 26 1 5
27 2 6 29 1 5 27 0 3 27 2 7 28 3 7 28 0 5 27 1 5 28 1 5 27 1 5
