P3
50 31
255
22 30 28 25 33 30 27 35 32 26 34 31 27 35 33 32 41 38 34 45 41
35 46 42 36 47 44 36 46 45 30 40 39 24 35 32 23 35 31 26 37 33
27 38 35 28 38 36 28 39 36 26 41 35 23 36 32 26 37 33 43 51 46
54 62 60 46 56 59 52 58 60 63 66 64 25 40 50 40 50 52 41 50 47
40 45 42 25 34 31 16 28 25 23 33 27 25 32 30 25 31 31 22 29 27
21 28 26 21 28 25 21 27 23 20 26 22 19 25 21 20 25 21 20 25 21
20 25 21 20 25 19 17 23 14 15 25 13 16 26 15 10 19 8 7 17 6 8 18 7
19 30 26 21 32 28 23 33 30 22 33 30 24 35 31 26 38 34 26 40 35
27 41 36 27 40 37 26 39 37 22 36 33 23 34 33 25 34 34 25 35 35
24 37 32 24 37 31 24 38 33 18 34 32 39 47 44 80 84 79 84 89 85
75 79 78 56 63 66 58 62 61 67 66 62 31 45 55 47 56 62 59 67 67
72 74 75 73 75 72 52 55 47 20 27 22 21 32 29 19 33 31 17 31 26
16 31 26 18 29 24 19 27 22 18 26 21 16 23 19 15 23 18 15 23 18
13 24 18 11 23 14 9 22 10 8 21 9 9 21 9 4 16 4 3 13 2 3 13 2 9 24 17
10 26 19 12 27 22 13 28 23 15 29 24 16 31 26 16 34 28 17 35 28
16 33 29 16 32 30 15 32 29 16 34 33 19 37 37 20 38 39 20 37 40
21 38 40 16 34 36 36 53 55 108 112 107 115 112 102 90 92 89 78 82 84
58 64 68 61 64 61 77 77 72 33 47 60 49 59 69 63 71 74 77 80 80
92 88 83 111 104 93 68 72 64 13 29 25 14 36 30 12 32 26 12 33 26
12 33 25 12 32 23 11 32 23 12 29 21 14 27 20 14 27 20 9 26 18 5 24 13
3 22 8 4 20 6 5 20 6 3 17 4 3 13 2 2 13 1 3 25 10 3 25 13 5 27 17
8 28 19 9 30 20 11 31 23 11 30 25 12 31 25 13 32 27 12 31 28 14 33 29
15 35 32 18 38 38 18 38 42 18 39 39 17 39 39 19 39 38 101 107 104
119 121 114 106 107 100 88 93 96 74 79 83 67 69 69 90 83 75 96 90 83
55 59 64 60 66 69 68 77 77 78 87 86 97 96 90 114 105 92 116 112 96
48 59 53 7 31 22 14 35 28 13 34 27 13 34 26 11 33 23 11 32 23
11 32 23 10 30 21 8 28 19 6 27 18 4 26 14 1 24 9 3 21 5 3 21 5 2 19 4
2 14 2 2 14 2 3 26 10 4 26 13 6 27 17 7 27 18 8 28 19 9 28 20 9 28 22
9 28 22 10 29 22 10 30 22 11 30 23 12 32 25 14 34 31 15 35 35
16 35 34 11 31 29 38 54 51 125 124 114 113 118 113 105 114 112
113 104 100 121 104 96 89 75 64 123 99 85 115 93 80 90 73 61
103 98 84 119 106 94 112 95 89 102 105 93 114 113 100 123 112 96
94 91 80 10 31 24 11 32 26 12 32 26 11 32 25 11 32 23 9 30 21
10 30 21 8 28 19 7 27 18 5 25 16 3 25 13 2 25 10 1 23 6 2 23 6 1 21 4
3 15 3 2 14 2 4 25 14 5 25 16 6 26 18 7 27 19 9 28 21 8 27 20 7 26 19
7 26 19 8 27 19 8 28 18 10 30 20 11 32 24 12 34 28 13 34 30 16 34 31
9 28 24 49 65 61 125 130 125 115 121 115 149 137 128 157 127 110
130 113 101 69 71 65 94 86 77 112 101 89 55 56 50 81 82 72 124 108 98
154 119 98 152 136 112 120 116 108 120 112 98 114 104 86 27 44 36
8 30 22 12 33 25 11 32 24 11 32 23 10 31 22 10 31 22 10 30 21 7 28 19
5 26 16 4 26 14 3 25 12 3 26 9 3 26 9 1 23 6 2 16 2 2 16 3 8 26 21
8 27 21 9 28 22 10 29 23 10 29 24 8 27 20 7 27 18 7 27 18 7 28 18
8 28 19 10 30 21 11 32 26 13 34 29 13 34 29 15 34 30 9 28 24 44 60 56
125 129 119 141 142 127 158 150 140 111 111 109 87 91 94 65 75 84
84 84 86 114 106 102 42 58 72 56 69 79 73 86 90 113 113 110
168 153 134 159 144 119 120 115 98 116 110 91 32 47 38 8 30 21
13 34 25 12 33 24 11 32 23 11 32 23 11 32 23 11 32 23 9 30 21 6 28 17
4 26 14 4 26 14 3 26 11 3 26 10 1 23 7 1 19 2 1 18 2 8 27 21 9 28 23
11 30 24 12 31 25 11 30 24 8 28 21 8 28 19 8 28 19 8 28 19 9 29 20
11 31 22 13 34 28 13 34 30 13 34 29 15 34 30 14 33 29 23 42 38
127 128 115 167 155 140 135 143 140 108 114 114 93 93 87 96 89 78
102 88 73 102 80 58 94 84 76 93 86 80 92 89 82 105 107 107
127 127 119 169 152 127 139 127 104 103 103 90 22 37 30 10 32 23
13 34 25 12 33 24 11 32 23 11 32 23 11 32 23 11 32 23 10 31 22
7 29 18 5 27 14 4 26 14 4 27 11 3 26 10 1 23 8 3 20 4 2 19 3 6 26 16
8 27 19 9 28 22 10 30 22 8 28 20 7 26 18 7 27 18 6 26 17 7 27 18
9 29 20 11 31 22 12 33 25 12 33 25 12 33 25 13 34 28 15 35 29 7 28 23
109 109 97 160 150 143 124 133 130 140 137 117 167 144 119
156 126 101 142 118 92 143 115 87 136 113 84 148 121 95 161 136 114
137 122 106 129 130 130 151 139 126 152 130 102 72 79 70 6 25 19
13 33 24 12 32 23 11 31 22 10 31 22 11 32 23 11 32 23 11 31 22
9 30 21 7 27 17 5 26 16 5 26 16 4 26 14 3 26 12 2 24 8 1 21 4 1 19 3
3 24 11 5 25 16 7 26 20 7 27 18 6 26 17 5 25 16 5 25 16 4 24 15
5 25 16 7 27 18 10 30 21 10 31 22 10 31 22 10 31 22 11 32 24 14 34 27
3 25 19 74 79 70 144 142 135 147 140 126 212 186 155 188 154 119
163 120 97 150 105 87 149 106 87 147 104 85 157 114 90 194 164 130
204 182 146 144 138 129 139 133 124 149 130 103 35 47 40 4 25 17
11 30 21 9 29 20 9 29 20 8 28 19 9 29 20 9 29 20 9 29 20 8 28 19
6 26 17 6 26 17 6 26 17 5 26 16 4 26 14 2 25 9 0 23 4 1 20 4 3 23 11
6 25 16 8 27 21 8 28 19 8 28 19 7 27 18 7 27 18 6 26 17 6 26 17
8 28 19 10 30 21 11 32 23 11 32 23 11 32 23 11 32 25 13 33 26 7 29 24
37 50 48 131 129 125 186 169 146 224 199 165 185 140 114 153 103 89
158 117 103 166 120 108 152 112 103 140 97 84 203 169 141 235 207 167
168 151 128 134 129 114 119 113 91 10 28 21 10 31 21 11 31 21 9 29 20
8 28 19 8 28 19 8 28 19 8 28 19 8 28 19 8 28 19 7 27 18 7 27 18
7 27 18 6 27 18 5 27 15 3 26 10 1 23 5 1 20 4 4 24 12 7 27 18 9 28 22
9 29 20 9 29 20 8 28 19 7 27 18 7 27 18 7 27 18 10 30 21 12 32 23
11 32 23 11 32 23 11 32 23 11 32 25 12 33 26 13 34 27 15 33 28
106 112 105 187 169 146 218 183 156 122 79 59 97 52 33 114 73 56
145 99 83 76 50 31 82 42 27 133 100 82 233 201 166 152 140 120
140 132 113 70 75 57 1 27 15 14 33 27 11 30 21 10 30 21 9 29 20
9 29 20 9 29 20 9 29 20 9 29 20 9 29 20 9 29 20 9 29 20 9 29 20
8 28 19 7 27 18 5 25 14 0 23 5 0 22 4 4 24 12 7 27 18 8 27 21 8 28 19
7 27 18 6 26 17 6 26 17 7 27 18 6 26 17 9 29 20 11 31 22 10 31 22
10 31 22 10 31 22 11 32 25 12 33 26 15 36 28 7 26 19 83 92 85
181 158 137 164 115 91 102 72 61 75 46 26 158 99 80 157 114 91
84 41 26 79 59 41 94 65 53 179 134 106 159 137 117 135 121 107
23 38 27 7 31 21 11 30 25 10 29 20 10 30 21 9 29 20 9 29 20 9 29 20
9 29 20 9 29 20 9 29 20 10 30 21 9 29 20 8 28 19 8 28 19 7 27 18
5 25 15 2 24 9 0 22 7 5 25 13 6 26 17 7 26 19 5 25 16 4 24 15 4 24 15
4 24 15 4 24 15 5 25 16 8 28 19 10 30 21 9 30 21 9 30 21 9 30 21
11 32 24 12 33 26 14 35 27 6 26 19 49 58 52 169 152 131 214 180 154
128 97 76 113 80 54 218 179 151 225 179 152 155 123 97 92 60 36
148 118 95 218 185 155 161 136 111 95 90 77 2 25 18 12 32 25 9 29 20
9 29 20 9 29 20 9 29 20 9 29 20 8 28 19 7 27 18 8 28 19 8 28 19
7 27 18 7 27 18 8 28 19 8 28 19 8 28 20 7 27 18 3 25 13 2 24 12
7 27 18 7 27 18 6 26 17 5 25 16 6 26 17 5 25 16 4 24 15 5 25 16
7 27 18 9 30 21 9 30 21 10 30 21 11 31 22 12 32 23 11 32 25 12 32 26
12 34 26 8 32 25 50 51 43 191 163 139 254 236 213 205 150 114
216 164 133 168 136 115 93 64 45 196 164 134 178 118 87 190 142 110
251 223 193 181 149 124 28 42 29 6 29 20 12 32 23 10 31 21 10 30 21
9 29 20 9 29 20 9 29 20 8 28 19 7 27 18 8 28 19 7 27 18 6 26 17
6 26 17 8 28 19 9 29 19 9 28 22 8 27 23 4 25 16 1 23 9 9 29 20
9 29 20 9 29 20 9 29 20 8 28 19 8 28 19 8 28 19 9 29 20 10 31 22
11 32 23 10 31 22 10 30 21 11 31 22 12 32 23 11 32 25 13 33 26
14 35 28 10 29 27 94 77 64 203 147 112 205 164 137 173 124 93
202 155 126 131 88 66 55 24 13 160 120 98 157 106 77 135 88 61
204 156 125 190 137 108 65 57 42 6 30 23 13 34 27 12 33 26 12 32 23
10 30 21 11 31 22 12 32 22 10 30 21 9 29 20 9 29 20 9 29 20 8 28 19
7 27 18 8 29 19 9 29 19 9 28 22 9 28 24 5 26 20 1 22 12 9 29 20
10 30 21 11 31 22 12 32 23 11 31 22 10 30 21 10 30 21 11 31 22
13 33 25 13 34 25 11 32 23 9 30 21 10 30 21 12 32 23 11 32 25
13 34 27 15 36 28 3 26 20 77 74 62 225 176 143 194 139 102 179 129 99
186 139 119 136 86 66 87 39 25 142 96 79 163 119 94 142 91 63
187 135 99 215 149 115 118 85 72 7 30 25 15 35 31 14 34 29 11 31 22
10 30 21 11 31 22 12 32 24 11 31 23 11 32 23 11 32 23 11 32 23
11 31 23 10 30 22 11 30 22 10 29 21 9 28 23 9 28 26 5 26 22 1 22 14
10 30 21 10 30 21 11 31 22 12 33 24 12 33 24 10 31 22 9 30 21
11 32 23 13 34 26 13 34 27 11 32 25 10 31 23 11 32 23 12 33 24
13 34 27 12 33 27 14 35 27 0 27 16 80 79 69 180 137 117 185 134 96
194 145 115 179 134 111 139 89 67 87 47 27 140 99 78 153 109 83
193 143 111 191 140 108 93 78 66 39 50 43 10 32 26 15 35 28 14 35 27
11 31 22 10 30 21 10 31 23 11 32 25 11 32 25 12 33 26 12 33 26
11 32 25 12 31 25 12 31 25 12 31 25 11 30 24 10 29 26 9 27 26 5 26 19
2 24 13 9 29 20 9 29 20 11 31 22 11 32 23 11 32 23 11 32 23 10 31 22
12 33 23 13 34 26 12 33 26 11 32 25 11 32 23 12 33 23 12 33 24
13 34 27 13 34 27 14 33 27 12 32 26 17 40 28 17 26 20 140 103 79
224 168 131 245 212 187 169 121 103 125 73 45 189 145 115 216 172 143
208 147 115 149 103 75 0 22 18 6 31 22 13 33 26 12 33 27 12 33 26
12 32 23 10 30 21 10 31 23 11 32 26 11 32 25 11 32 25 11 32 25
11 32 25 12 31 25 12 31 25 12 31 25 10 29 23 10 29 26 9 27 27 4 25 18
2 24 12 9 29 20 9 29 20 10 30 21 10 30 21 9 30 21 9 29 20 9 30 21
10 31 22 12 33 25 11 32 24 9 30 22 9 30 22 11 32 24 12 33 25 13 34 28
13 34 28 13 34 28 13 33 28 15 33 28 2 27 25 57 56 40 160 105 77
133 87 60 79 38 14 50 23 3 73 42 19 128 88 58 147 90 59 57 53 39
4 28 20 16 33 25 12 32 25 12 32 24 11 32 23 11 31 22 10 30 21
10 30 22 11 31 23 11 31 23 11 31 23 10 31 23 11 31 23 10 30 22
10 29 22 10 29 22 10 29 23 10 29 24 8 27 24 4 25 20 2 23 16 9 29 20
8 28 19 10 30 21 10 30 21 9 29 20 8 29 20 10 31 22 10 31 22 12 33 24
11 32 23 9 30 21 9 30 22 10 31 24 12 33 26 13 34 29 13 34 29 13 34 29
14 33 29 14 32 29 12 35 27 10 29 21 119 80 60 106 48 26 86 35 15
79 32 10 74 32 8 75 35 6 109 72 47 18 35 26 9 30 21 10 30 21 12 32 22
12 32 23 11 31 22 10 30 21 10 30 21 10 30 21 10 30 21 10 30 21
10 30 21 10 30 21 10 30 21 9 29 20 9 29 20 9 29 20 10 29 23 9 28 22
8 27 20 4 26 16 3 24 15 10 30 21 8 28 19 10 30 21 11 31 22 9 29 20
8 28 19 10 31 22 11 32 23 11 32 23 11 32 23 11 32 23 11 32 25
11 32 25 12 33 26 13 34 28 13 34 29 13 34 29 14 33 29 13 32 29
17 34 28 0 22 17 137 111 87 184 118 86 88 37 14 50 23 2 48 21 3
132 80 52 137 108 82 4 24 15 11 31 22 9 29 20 10 30 21 10 30 21
10 30 21 10 30 21 9 29 20 9 29 20 10 30 21 9 29 20 9 29 20 9 29 20
9 29 20 8 28 19 9 29 20 10 30 21 10 29 22 9 27 22 8 27 21 5 26 18
3 24 16 8 28 19 8 28 19 8 28 19 8 28 19 8 28 18 9 29 20 10 32 24
12 33 25 12 33 24 12 33 23 11 32 23 10 31 22 11 32 25 13 34 28
13 33 31 13 34 32 14 34 31 13 34 28 12 33 27 17 34 29 0 22 20
113 97 75 204 138 102 120 64 35 52 23 4 49 28 8 145 95 72 124 98 77
0 23 14 12 31 22 10 30 21 10 30 21 10 30 21 10 30 21 9 30 21 9 30 21
9 29 20 9 29 20 9 29 20 9 29 20 9 29 20 9 29 20 8 28 19 9 29 20
10 30 21 9 28 22 9 27 22 8 27 21 5 26 18 3 24 16 8 28 19 9 29 20
8 28 19 6 26 17 8 28 18 10 30 22 11 32 26 12 33 26 12 33 25 12 33 24
11 32 23 10 32 21 12 33 25 14 35 31 15 35 34 15 35 34 14 34 33
13 34 27 12 33 26 16 35 29 0 22 19 125 105 83 197 136 102 114 58 33
60 26 4 47 24 0 112 69 45 141 111 85 3 25 16 12 32 22 10 31 21
10 30 21 10 30 21 10 31 22 10 31 22 9 31 22 9 30 21 9 29 20 9 29 20
8 28 19 9 29 20 9 29 20 8 28 19 7 27 18 9 29 20 9 28 22 8 27 22
8 27 21 5 26 18 3 25 16 9 29 20 10 30 21 8 28 20 7 27 18 9 29 20
12 33 24 12 33 26 12 33 26 12 33 25 12 33 24 12 33 24 11 33 23
13 34 26 14 35 30 14 34 33 14 34 33 14 34 32 13 34 27 13 34 27
17 38 31 0 14 10 171 143 119 185 122 90 103 41 21 65 28 4 46 19 0
99 59 32 171 133 102 8 26 18 14 35 27 14 33 24 12 32 23 12 32 23
12 32 23 11 32 23 12 33 24 12 33 24 12 32 23 11 31 22 10 30 21
10 30 21 9 29 20 8 28 19 6 26 17 9 29 20 9 28 22 7 26 20 6 26 20
5 26 22 4 25 21 9 28 22 10 29 23 8 28 20 6 26 15 7 27 16 11 31 21
12 32 24 12 32 24 12 32 23 12 32 23 11 31 22 11 31 22 11 32 23
11 34 25 12 33 25 12 33 25 11 32 23 14 34 25 13 33 27 0 11 6 74 79 67
252 222 193 166 108 77 83 26 5 69 31 9 50 18 2 94 53 28 214 169 134
79 80 68 0 17 14 17 35 29 15 35 25 12 32 23 10 30 21 10 30 23
12 31 25 14 33 27 13 34 27 11 32 25 12 32 24 12 32 23 10 30 21
9 29 20 7 27 18 8 28 19 7 28 19 4 25 14 3 25 12 3 24 19 3 23 21
9 28 22 11 30 24 8 28 21 5 25 14 5 25 14 8 28 18 10 30 21 10 30 21
10 30 21 9 29 20 9 29 20 11 28 20 11 29 20 10 31 22 12 31 22 12 30 21
13 32 24 4 22 16 16 25 15 106 102 86 222 200 174 249 216 179
158 110 77 71 22 0 71 32 12 53 20 3 97 55 32 185 138 111 208 179 154
78 82 62 2 25 15 5 28 20 12 31 22 8 28 20 10 29 23 12 31 25 13 33 27
12 33 27 11 32 25 11 32 24 12 32 23 10 30 22 9 29 20 7 27 18 6 26 17
4 26 14 2 25 9 2 25 6 3 22 9 2 20 11 9 28 22 10 29 23 7 27 19 4 25 13
4 24 12 5 26 15 8 28 19 9 29 19 8 28 19 7 27 18 7 27 18 11 26 18
11 25 18 10 28 20 12 28 21 13 28 21 9 24 16 63 67 52 175 159 136
218 190 161 187 153 127 194 146 118 162 112 84 66 27 4 63 27 5
62 29 9 98 59 36 105 59 39 178 139 113 203 173 141 154 136 116
36 49 38 4 24 15 8 28 20 9 28 21 10 29 23 11 31 24 9 30 23 9 29 22
9 29 21 10 30 21 9 29 20 7 27 18 5 26 17 6 26 17 3 26 11 1 24 5
0 21 1 2 20 3 2 19 5 8 27 21 8 28 19 4 25 12 1 24 9 1 24 8 2 25 10
4 26 14 8 25 15 7 25 16 6 26 17 6 26 17 8 24 17 9 24 17 10 25 18
11 26 19 10 25 18 16 30 23 179 164 140 198 169 145 174 140 119
176 137 112 168 126 99 166 122 96 65 24 7 78 27 5 102 40 20 136 90 68
124 87 61 158 124 96 164 132 103 199 162 131 134 120 98 0 16 6
8 28 19 7 27 18 8 28 19 8 28 18 7 27 16 6 26 15 6 26 16 8 28 19
7 27 18 4 25 16 4 25 16 5 26 17 2 25 8 1 20 3 1 18 3 0 18 4 0 17 3
6 25 19 6 26 16 2 23 10 0 23 7 0 23 7 1 24 9 4 25 14 8 25 14 8 26 17
6 27 18 7 27 18 9 26 18 10 25 18 11 26 19 13 27 21 8 23 16 31 43 37
174 149 128 164 134 112 164 132 108 160 122 93 156 119 91 100 66 44
45 16 1 65 29 6 66 31 3 124 89 61 142 107 78 155 120 88 153 121 93
165 133 106 130 116 94 1 21 11 7 27 18 6 26 18 6 26 17 6 26 17
5 25 14 4 24 13 5 25 15 7 27 18 7 27 18 4 25 16 4 25 17 5 26 17
1 24 7 0 20 3 1 17 2 2 15 3 1 14 2 6 25 19 7 26 19 3 23 11 3 26 11
3 26 11 3 25 12 5 26 15 9 27 17 11 28 19 12 28 21 11 28 20 11 28 20
11 27 19 10 27 19 12 28 21 8 25 17 30 42 35 168 142 124 159 126 104
151 124 103 144 114 89 131 98 70 114 75 47 84 52 30 67 40 17 97 67 40
137 104 79 125 95 69 139 109 81 153 120 91 173 134 100 136 120 97
4 25 15 9 29 20 8 28 20 8 28 19 8 28 19 7 27 17 6 26 16 7 27 18
8 28 19 7 27 18 4 25 17 4 25 15 3 25 15 1 24 8 1 21 4 1 17 2 3 16 4
1 14 3
