P3
50 31
255
0 0 2 0 0 2 0 0 2 0 0 2 0 0 2 0 0 2 0 0 2 0 0 2 0 0 2 0 0 2 0 0 2
0 0 2 0 0 2 0 0 2 0 0 2 0 0 2 0 0 2 0 0 2 0 0 2 0 0 2 0 0 2 0 0 2
0 0 2 0 0 2 0 0 2 0 0 2 2 2 4 0 0 0 26 27 29 88 88 90 114 114 115
70 76 83 0 3 7 0 0 0 3 3 5 0 0 2 1 1 3 0 0 2 0 0 2 0 0 2 0 0 2 0 0 2
0 0 2 0 0 2 0 0 2 0 0 2 0 0 2 0 0 2 0 0 2 0 0 2 0 0 2 0 0 2 0 0 2
0 0 2 0 0 2 0 0 2 0 0 2 0 0 2 0 0 2 0 0 2 0 0 2 0 0 2 0 0 2 0 0 2
0 0 2 0 0 2 0 0 2 0 0 2 0 0 2 0 0 2 0 0 2 0 0 2 0 0 2 0 0 2 0 0 2
3 3 5 0 0 0 32 39 47 193 200 206 244 247 250 196 209 220 146 159 172
135 135 137 5 5 6 0 0 0 2 2 4 1 1 3 1 1 3 0 0 2 0 0 2 0 0 2 0 0 2
0 0 2 0 0 2 0 0 2 0 0 2 0 0 2 0 0 2 0 0 2 0 0 2 0 0 2 0 0 2 0 0 2
0 0 2 0 0 2 0 0 2 0 0 2 0 0 2 0 0 2 0 0 2 0 0 2 0 0 2 0 0 2 0 0 2
0 0 2 0 0 2 0 0 2 0 0 2 0 0 2 0 0 2 0 0 2 0 0 2 0 0 2 0 0 2 1 1 3
0 0 0 17 14 14 93 99 105 173 187 195 190 200 204 85 98 108
175 176 179 255 255 255 164 162 163 0 0 0 2 2 4 1 1 3 1 1 2 0 0 2
0 0 2 0 0 2 0 0 2 0 0 2 0 0 2 0 0 2 0 0 2 0 0 2 0 0 2 0 0 2 0 0 2
0 0 2 0 0 2 0 0 2 0 0 2 0 0 2 0 0 2 0 0 2 0 0 2 0 0 2 0 0 2 0 0 2
0 0 2 0 0 2 0 0 2 0 0 2 0 0 2 0 0 2 0 0 2 0 0 2 0 0 2 0 0 2 0 0 2
0 0 2 0 0 2 2 2 4 0 0 0 79 70 67 91 97 104 85 97 105 66 77 85
81 92 103 213 205 202 216 207 203 231 218 212 78 77 77 0 0 0 4 4 5
1 1 3 0 0 2 0 0 2 0 0 2 0 0 2 0 0 2 0 0 2 0 0 2 0 0 2 0 0 2 0 0 2
0 0 2 0 0 2 0 0 2 0 0 2 0 0 2 0 0 2 0 0 2 0 0 2 0 0 2 0 0 2 0 0 2
0 0 2 0 0 2 0 0 2 0 0 2 0 0 2 0 0 2 0 0 2 0 0 2 0 0 2 0 0 2 0 0 2
0 0 2 0 0 2 0 0 2 0 0 2 0 0 2 2 2 4 23 21 21 6 8 12 3 4 7 0 0 0
13 13 16 105 94 92 148 133 128 177 158 150 140 133 130 4 5 6 0 0 1
1 1 3 0 0 2 0 0 2 0 0 2 0 0 2 0 0 2 0 0 2 0 0 2 0 0 2 0 0 2 0 0 2
0 0 2 0 0 2 0 0 2 0 0 2 0 0 2 0 0 2 0 0 2 0 0 2 0 0 2 0 0 2 0 0 2
0 0 2 0 0 2 0 0 2 0 0 2 0 0 2 0 0 2 0 0 2 0 0 2 0 0 2 0 0 2 0 0 2
0 0 2 0 0 2 0 0 2 0 0 2 0 0 2 1 1 3 0 0 0 1 0 2 0 0 2 2 2 3 1 1 3
8 6 8 56 50 49 107 93 89 111 102 99 23 24 26 0 0 0 2 2 4 1 1 3 0 0 2
0 0 2 0 0 2 0 0 2 0 0 2 0 0 2 0 0 2 0 0 2 0 0 2 0 0 2 0 0 2 0 0 2
0 0 2 0 0 2 0 0 2 0 0 2 0 0 2 0 0 2 0 0 2 0 0 2 0 0 2 0 0 2 0 0 2
0 0 2 0 0 2 0 0 2 0 0 2 0 0 2 0 0 2 0 0 2 0 0 2 0 0 2 0 0 2 0 0 2
1 1 2 0 0 2 3 2 4 7 5 6 2 2 4 0 0 2 1 1 3 5 4 5 2 1 2 2 0 0 32 21 19
46 40 40 24 26 28 0 0 1 1 1 3 1 1 2 0 0 2 0 0 2 0 0 2 0 0 2 0 0 2
0 0 2 0 0 2 0 0 2 0 0 2 0 0 2 0 0 2 0 0 2 0 0 2 0 0 2 0 0 2 0 0 2
0 0 2 0 0 2 0 0 2 0 0 2 0 0 2 0 0 2 0 0 2 0 0 2 0 0 2 0 0 2 0 0 2
0 0 2 0 0 2 0 0 2 0 0 2 0 0 2 0 0 2 0 0 2 1 1 2 0 0 2 5 4 5 20 14 13
7 4 6 0 0 2 2 2 3 8 5 6 17 10 11 33 21 20 60 44 41 41 34 32 16 16 19
4 3 6 4 4 6 3 3 5 1 1 3 0 0 2 0 0 2 0 0 2 0 0 2 0 0 2 0 0 2 0 0 2
0 0 2 0 0 2 0 0 2 0 0 2 0 0 2 0 0 2 0 0 2 0 0 2 0 0 2 0 0 2 0 0 2
0 0 2 0 0 2 0 0 2 0 0 2 0 0 2 0 0 2 0 0 2 0 0 2 0 0 2 0 0 2 0 0 2
0 0 2 0 0 2 0 0 2 0 0 2 1 1 2 0 0 2 5 5 6 44 32 29 7 4 5 0 0 2 1 1 3
12 7 9 32 20 20 46 29 27 88 64 59 52 45 43 2 1 2 0 0 0 0 0 0 0 0 0
2 2 3 2 1 3 1 1 2 0 0 2 0 0 2 0 0 2 0 0 2 0 0 2 0 0 2 0 0 2 0 0 2
0 0 2 0 0 2 0 0 2 0 0 2 0 0 2 0 0 2 0 0 2 0 0 2 0 0 2 0 0 2 0 0 2
0 0 2 0 0 2 0 0 2 0 0 2 0 0 2 0 0 2 0 0 2 0 0 2 0 0 2 0 0 2 0 0 2
1 1 3 4 4 6 6 6 8 0 0 0 50 36 33 51 37 35 7 5 8 0 0 2 58 41 40
68 47 44 96 65 59 82 52 47 42 36 34 119 117 116 38 39 39 71 70 70
47 46 47 0 0 0 2 2 4 3 3 4 1 1 2 1 1 3 0 0 2 0 0 2 0 0 2 0 0 2 0 0 2
0 0 2 0 0 2 0 0 2 0 0 2 0 0 2 0 0 2 0 0 2 0 0 2 0 0 2 0 0 2 0 0 2
0 0 2 0 0 2 0 0 2 0 0 2 0 0 2 0 0 2 0 0 2 0 0 2 0 0 2 0 0 2 0 0 2
2 2 4 1 0 2 0 0 0 0 0 0 88 88 88 154 146 143 44 27 23 30 24 25
36 31 32 36 27 26 46 31 29 68 46 43 60 38 34 73 67 65 234 225 223
233 231 230 238 236 233 240 238 236 194 192 190 36 33 32 0 0 0 7 7 8
2 2 3 1 1 3 0 0 2 0 0 2 0 0 2 0 0 2 0 0 2 0 0 2 0 0 2 0 0 2 0 0 2
0 0 2 0 0 2 0 0 2 0 0 2 0 0 2 0 0 2 0 0 2 0 0 2 0 0 2 0 0 2 0 0 2
0 0 2 0 0 2 0 0 2 0 0 2 0 0 2 2 2 3 0 0 0 2 2 3 80 79 78 155 154 154
245 242 242 217 213 210 65 49 45 13 9 10 27 24 24 2 2 4 15 11 12
86 56 52 57 40 38 70 62 59 126 114 110 207 202 198 200 196 191
212 208 205 186 180 176 152 149 148 3 3 4 0 0 0 6 6 6 2 2 3 0 0 2
0 0 2 0 0 2 0 0 2 0 0 2 0 0 2 0 0 2 0 0 2 0 0 2 0 0 2 0 0 2 0 0 2
0 0 2 0 0 2 0 0 2 0 0 2 0 0 2 0 0 2 0 0 2 0 0 2 0 0 2 0 0 2 0 0 2
0 0 2 1 1 3 0 0 0 6 5 6 185 179 174 255 255 255 255 255 255
181 174 170 179 176 172 113 105 103 0 0 0 0 0 0 0 0 3 33 28 28
80 65 62 64 50 48 58 45 41 151 146 141 210 207 201 180 176 172
184 179 174 223 222 222 255 255 255 196 195 196 60 59 60 0 0 0 2 2 3
1 1 3 0 0 2 0 0 2 0 0 2 0 0 2 0 0 2 0 0 2 0 0 2 0 0 2 0 0 2 0 0 2
0 0 2 0 0 2 0 0 2 0 0 2 0 0 2 0 0 2 0 0 2 0 0 2 0 0 2 0 0 2 0 0 2
0 0 2 0 0 2 3 3 5 0 0 0 118 108 102 214 197 188 188 179 176
195 183 177 65 59 56 30 30 30 53 46 45 10 8 10 21 18 19 28 24 25
20 17 18 56 47 46 54 42 39 85 82 80 159 157 153 60 59 56 28 27 27
157 151 148 247 241 238 242 240 240 255 255 255 255 255 255
138 137 138 0 0 0 3 3 5 0 0 2 0 0 2 0 0 2 0 0 2 0 0 2 0 0 2 0 0 2
0 0 2 0 0 2 0 0 2 0 0 2 0 0 2 0 0 2 0 0 2 0 0 2 0 0 2 0 0 2 0 0 2
0 0 2 0 0 2 0 0 2 0 0 2 0 0 2 0 0 1 2 2 4 83 73 69 47 40 38 33 29 28
62 53 52 18 16 16 0 0 0 4 3 4 28 23 22 17 14 15 14 12 13 19 16 17
49 40 40 5 3 4 89 87 85 114 112 110 43 42 40 97 92 89 184 173 168
213 202 198 243 239 237 240 237 237 250 249 250 253 250 248 40 38 37
0 0 0 2 2 4 0 0 2 0 0 2 0 0 2 0 0 2 0 0 2 0 0 2 0 0 2 0 0 2 0 0 2
0 0 2 0 0 2 0 0 2 0 0 2 0 0 2 0 0 2 0 0 2 0 0 2 0 0 2 0 0 2 0 0 2
0 0 2 0 0 2 1 1 3 6 6 7 4 3 4 0 0 0 5 0 0 27 20 19 8 7 8 10 8 9 3 3 4
13 11 11 3 2 4 5 4 6 13 11 13 9 7 10 21 20 20 183 175 174 151 147 144
84 83 80 37 34 33 119 107 104 189 174 168 231 222 217 243 239 236
247 243 241 239 225 217 72 65 63 0 0 0 3 3 5 0 0 2 0 0 2 0 0 2 0 0 2
0 0 2 0 0 2 0 0 2 0 0 2 0 0 2 0 0 2 0 0 2 0 0 2 0 0 2 0 0 2 0 0 2
0 0 2 0 0 2 0 0 2 0 0 2 0 0 2 0 0 1 1 1 2 0 0 2 0 0 0 33 27 24
159 149 145 168 165 164 99 90 89 31 24 24 0 0 0 11 8 9 0 0 0 2 1 3
2 2 3 2 1 2 0 0 0 32 28 29 104 91 91 32 30 30 34 35 36 2 0 0 55 42 40
137 121 115 186 174 168 195 187 185 181 169 164 115 101 95 40 36 35
0 0 0 2 1 3 0 0 2 0 0 2 0 0 2 0 0 2 0 0 2 0 0 2 0 0 2 0 0 2 0 0 2
0 0 2 0 0 2 0 0 2 0 0 2 0 0 2 0 0 2 0 0 2 0 0 2 0 0 2 0 0 2 0 0 2
1 1 3 0 0 0 5 4 5 115 108 104 195 183 175 255 250 243 255 255 255
200 192 189 51 35 34 28 22 23 3 1 3 1 1 3 0 0 2 0 0 2 3 3 4 0 0 0
135 130 131 192 187 187 96 89 89 111 103 103 101 96 96 83 68 65
184 170 164 173 159 153 104 91 88 38 30 27 0 0 0 11 10 11 0 0 2 0 0 2
0 0 2 0 0 2 0 0 2 0 0 2 0 0 2 0 0 2 0 0 2 0 0 2 0 0 2 0 0 2 0 0 2
0 0 2 0 0 2 0 0 2 0 0 2 0 0 2 0 0 2 0 0 2 0 0 2 0 0 2 2 2 3 0 0 0
149 142 138 255 243 235 231 219 210 160 149 143 137 123 117 95 87 84
13 8 9 44 34 34 0 0 0 3 3 4 2 2 3 2 2 3 0 0 1 51 50 52 110 107 107
236 229 228 186 173 171 104 89 87 108 90 88 176 166 161 253 248 245
239 234 231 214 206 204 155 148 146 148 138 133 54 50 48 0 0 0 2 2 4
0 0 2 0 0 2 0 0 2 0 0 2 0 0 2 0 0 2 0 0 2 0 0 2 0 0 2 0 0 2 0 0 2
0 0 2 0 0 2 0 0 2 0 0 2 0 0 2 0 0 2 0 0 2 0 0 2 3 3 5 0 0 0 81 75 72
248 235 224 191 177 167 105 89 84 68 49 46 51 37 36 36 27 26 76 60 59
26 20 21 2 1 3 5 5 7 1 1 2 0 0 1 0 0 1 25 24 26 17 17 18 66 57 56
118 103 102 103 82 81 115 96 92 251 245 241 251 251 250 254 255 255
255 255 255 255 255 255 255 255 255 100 96 95 0 0 0 4 4 6 0 0 2 0 0 2
0 0 2 0 0 2 0 0 2 0 0 2 0 0 2 0 0 2 0 0 2 0 0 2 0 0 2 0 0 2 0 0 2
0 0 2 0 0 2 0 0 2 0 0 2 0 0 2 0 0 2 2 2 3 0 0 0 88 78 73 201 185 174
218 209 203 152 131 124 171 138 128 116 90 84 49 40 39 27 22 22
10 8 9 3 3 4 0 0 1 0 0 1 0 0 1 0 0 2 0 0 1 3 3 4 35 28 27 70 52 51
52 37 36 107 95 91 234 222 216 241 237 235 248 246 245 251 251 251
245 244 244 255 255 255 137 133 131 0 0 0 4 4 6 0 0 2 0 0 2 0 0 2
0 0 2 0 0 2 0 0 2 0 0 2 0 0 2 0 0 2 0 0 2 0 0 2 0 0 2 0 0 2 0 0 2
0 0 2 0 0 2 0 0 2 0 0 2 1 0 2 0 0 0 9 8 9 109 97 90 198 183 175
233 224 220 255 252 249 157 153 154 28 24 25 1 1 2 0 0 0 0 0 1 0 0 1
1 1 3 0 0 2 0 0 2 1 0 2 9 7 8 17 14 15 36 31 32 88 64 61 109 90 88
123 101 95 226 211 203 249 246 243 246 243 241 246 242 240
244 240 238 255 252 247 172 163 158 0 0 0 3 3 4 0 0 2 0 0 2 0 0 2
0 0 2 0 0 2 0 0 2 0 0 2 0 0 2 0 0 2 0 0 2 0 0 2 0 0 2 0 0 2 0 0 2
0 0 2 0 0 2 0 0 2 0 0 2 1 1 3 0 0 0 25 22 22 137 125 119 119 109 106
190 174 168 165 152 147 28 27 29 0 0 2 0 0 1 2 1 3 0 0 2 0 0 2 0 0 0
0 0 2 1 1 2 1 1 2 7 5 7 7 5 7 0 0 0 115 107 106 213 199 197
219 207 203 224 214 208 229 221 216 228 219 214 236 230 226
237 230 225 215 199 190 110 99 94 0 0 0 2 2 4 0 0 2 0 0 2 0 0 2 0 0 2
0 0 2 0 0 2 0 0 2 0 0 2 0 0 2 0 0 2 0 0 2 0 0 2 0 0 2 0 0 2 0 0 2
0 0 2 0 0 2 0 0 2 0 0 2 0 0 1 4 4 5 0 0 0 6 5 6 49 44 43 24 21 21
0 0 0 0 0 1 1 1 2 0 0 1 0 0 2 2 2 3 23 23 25 16 16 18 0 0 0 2 2 3
2 1 3 0 0 0 159 155 155 255 255 255 255 255 253 251 249 247
239 234 231 212 201 195 215 205 199 237 231 227 212 200 194 66 57 54
1 1 2 0 1 2 0 0 2 0 0 2 0 0 2 0 0 2 0 0 2 0 0 2 0 0 2 0 0 2 0 0 2
0 0 2 0 0 2 0 0 2 0 0 2 0 0 2 0 0 2 0 0 2 0 0 2 0 0 2 0 0 2 0 0 2
0 0 2 0 0 1 2 2 2 2 2 4 0 0 0 0 0 0 9 8 10 4 4 5 0 0 0 5 5 7 2 2 3
6 6 7 16 17 19 11 11 11 6 6 7 1 1 3 0 0 0 51 47 46 239 231 228
227 219 216 221 212 209 226 216 213 239 230 226 244 236 232
240 231 227 239 231 226 179 162 154 50 44 42 0 0 0 2 2 4 0 0 2 0 0 2
0 0 2 0 0 2 0 0 2 0 0 2 0 0 2 0 0 2 0 0 2 0 0 2 0 0 2 0 0 2 0 0 2
0 0 2 0 0 2 0 0 2 0 0 2 0 0 2 0 0 2 0 0 2 0 0 1 1 1 2 1 1 2 1 0 2
6 6 8 18 18 19 29 28 29 25 24 26 32 33 35 32 33 36 18 19 21 13 13 15
0 0 0 3 3 4 19 17 18 17 15 16 1 0 2 15 14 14 50 44 43 59 52 51
57 50 50 60 54 54 74 67 66 110 100 97 101 92 89 130 119 114 105 93 89
36 32 31 0 0 0 1 1 3 0 0 2 0 0 2 0 0 2 0 0 2 0 0 2 0 0 2 0 0 2 0 0 2
0 0 2 0 0 2 0 0 2 0 0 2 0 0 2 0 0 2 0 0 2 0 0 2 0 0 2 0 0 2 0 0 2
0 0 2 0 0 2 1 1 2 6 6 7 13 13 15 23 23 25 29 28 30 32 31 33 35 35 37
22 22 24 1 1 2 3 3 5 1 1 2 1 1 3 0 0 1 0 0 2 17 16 17 26 24 25
10 9 11 0 0 0 0 0 0 0 0 1 0 0 0 0 0 0 0 0 0 46 42 43 34 30 30
34 31 30 2 2 3 0 0 2 1 1 3 0 0 2 0 0 2 0 0 2 0 0 2 0 0 2 0 0 2 0 0 2
0 0 2 0 0 2 0 0 2 0 0 2 0 0 2 0 0 2 0 0 2 0 0 2 0 0 2 0 0 2 0 0 2
0 0 2 0 0 2 0 0 2 0 0 1 5 5 6 11 11 13 12 12 13 9 9 11 6 6 8 0 0 2
0 0 0 0 0 2 0 0 1 0 0 2 0 0 2 0 0 2 0 0 2 0 0 0 10 9 10 27 25 27
23 22 23 10 10 12 2 1 3 3 1 4 0 0 0 46 42 43 123 114 113 16 14 16
4 3 4 2 2 4 0 0 2 0 0 2 0 0 2 0 0 2 0 0 2 0 0 2 0 0 2 0 0 2 0 0 2
0 0 2 0 0 2 0 0 2 0 0 2 0 0 2 0 0 2 0 0 2 0 0 2 0 0 2 0 0 2 0 0 2
0 0 2 0 0 2 0 0 2 0 0 1 0 0 1 0 0 0 0 0 0 0 0 0 0 0 0 0 0 2 1 1 3
0 0 2 1 1 2 1 1 2 0 0 2 0 0 2 0 0 2 1 1 2 0 0 1 4 4 5 19 17 19
26 25 27 21 21 23 11 10 12 1 1 3 14 12 13 7 5 7 0 0 1 6 6 8 1 1 3
1 1 3 0 0 2 0 0 2 0 0 2 0 0 2 0 0 2 0 0 2 0 0 2 0 0 2 0 0 2 0 0 2
0 0 2 0 0 2 0 0 2 0 0 2 0 0 2 0 0 2 0 0 2 0 0 2 0 0 2 0 0 2 0 0 2
0 0 2 0 0 2 0 0 2 0 0 2 0 0 2 0 0 2 0 0 2 0 0 2 0 0 2 1 1 2 0 0 2
1 1 3 1 1 3 0 0 2 0 0 2 0 0 2 0 0 2 0 0 1 0 0 1 5 5 6 19 18 19
27 26 28 20 20 22 5 5 7 3 2 4 8 8 10 4 4 6 1 1 3 0 0 2 0 0 2 0 0 2
0 0 2 0 0 2 0 0 2 0 0 2 0 0 2 0 0 2 0 0 2 0 0 2 0 0 2 0 0 2 0 0 2
0 0 2 0 0 2 0 0 2 0 0 2 0 0 2 0 0 2 0 0 2 0 0 2 0 0 2 0 0 2 0 0 2
0 0 2 0 0 2 0 0 2 0 0 2 0 0 2 0 0 2 0 0 2 0 0 2 0 0 2 1 1 3 1 0 2
0 0 2 0 0 2 0 0 2 0 0 2 0 0 2 0 0 1 0 0 0 0 0 1 5 5 6 12 12 13
11 11 13 3 3 5 1 1 3 0 0 2 0 0 2 0 0 2 0 0 2 0 0 2 0 0 2 0 0 2
