P3
50 28
255
0 0 0 0 0 0 0 0 0 0 0 0 0 0 0 4 1 1 46 4 4 67 5 6 81 8 7 81 8 8
75 10 9 113 7 5 93 9 9 53 5 3 60 7 9 73 4 6 102 28 34 123 40 49
121 49 39 83 18 19 59 11 24 29 7 25 18 4 32 18 10 37 62 37 52
51 38 60 17 19 52 4 2 43 3 3 64 8 8 85 10 10 115 7 9 138 4 7 141
8 9 129 7 11 105 4 4 71 5 5 53 1 1 36 2 2 28 5 5 21 1 1 7 1 1 5 3 3 5
1 1 1 2 2 2 1 1 1 1 1 1 1 1 1 0 0 0 0 0 0 0 0 0 0 0 0 0 0 0 1 0 0
3 1 1 11 2 3 47 5 5 83 6 6 88 8 8 85 5 5 84 6 6 94 12 18 63 2 0
107 26 64 75 12 34 68 7 6 79 14 18 82 14 20 66 11 21 42 8 15 54 10 29
54 11 43 34 11 36 101 70 68 102 68 55 35 25 28 43 52 77 15 15 56
5 6 69 10 13 114 3 18 161 27 67 199 39 85 207 10 42 187 12 17 150
6 6 107 8 7 73 5 5 50 9 10 44 6 8 28 19 27 56 0 0 7 7 7 12 6 6 9
1 1 2 0 0 0 0 0 0 0 0 0 0 0 0 0 0 0 0 0 0 0 0 0 0 0 0 0 0 0 2 1 1
19 2 3 59 5 5 122 12 12 113 6 6 79 10 10 135 16 15 79 7 10 56 3 1
75 7 19 78 8 19 70 9 11 51 5 10 44 5 10 42 4 17 38 5 21 55 17 52
52 12 52 70 36 47 38 24 18 6 2 3 30 18 20 51 49 56 45 53 87 1 0 67
4 10 120 40 81 198 172 218 251 202 239 253 84 149 233 8 51 195
12 19 145 9 10 93 2 2 56 8 8 41 4 4 30 2 2 26 1 2 18 6 6 13 3 3 4
1 1 1 0 0 0 0 0 0 0 0 0 0 0 0 0 0 0 0 0 0 0 0 0 0 0 0 0 0 0 0 0 1
21 3 4 78 8 9 120 24 20 113 8 8 93 10 10 190 19 19 102 7 9 71 7 9
78 6 4 79 8 6 63 3 8 83 26 22 84 28 25 76 30 36 56 17 33 44 11 33
65 31 52 81 49 48 12 6 6 28 12 13 97 67 70 86 73 81 34 43 77 12 17 85
2 12 111 81 125 207 216 251 255 233 250 253 150 204 242 11 76 204
17 26 148 5 6 91 4 4 66 5 4 51 4 4 41 10 11 45 4 4 28 6 6 16 5 5 5
2 2 2 1 1 1 0 0 0 1 1 1 1 1 1 0 0 0 0 0 0 0 0 0 0 0 0 1 0 0 3 1 1
3 1 1 31 3 3 68 5 5 71 7 7 61 5 6 61 4 4 81 8 11 85 6 8 97 8 9 79 1 5
103 33 26 150 103 73 84 50 39 93 68 68 109 80 84 84 45 54 81 42 54
50 28 28 53 23 20 97 46 45 115 74 70 144 139 159 32 42 81 9 19 87
10 20 108 24 64 169 138 195 242 169 223 250 60 141 233 9 54 196
10 14 132 9 11 98 7 8 80 7 7 68 5 4 50 7 6 48 8 10 46 5 5 23 2 2 6
0 0 0 1 1 0 1 1 1 0 0 0 0 0 0 0 0 0 0 0 0 0 0 0 0 0 0 2 1 1 5 2 2
6 2 2 16 3 3 29 4 4 59 5 8 64 6 10 47 7 9 69 1 3 86 10 10 101 21 20
96 24 22 143 98 67 106 72 53 56 26 24 53 26 24 59 36 36 91 67 68
103 70 79 54 35 34 60 24 21 109 40 34 91 54 55 110 111 141 18 28 77
16 39 105 10 30 109 10 42 139 10 65 178 12 83 201 10 60 195 20 39 167
5 9 120 4 5 90 5 6 75 10 11 70 9 10 65 0 0 46 5 6 44 3 3 29 1 1 13
4 4 9 3 3 3 2 2 2 0 0 0 0 0 0 0 0 0 0 0 0 0 0 0 0 0 0 1 0 0 8 2 2
11 3 3 18 4 4 29 3 4 68 16 13 73 13 11 57 4 6 83 24 18 84 11 10
78 10 13 107 45 34 91 56 40 65 31 25 124 65 46 59 29 27 30 12 13
57 39 42 104 68 67 90 39 33 31 9 9 64 20 18 88 61 65 87 86 113
34 51 104 10 29 92 11 33 104 16 48 124 12 49 141 15 51 154 13 39 147
10 24 132 14 24 116 6 9 89 5 7 78 4 5 67 4 3 50 1 1 38 3 3 36 3 3 28
4 4 26 4 4 15 4 4 3 2 2 2 1 1 1 0 0 0 0 0 0 0 0 0 0 0 0 0 0 0 1 0 1
2 1 2 15 3 3 45 5 5 42 3 4 53 9 8 61 8 7 75 7 7 120 32 18 112 11 9
134 24 28 119 48 31 40 18 15 65 36 30 166 93 58 89 59 50 63 50 49
39 26 28 92 54 55 86 23 18 22 1 2 47 19 18 64 50 57 30 17 26
68 70 105 38 71 126 6 36 101 9 44 117 27 70 128 42 78 116 42 72 114
14 30 104 7 11 104 6 8 84 10 13 87 4 4 69 8 7 49 3 3 38 4 4 36 4 4 32
1 1 24 0 0 9 0 0 0 0 0 0 1 1 1 0 0 0 0 0 0 0 0 0 0 0 0 0 0 0 1 0 0
3 1 1 16 3 4 27 4 4 39 5 5 33 5 6 66 5 5 57 7 7 73 9 9 107 10 10
101 20 16 116 48 33 66 36 27 168 91 55 209 151 112 221 177 141
179 136 120 38 21 20 64 34 36 86 12 11 48 17 17 55 40 38 42 34 38
29 28 29 41 8 16 66 73 109 36 80 137 14 74 149 31 72 109 23 39 57
15 20 19 10 27 75 6 13 111 4 5 85 8 12 91 7 8 73 6 5 56 8 8 52 6 5 43
2 2 33 3 3 24 2 2 11 0 0 0 0 0 0 0 0 0 0 0 0 0 0 0 0 0 0 0 0 0 0 0 0
0 0 0 3 1 1 7 2 2 25 4 5 52 4 5 51 6 6 70 6 6 66 6 7 87 12 11
102 16 13 102 29 23 136 62 40 71 32 25 144 63 34 165 93 62
212 164 125 181 130 107 36 21 20 63 37 39 127 61 57 77 53 47 45 36 31
35 32 33 61 67 71 85 62 65 33 15 34 46 89 136 22 63 106 26 38 58
20 23 36 3 3 5 13 23 55 19 33 110 9 13 96 5 8 89 10 13 80 5 5 72
2 2 56 5 6 58 3 3 39 3 3 25 1 1 9 0 0 0 0 0 0 0 0 0 0 0 0 0 0 0 0 0 0
0 0 0 0 0 0 0 0 0 3 1 2 11 3 3 19 3 4 36 4 4 45 4 4 53 5 5 65 7 7
83 8 9 110 28 20 128 58 38 128 64 42 111 60 42 95 36 22 158 71 41
205 142 96 108 73 56 7 2 5 98 74 64 99 78 62 29 17 15 30 17 15
20 15 14 28 31 37 102 108 115 53 57 66 50 115 162 28 67 104 112 84 72
133 97 86 56 36 35 8 19 50 18 35 116 6 12 102 13 18 95 4 8 82 7 10 79
3 3 57 3 3 52 3 3 39 1 1 26 1 1 11 0 0 1 0 0 0 0 0 0 0 0 0 0 0 0
0 0 0 0 0 0 0 0 0 0 0 0 3 1 2 6 2 2 20 3 3 40 4 4 43 4 4 47 7 8
46 6 8 68 16 13 90 38 27 110 56 39 131 80 59 153 102 67 75 43 31
103 54 31 139 81 50 43 22 20 29 21 19 111 89 75 62 38 30 27 15 13
13 7 7 10 7 7 8 6 8 58 61 65 87 91 98 46 104 142 35 103 151
170 136 119 177 130 109 58 34 34 10 37 106 19 44 132 9 15 100 7 14 86
4 7 58 5 7 63 4 5 60 4 5 51 4 4 41 1 1 24 1 1 9 0 0 3 0 0 0 0 0 0
0 0 0 0 0 0 0 0 0 0 0 0 0 0 0 0 0 0 1 0 0 6 2 2 16 3 3 34 3 3 62 4 4
75 9 10 80 13 13 87 25 18 103 55 34 119 77 53 102 72 56 151 107 74
109 64 41 57 39 32 187 131 86 39 26 20 38 36 32 118 98 84 124 90 66
47 22 16 12 4 4 7 4 3 0 0 0 36 37 40 110 114 119 26 71 107 73 149 194
127 107 98 78 43 30 21 28 44 12 54 136 13 39 125 16 40 111 10 21 87
3 6 57 3 4 64 5 7 64 3 4 53 1 0 34 1 1 19 1 0 6 0 0 1 0 0 0 0 0 0
0 0 0 0 0 0 0 0 0 0 0 0 0 0 0 0 0 0 3 1 1 8 3 2 16 3 3 28 4 4 40 5 5
43 6 6 66 12 11 75 22 19 116 59 34 61 36 26 100 68 44 109 84 63
116 82 52 57 34 25 65 48 39 46 41 33 86 78 66 130 109 93 182 153 116
130 99 79 24 9 11 2 2 3 0 0 0 44 43 45 110 118 126 66 95 114
72 95 104 72 91 98 16 17 23 21 45 79 21 90 176 17 60 140 32 42 59
8 24 91 6 10 62 7 10 72 4 6 63 4 6 59 3 3 38 4 3 20 1 1 6 1 1 0 1 1 1
0 0 0 0 0 0 0 0 0 0 0 0 0 0 0 0 0 0 0 0 0 1 0 1 12 3 4 17 3 3 35 3 4
51 7 7 48 8 8 66 16 13 74 35 26 110 69 47 33 14 12 136 101 62
157 129 95 97 67 44 62 43 31 36 26 23 64 55 41 83 74 56 144 113 91
211 173 129 226 183 138 150 88 48 93 43 28 33 6 3 61 57 58
139 131 133 107 130 123 82 101 92 49 63 68 31 50 68 27 37 55
36 64 102 79 93 117 62 48 50 12 35 109 7 15 69 9 17 76 6 13 71
7 13 64 4 6 38 2 1 18 2 1 8 0 0 1 0 0 0 0 0 0 0 0 0 0 0 0 0 0 0 0 0 0
0 0 0 0 0 0 5 2 2 9 3 3 10 2 3 15 4 6 29 4 5 36 8 8 62 23 20 88 42 34
101 65 51 64 35 25 87 52 39 201 172 120 123 96 60 80 53 35 46 31 26
64 55 40 50 44 30 127 108 90 227 191 153 216 172 130 219 136 70
186 90 44 59 18 11 84 77 77 150 161 152 48 77 67 69 87 74 66 65 53
37 56 70 37 58 78 14 21 39 99 83 84 46 33 44 7 34 116 8 17 82 9 21 92
8 19 83 5 8 46 3 3 30 2 2 21 2 1 11 2 2 3 0 0 0 0 0 0 0 0 0 0 0 0
0 0 0 0 0 0 0 0 0 0 0 0 2 1 1 8 4 4 12 4 3 20 6 9 41 9 9 51 14 11
67 33 23 79 45 36 95 63 48 106 74 54 46 29 25 87 75 53 142 123 91
133 100 71 58 42 31 61 52 39 31 26 17 102 92 78 221 196 164
166 128 104 187 126 86 143 84 48 41 15 13 89 83 80 117 139 127
22 37 33 71 89 75 91 114 89 49 64 64 27 41 59 8 17 35 31 29 41
26 25 42 12 54 145 6 21 98 10 25 105 10 26 92 7 14 56 5 6 32 3 3 19
3 3 10 0 0 2 0 0 2 0 0 0 0 0 0 0 0 0 0 0 0 0 0 0 0 0 0 0 0 0 0 0 0
1 1 1 7 3 3 20 4 3 31 11 12 56 27 20 68 33 26 88 52 42 127 96 69
130 106 77 9 12 12 38 30 25 51 41 36 84 54 45 132 97 71 58 50 33
31 26 17 81 71 54 172 155 134 215 166 125 217 163 126 94 58 48 42 1 0
129 125 118 86 117 105 8 18 17 50 67 60 79 103 84 40 58 48 14 21 36
12 18 38 9 12 28 23 30 54 16 58 133 7 34 117 12 36 123 14 35 106
9 17 66 5 8 42 3 3 20 2 2 9 0 0 0 0 0 2 0 0 0 0 0 0 0 0 0 0 0 0 0 0 0
0 0 0 0 0 0 0 0 0 4 3 3 9 4 4 12 5 5 26 12 13 33 18 17 59 37 29
61 51 43 111 91 69 68 49 38 27 25 22 31 22 20 38 18 16 62 36 30
108 69 52 92 73 47 66 57 36 74 68 43 108 113 91 211 182 156
213 166 130 123 67 57 74 34 27 157 143 138 146 151 145 86 98 100
97 118 116 116 139 118 64 77 65 17 28 41 8 17 41 4 6 20 26 40 68
16 40 87 13 50 123 8 33 128 9 22 101 8 13 69 4 5 37 2 2 19 1 1 9
0 0 0 0 0 0 0 0 0 0 0 0 0 0 0 0 0 0 0 0 0 0 0 0 0 0 0 0 0 0 2 1 1
6 5 5 14 5 5 37 17 14 37 21 17 44 27 21 80 68 53 103 90 71 41 24 22
19 16 15 12 6 5 47 28 23 41 22 20 48 34 32 95 82 65 98 92 64
122 131 116 145 122 106 212 190 169 193 139 112 110 44 34 54 41 38
51 56 60 52 61 68 89 89 86 146 143 136 99 95 89 68 75 77 59 74 79
33 48 69 4 5 32 20 30 58 15 40 84 12 53 115 12 53 138 9 26 110
10 15 78 5 7 44 2 2 17 1 1 5 0 0 2 0 0 0 0 0 0 0 0 0 0 0 0 0 0 0
0 0 0 0 0 0 0 0 0 0 0 0 0 0 0 3 4 4 11 7 7 29 14 11 49 35 28 51 40 32
60 49 39 118 109 86 60 40 32 7 7 6 23 13 9 36 30 24 16 19 17 18 17 16
27 34 31 165 180 156 209 224 212 159 131 109 185 157 113 122 97 78
84 88 85 87 120 126 81 122 135 90 117 120 52 42 34 53 45 39 49 48 51
87 85 85 68 70 73 46 59 71 14 61 105 14 46 81 13 26 59 13 61 122
12 55 135 11 36 118 11 21 87 6 10 60 2 2 26 1 1 8 0 0 1 0 0 1 0 0 0
0 0 0 0 0 0 0 0 0 0 0 0 0 0 0 0 0 0 0 0 0 0 0 0 2 2 2 10 11 12
21 12 11 31 24 20 52 61 52 53 57 49 110 86 70 52 42 34 10 15 11
37 19 15 42 33 25 83 70 58 138 104 86 59 57 51 152 176 147
172 211 194 134 177 167 135 173 161 141 183 182 132 181 184
117 171 179 129 169 178 113 118 112 17 15 14 0 4 7 2 3 6 18 17 22
62 64 66 58 60 62 38 92 123 16 113 187 17 87 152 11 75 149 14 52 130
12 40 116 11 26 96 6 10 61 2 2 28 1 1 7 0 0 1 0 0 1 0 0 0 0 0 0 0 0 0
0 0 0 0 0 0 0 0 0 0 0 0 0 0 0 0 0 0 1 2 2 7 9 9 17 18 19 22 21 21
31 42 39 57 71 61 68 54 44 34 38 30 16 41 37 34 16 12 57 34 23
95 82 69 214 173 134 77 77 70 92 126 117 185 226 206 169 206 192
178 209 200 194 222 219 144 191 195 158 195 202 144 140 131 20 22 22
0 2 4 5 6 7 16 28 40 54 83 91 36 86 101 31 94 117 23 108 146
17 108 180 14 102 179 14 81 153 17 67 141 14 42 120 12 27 96 7 12 60
4 5 26 2 2 7 0 0 2 0 0 0 0 0 0 0 0 0 0 0 0 0 0 0 0 0 0 0 0 0 0 0 0
0 0 0 0 0 0 1 1 2 2 3 3 10 10 11 17 19 20 27 37 37 44 68 61 48 74 67
39 49 43 28 70 65 64 66 49 62 53 42 29 31 27 53 52 41 31 36 39
39 62 67 111 145 135 177 212 198 202 227 223 172 196 196 150 191 194
137 140 131 62 78 77 39 70 81 21 29 35 0 0 0 42 82 109 57 126 142
16 105 128 26 114 147 28 109 152 27 101 150 23 72 110 21 79 133
19 60 117 18 51 114 14 28 83 7 11 53 3 3 27 2 2 10 0 0 2 0 0 0 0 0 0
0 0 0 0 0 0 0 0 0 0 0 0 0 0 0 0 0 0 0 0 0 0 0 0 0 0 0 5 6 8 3 5 6
11 14 14 30 46 46 34 60 57 37 63 60 47 85 78 73 97 75 80 83 66
30 46 47 19 28 28 20 29 30 24 32 33 18 28 28 27 54 55 104 138 132
164 183 177 37 33 32 89 98 98 90 120 116 87 139 145 52 98 112
29 49 63 75 93 102 71 124 142 26 114 133 22 118 142 24 115 152
21 109 152 21 109 157 19 75 109 12 74 128 15 63 121 16 57 112
12 33 96 6 11 55 1 1 22 1 1 6 0 0 2 0 0 0 0 0 0 0 0 0 0 0 0 0 0 0
0 0 0 0 0 0 0 0 0 0 0 0 0 0 0 0 0 0 1 2 2 3 4 5 8 11 12 29 43 44
28 49 50 25 44 43 41 84 82 66 88 72 22 29 28 41 46 44 34 43 42
26 29 26 70 68 62 20 35 35 18 33 33 55 81 76 94 118 116 79 53 45
132 115 108 123 179 183 62 127 142 21 73 94 56 69 76 91 74 71
85 119 126 35 142 163 34 138 160 50 140 163 65 133 152 51 115 136
30 77 96 43 99 130 29 86 129 19 62 115 14 35 90 7 11 54 2 2 27 1 1 6
0 0 0 0 0 0 0 0 0 0 0 0 0 0 0 0 0 0 0 0 0 0 0 0 0 0 0 0 0 0 0 0 0
0 0 0 1 1 1 2 2 3 5 8 10 19 27 29 20 32 35 26 57 60 32 77 76 45 92 85
21 45 45 33 48 41 39 51 46 47 47 44 103 93 82 20 32 27 2 11 8
63 84 76 133 153 133 79 73 62 112 113 94 135 161 154 68 119 126
33 94 101 63 77 80 97 53 39 80 114 119 62 175 189 79 169 181
83 142 147 54 98 104 47 108 114 37 95 103 51 84 92 72 124 142
44 101 141 32 74 121 18 35 77 3 5 29 1 1 6 1 0 2 0 0 0 0 0 0 0 0 0
0 0 0 0 0 0 0 0 0 0 0 0 0 0 0 0 0 0 0 0 0 0 0 0 0 0 0 2 2 2 6 7 10
13 26 28 27 58 59 34 67 68 31 62 60 29 50 49 17 33 30 46 71 66
107 94 88 48 36 32 70 58 55 75 75 68 38 87 77 104 131 119 87 91 64
83 87 64 56 61 41 73 88 75 85 109 102 94 113 102 87 89 90 42 47 51
94 105 108 84 128 133 63 100 103 55 94 98 34 77 83 41 140 143
44 144 143 32 60 70 47 85 93 38 76 85 49 84 97 43 73 98 4 7 32 1 1 5
0 0 2 0 0 0 0 0 0 0 0 0 0 0 0
