P3
120 68
255
152 139 122 152 139 122 153 140 122 153 140 123 154 141 124
154 141 123 153 140 123 153 140 122 153 140 123 152 139 122
153 140 122 153 140 123 153 140 123 153 140 123 153 140 122
153 140 123 153 140 122 153 139 122 152 139 122 152 139 122
153 140 121 153 140 123 153 140 124 153 140 122 153 139 122
152 139 123 152 139 122 153 140 122 153 140 124 153 140 123
153 140 123 153 140 123 153 140 123 153 140 122 153 140 122
153 140 122 153 140 123 153 140 122 152 139 122 156 140 122
156 141 122 158 143 124 158 144 123 157 145 123 157 145 124
158 145 125 157 144 123 157 144 124 157 144 124 157 143 123
159 144 123 159 144 123 158 144 124 157 144 123 158 143 122
159 143 123 159 144 125 156 142 123 153 140 123 153 140 123
153 139 123 153 138 123 154 139 124 155 140 125 155 140 124
154 139 124 155 139 124 154 139 124 155 140 124 155 139 124
154 139 122 152 139 121 152 140 120 154 140 121 153 139 121
153 139 123 153 140 123 153 140 121 153 140 123 153 140 124
155 141 122 156 140 120 154 140 120 153 139 122 152 139 123
152 139 122 154 141 122 153 140 123 153 140 123 153 140 122
153 139 122 152 139 123 152 139 122 153 140 122 153 140 123
153 140 124 153 140 122 152 139 121 152 139 122 152 139 122
153 140 121 153 140 123 153 140 123 153 140 123 153 140 122
153 140 122 152 140 122 152 139 122 153 140 122 153 140 123
153 140 123 153 140 123 153 140 121 153 140 123 153 140 124
153 140 123 153 140 122 153 140 122 153 140 122 153 140 122
153 140 123 154 141 124 154 141 124 154 141 123 154 141 124
154 141 124 154 141 121 154 141 122 154 141 123 154 141 124
155 142 124 155 142 124 154 142 124 155 142 125 154 141 123
154 141 122 154 141 122 155 142 123 154 141 124 155 141 124
157 142 123 157 142 123 157 143 123 158 143 123 156 142 123
156 143 124 156 143 124 155 142 123 155 142 122 157 142 123
158 143 123 156 143 123 155 143 123 156 143 124 156 142 124
154 142 122 155 142 122 154 141 122 153 140 122 154 141 122
154 141 123 155 141 123 157 143 125 157 144 125 157 144 124
157 144 125 157 143 125 156 144 123 156 143 123 157 143 125
158 143 123 159 144 124 158 143 124 156 143 122 158 143 123
158 144 125 158 143 124 156 143 124 154 141 122 152 139 121
152 140 123 153 139 123 153 139 123 153 140 123 154 139 124
153 139 123 154 139 124 152 139 123 153 140 123 155 140 124
153 140 123 154 141 122 154 141 122 155 142 123 155 142 123
155 141 123 153 140 121 155 141 122 155 141 121 157 143 123
159 144 124 159 144 123 157 143 121 156 142 122 154 141 123
154 141 124 155 141 124 157 142 123 157 143 123 158 143 124
158 143 123 156 142 123 157 142 123 158 143 123 157 143 123
156 143 123 156 143 123 155 142 123 154 141 124 154 141 124
155 143 123 155 143 123 155 142 123 155 142 124 155 142 123
154 141 122 156 143 123 155 143 123 155 142 124 154 141 123
156 143 124 155 142 124 155 142 124 154 141 124 155 142 124
154 141 124 154 141 122 154 141 122 153 139 122 153 140 121
160 145 124 159 144 125 157 143 124 157 143 125 156 143 124
156 143 124 156 143 124 156 143 124 157 144 125 157 144 125
157 144 125 157 144 125 157 144 124 156 143 124 156 143 125
156 143 124 158 143 124 160 145 126 159 144 125 159 144 124
160 144 125 159 144 123 160 145 122 160 145 122 159 144 123
158 145 123 158 145 125 156 144 123 156 143 122 159 144 122
160 144 121 159 144 123 159 145 123 159 144 123 157 144 124
156 144 122 156 144 123 156 143 124 154 141 124 154 141 124
154 141 123 153 140 123 155 143 125 156 143 125 156 143 124
156 143 125 155 142 125 155 142 123 155 141 123 156 141 125
155 142 123 155 141 122 155 141 122 155 142 123 156 143 124
155 142 123 155 142 124 155 142 124 155 142 124 154 141 124
154 141 124 154 141 124 154 141 124 153 140 124 154 141 125
154 141 124 154 141 123 154 141 124 155 142 124 155 142 125
155 142 125 156 143 125 157 144 125 157 144 125 155 143 124
155 140 121 156 140 121 156 141 121 157 142 121 159 144 122
160 145 124 159 144 123 159 144 122 159 144 123 159 144 124
157 144 125 158 144 124 160 145 123 160 145 123 160 145 123
159 145 122 159 144 123 160 145 124 159 144 122 159 144 121
159 144 123 158 144 123 157 145 124 157 145 125 158 144 124
158 145 124 157 145 125 156 144 123 156 143 124 156 143 124
159 144 124 159 144 123 158 145 123 157 144 125 157 143 124
160 145 126 159 144 125 158 143 124 157 144 126 156 143 124
156 143 123 155 143 123 155 142 123 156 141 124 154 141 123
159 146 125 159 144 124 159 144 126 159 144 125 157 144 125
156 143 124 156 143 124 157 144 125 157 144 125 157 144 125
157 144 125 157 144 124 156 143 123 155 142 124 156 143 124
157 144 125 158 144 125 159 144 125 158 144 125 158 144 125
158 144 125 159 144 124 160 145 124 159 144 123 159 144 123
158 143 123 159 144 125 157 144 124 156 143 124 158 144 124
160 145 124 159 144 124 159 144 124 159 144 123 158 144 123
157 144 123 157 144 125 156 143 124 155 142 123 154 141 123
153 140 123 154 141 123 155 141 125 155 142 125 156 143 125
156 143 125 154 141 125 153 140 122 152 139 122 152 139 122
152 139 123 152 140 121 152 139 121 153 140 121 153 140 122
151 138 121 151 138 122 152 139 123 153 140 123 155 141 125
154 141 124 155 142 125 155 142 125 154 141 124 154 141 124
155 142 125 156 143 125 156 143 125 156 143 125 156 143 125
157 144 126 157 144 125 157 143 125 157 141 123 155 141 121
157 142 121 158 143 122 158 143 122 159 144 123 159 144 123
160 145 124 160 145 124 160 145 123 160 145 124 159 144 123
158 144 124 159 144 125 160 145 124 159 144 124 160 145 124
159 144 123 160 145 124 160 145 124 160 145 124 160 145 124
160 145 124 159 144 123 158 144 125 159 144 124 159 144 123
159 144 124 158 144 125 157 144 124 156 143 124 156 143 124
159 144 124 159 144 124 159 144 125 157 144 125 158 144 125
158 144 125 158 144 125 158 144 125 159 146 126 156 143 124
155 142 124 156 143 124 157 144 124 155 142 125 154 141 124
157 144 125 155 142 124 155 142 124 156 143 124 156 143 124
155 142 123 156 143 124 156 143 124 156 143 124 156 143 125
156 143 124 155 142 124 154 142 124 154 141 124 155 142 123
155 142 123 156 143 124 156 143 124 156 144 125 155 142 123
155 142 123 158 143 124 159 144 124 159 144 124 159 144 124
157 144 125 159 143 124 157 143 124 156 143 124 155 142 123
157 143 125 157 143 124 158 143 124 158 144 124 157 143 123
158 143 123 156 143 124 155 142 124 155 142 124 154 141 123
154 139 124 154 139 124 155 138 124 155 139 124 154 140 124
153 140 123 152 139 122 151 138 122 150 137 121 149 137 120
150 136 120 152 138 121 150 137 120 150 137 119 149 136 120
150 137 121 150 137 120 150 137 121 151 138 121 153 138 122
153 138 123 152 139 123 152 139 123 151 138 122 150 137 122
151 137 121 152 139 123 153 140 124 153 140 124 154 141 124
155 142 125 156 143 124 156 141 122 157 141 122 158 143 122
158 143 122 158 143 122 159 144 123 159 144 123 159 144 124
158 144 125 159 144 124 159 144 123 159 144 123 159 144 124
159 144 124 159 144 124 160 145 125 159 144 125 158 143 124
159 144 123 159 144 124 158 143 125 159 144 124 160 145 124
159 144 123 159 144 123 159 144 124 159 144 123 159 144 123
157 143 124 157 143 124 156 142 124 155 142 123 155 142 123
156 143 124 156 143 124 156 142 123 156 143 124 156 143 125
155 142 124 156 143 124 156 143 124 156 143 125 156 143 125
156 143 125 157 144 125 157 144 125 156 143 125 155 142 125
156 143 125 156 143 125 156 143 124 157 144 125 157 144 125
157 144 125 157 144 125 156 143 125 154 141 125 155 142 125
154 141 123 154 141 124 155 142 125 156 143 125 156 143 125
157 144 125 157 144 125 157 144 125 157 144 125 156 143 124
156 143 124 157 144 125 156 143 124 157 143 124 157 143 125
157 144 125 157 143 124 157 144 125 156 143 124 155 142 123
157 144 125 156 143 124 155 142 124 156 142 124 156 143 123
157 144 124 157 144 125 155 142 123 153 140 122 153 139 122
153 139 123 154 138 122 154 138 122 154 138 122 153 137 122
151 137 121 150 136 121 152 137 121 152 137 121 151 137 121
151 136 119 150 134 118 152 137 120 151 138 121 150 137 119
152 139 122 152 139 122 151 138 121 152 139 121 152 139 122
151 138 122 152 139 123 152 139 122 151 138 121 150 137 120
150 136 120 150 137 120 150 137 121 151 138 122 152 139 122
151 138 122 154 139 122 157 142 121 158 143 122 158 143 122
159 143 123 159 144 123 159 144 123 159 144 123 158 144 124
156 144 124 157 143 123 158 143 123 159 144 123 159 144 125
158 144 124 159 143 122 159 144 124 156 143 123 157 144 124
158 143 122 159 144 123 157 143 124 157 144 125 159 144 124
159 144 123 158 144 124 158 144 124 160 144 124 159 144 124
156 143 124 155 142 125 156 143 125 156 143 124 157 144 125
157 144 125 155 143 124 157 144 125 157 144 125 156 143 125
155 142 125 157 144 125 156 143 124 155 142 125 156 143 125
157 144 124 156 143 124 156 143 124 156 143 124 155 142 124
156 143 125 157 145 124 156 144 123 157 144 125 156 143 124
157 144 125 156 143 124 156 143 124 155 142 124 154 141 124
153 140 122 154 141 124 155 142 125 156 143 124 157 144 124
156 143 124 157 144 125 157 144 125 156 143 124 156 143 124
156 143 124 156 143 124 155 142 123 156 143 124 156 143 124
156 143 124 156 143 124 156 143 124 156 143 124 155 142 123
157 144 125 156 143 124 155 142 123 154 141 124 155 142 124
156 143 124 156 143 125 155 142 123 154 141 122 153 140 122
153 140 123 155 139 123 155 139 122 154 139 122 154 139 121
153 137 120 153 137 121 154 138 122 153 137 120 152 137 118
151 136 117 151 135 119 153 137 121 153 139 122 152 139 121
152 139 122 152 139 122 152 139 122 152 139 122 152 139 123
152 139 123 152 139 122 153 140 123 152 139 122 151 138 120
151 138 121 152 139 122 151 138 121 152 139 123 153 140 123
151 138 122 152 139 122 155 141 123 157 142 124 157 143 123
157 143 124 157 143 124 157 143 124 157 143 124 157 143 124
157 143 124 157 142 125 157 142 123 158 143 124 157 142 124
156 143 123 158 143 125 157 143 124 156 143 122 157 142 125
157 141 124 158 142 123 157 143 124 157 142 125 156 142 123
158 143 124 157 143 123 157 143 122 157 143 124 157 143 124
155 142 125 155 142 126 157 144 125 156 144 124 156 143 125
156 143 124 157 144 125 157 144 125 156 143 124 156 143 124
156 143 123 156 143 124 155 142 123 155 142 123 154 142 122
154 142 121 154 141 122 153 140 121 154 141 122 152 139 122
154 142 123 155 142 122 154 142 121 155 142 122 154 141 122
155 142 123 154 142 122 155 142 123 154 141 123 154 140 123
153 140 122 152 140 122 154 141 124 155 142 122 155 143 121
155 142 123 155 142 123 155 142 123 155 142 123 154 142 122
153 140 121 153 140 121 153 140 121 153 140 121 153 140 121
153 140 121 153 140 121 154 141 122 154 141 122 153 140 122
153 140 123 155 142 123 154 141 123 153 140 124 152 140 121
154 141 123 155 142 124 155 142 125 155 143 124 154 142 124
153 140 124 154 139 123 155 139 122 155 140 121 154 140 121
154 139 120 154 138 122 153 138 120 153 138 119 154 139 118
154 139 118 154 139 120 153 138 120 154 138 121 155 139 124
153 140 123 154 141 122 154 140 124 153 140 123 154 141 123
153 140 122 153 140 122 153 139 122 153 139 122 152 139 122
151 139 122 152 139 122 152 139 123 153 140 123 153 140 123
153 140 124 152 139 122 153 140 123 155 142 124 154 142 124
154 141 122 154 141 123 155 142 124 155 142 125 155 142 122
154 141 124 154 140 123 154 141 122 154 141 122 155 141 122
155 142 123 155 142 124 155 142 124 154 141 124 154 140 123
154 140 124 155 141 123 154 141 123 154 140 123 154 140 122
154 141 122 154 141 122 154 141 123 153 140 123 152 139 120
153 140 122 154 141 123 155 142 123 155 142 122 155 142 123
155 142 123 154 141 122 155 142 123 155 142 123 154 141 122
154 141 122 154 141 122 154 141 122 153 140 122 152 139 121
152 139 120 152 138 119 150 137 119 149 136 119 147 134 118
151 138 118 151 138 118 152 138 120 151 138 118 151 138 119
151 138 119 152 138 118 152 138 119 151 136 118 153 138 118
152 138 118 153 138 120 153 138 119 153 140 121 152 138 120
151 137 118 151 137 118 151 138 119 151 137 119 150 137 119
149 136 118 148 135 118 148 135 118 150 136 119 149 136 118
148 135 117 149 136 118 149 136 117 150 137 118 148 135 118
148 135 118 151 137 119 151 137 120 151 137 121 151 138 120
152 138 119 154 140 121 153 140 122 155 142 122 154 141 123
154 140 122 155 140 124 156 141 122 155 141 122 153 140 122
156 141 122 156 141 122 155 140 122 156 141 121 157 142 121
157 142 122 156 141 121 156 141 121 155 140 121 156 141 122
156 141 123 157 142 123 157 142 124 156 142 124 156 141 122
156 141 122 156 141 122 155 140 120 154 138 121 153 139 123
153 140 123 154 141 122 153 140 122 153 140 122 153 140 123
153 140 122 152 139 122 154 139 123 155 139 123 152 138 122
152 137 121 154 138 122 154 138 123 153 139 123 152 139 122
152 139 122 152 138 121 151 138 121 151 138 121 153 139 120
153 140 122 152 139 123 152 139 123 152 139 123 151 138 122
151 138 121 152 139 122 151 138 121 151 138 120 151 138 122
152 139 121 151 138 121 152 139 122 151 138 121 150 137 120
152 139 121 153 140 121 152 139 120 152 139 120 151 138 119
151 138 119 151 138 119 151 138 119 151 138 120 151 138 119
149 136 118 148 135 116 149 136 118 147 135 117 146 133 116
146 133 115 142 129 112 142 129 113 146 133 117 147 134 118
151 136 114 151 135 116 152 136 117 152 136 116 152 137 115
152 137 115 153 137 115 153 137 115 154 138 116 153 137 115
153 137 115 153 137 115 153 137 115 153 138 117 152 137 118
152 137 117 151 136 117 151 136 116 150 135 117 147 134 115
146 134 114 146 132 115 144 131 114 145 131 114 146 131 115
146 131 114 145 130 114 144 128 112 144 129 112 145 130 112
145 131 112 146 131 112 150 135 116 152 136 119 153 137 118
153 138 118 155 140 121 155 140 120 156 141 120 156 141 122
156 141 123 157 142 123 157 142 123 157 142 122 157 142 122
158 143 122 158 143 122 157 142 123 158 143 123 159 144 122
159 144 122 159 144 121 159 144 122 158 143 122 158 143 122
158 143 122 159 144 124 159 144 124 159 144 122 158 143 123
158 143 122 159 144 121 158 143 122 157 141 121 156 142 122
155 142 123 155 142 123 154 141 122 154 141 122 153 140 122
154 141 122 153 140 123 154 139 123 153 139 123 154 139 122
153 138 122 153 138 120 153 137 122 154 137 122 153 138 123
153 137 122 153 137 122 153 138 121 154 138 122 155 139 121
153 137 120 151 138 121 151 137 122 150 137 121 149 137 121
149 136 120 150 137 120 150 137 120 148 135 118 149 136 120
149 136 120 149 136 120 150 137 120 150 137 120 150 137 120
150 137 120 150 137 120 150 137 120 150 137 118 149 136 117
149 136 118 149 136 118 148 135 118 148 135 118 148 135 117
147 134 115 147 134 115 145 132 115 144 131 114 145 130 114
143 129 113 139 127 112 137 125 108 138 125 109 140 126 111
152 137 114 153 137 115 153 137 114 153 137 114 154 138 114
154 138 115 154 138 116 155 139 116 156 140 116 154 138 115
155 139 116 154 137 116 155 139 116 153 138 115 153 138 116
154 139 118 152 137 117 152 137 118 151 136 117 149 136 116
148 134 116 146 131 115 147 131 116 145 130 114 146 129 114
146 130 113 145 130 113 146 130 113 146 130 113 147 132 113
149 134 114 150 135 115 152 137 117 152 138 118 154 139 118
155 140 119 156 141 120 157 142 121 157 142 121 158 143 122
158 143 124 158 143 123 159 144 123 159 144 123 159 144 123
159 144 123 160 145 124 159 144 123 159 144 123 159 144 123
159 144 121 159 144 123 160 145 124 160 145 124 160 145 125
160 145 124 160 145 124 159 144 123 159 144 123 159 144 123
160 145 124 159 144 123 159 144 122 159 144 121 159 144 123
157 144 123 158 144 124 156 143 124 156 143 123 155 143 123
155 142 123 154 141 124 154 141 125 153 141 123 154 139 124
155 138 123 154 139 122 155 139 123 155 139 123 155 139 123
153 138 122 154 138 122 154 138 122 154 138 122 154 138 122
154 138 122 153 137 122 153 137 122 152 136 121 152 137 121
152 138 121 150 137 120 150 137 120 149 136 119 149 136 120
150 137 121 150 137 121 150 137 121 151 138 121 151 138 122
150 137 121 149 136 121 150 137 120 150 137 119 149 136 117
150 137 118 150 137 120 150 137 120 150 137 120 150 137 119
150 137 118 149 136 117 148 135 118 149 133 118 148 132 117
146 133 117 145 132 116 142 129 113 140 128 111 137 125 109
154 139 115 154 139 116 154 139 116 155 139 116 155 139 116
155 139 116 155 139 116 156 140 117 156 140 116 155 139 116
156 140 117 157 141 118 157 141 118 156 141 118 155 140 117
154 139 118 153 138 117 153 138 118 152 137 116 151 136 116
150 135 118 149 133 118 149 133 118 148 132 117 147 132 116
148 132 115 148 133 114 148 133 114 150 134 116 151 135 117
153 138 117 154 139 119 155 140 120 155 140 120 157 142 121
157 142 121 158 143 122 158 143 122 159 144 123 160 145 123
160 145 123 161 146 124 161 146 125 161 146 125 161 146 124
160 145 124 160 145 125 160 145 125 160 145 125 160 146 124
159 145 123 160 145 124 160 145 125 160 145 124 160 145 124
159 144 126 160 145 125 159 144 123 159 144 124 160 145 124
160 145 124 160 145 124 160 145 123 160 145 123 159 144 123
159 144 123 158 145 126 157 144 123 156 143 123 156 143 124
156 143 123 154 141 123 153 140 123 153 141 122 153 140 124
155 139 124 155 139 124 155 138 123 155 139 124 155 139 123
153 139 123 154 139 123 155 139 123 155 139 123 154 139 121
154 138 122 154 138 122 153 137 121 152 137 121 154 138 122
153 138 121 151 138 120 151 138 121 151 138 121 151 138 120
151 138 121 151 138 121 151 138 121 152 139 123 152 139 123
151 138 122 152 139 122 151 138 122 152 139 120 152 139 121
153 140 122 153 140 124 153 140 123 154 141 122 154 141 122
154 141 122 153 140 122 152 139 123 152 138 122 150 137 121
149 136 120 147 134 118 146 133 117 144 132 116 142 130 115
154 139 116 154 139 116 156 140 118 156 140 117 156 140 117
156 140 117 156 140 117 157 142 118 157 141 118 158 142 118
157 142 119 157 142 119 157 142 119 157 142 119 157 142 120
156 141 120 155 140 120 154 139 118 153 138 117 152 137 117
151 136 116 151 136 119 151 135 120 150 134 120 149 133 118
150 134 118 150 134 118 150 135 117 152 137 118 153 138 119
154 139 120 156 141 122 157 142 123 158 143 122 158 143 122
159 144 123 159 144 123 159 144 123 161 146 124 161 146 124
161 146 124 161 146 124 162 147 125 162 147 126 162 147 126
162 147 126 162 147 126 161 146 127 159 146 126 160 146 125
159 146 124 159 145 123 159 145 126 159 146 126 159 144 125
158 144 125 158 144 125 158 145 124 159 146 125 160 145 125
159 144 124 159 144 124 160 145 124 159 144 123 159 144 123
158 144 124 159 144 124 158 144 123 156 143 124 156 143 124
155 142 123 155 142 123 153 140 123 153 140 123 153 140 124
154 139 124 156 139 124 155 139 124 154 138 123 154 138 123
155 139 124 155 140 124 155 139 123 155 139 124 155 140 123
154 139 121 154 140 121 154 138 121 152 138 121 153 138 120
153 138 120 152 139 120 152 139 122 152 139 122 151 138 121
152 139 122 152 139 122 152 139 122 152 139 123 153 140 123
152 139 123 152 139 122 154 141 124 154 142 123 154 141 124
155 142 125 155 142 125 156 143 125 156 143 124 157 144 125
157 144 125 156 143 125 154 141 125 153 140 123 152 139 123
150 138 122 149 137 121 148 136 120 147 134 120 145 133 119
154 139 117 155 140 117 156 141 118 157 141 118 158 142 119
158 142 119 159 143 119 159 144 120 159 144 121 160 146 120
159 144 120 158 143 121 159 144 121 159 144 121 158 143 121
157 142 123 158 143 123 157 142 121 157 142 121 155 140 119
155 140 118 154 139 121 153 137 122 153 137 122 152 136 118
152 136 120 151 136 120 152 136 119 153 138 120 155 140 122
156 141 122 158 143 122 158 143 123 159 144 123 158 143 123
158 143 122 159 144 123 159 144 123 159 144 124 160 145 125
161 145 125 161 146 125 162 147 126 162 147 126 161 147 125
160 146 125 158 146 124 158 146 124 159 145 123 160 144 124
158 145 125 157 145 125 157 144 125 158 145 126 158 144 125
156 144 123 157 145 123 157 145 125 158 145 124 157 145 123
157 144 125 157 143 124 159 144 123 159 144 123 159 144 124
157 144 124 158 143 122 158 143 123 156 143 124 156 143 124
154 141 123 153 140 123 152 139 123 153 138 123 153 138 123
154 139 124 156 140 125 155 139 124 154 138 124 155 139 124
155 139 124 156 140 124 155 140 124 155 139 124 156 141 122
155 141 121 153 140 122 154 140 121 154 139 120 153 139 121
152 139 122 152 140 122 153 140 122 153 140 122 153 140 123
153 140 123 153 140 123 153 140 122 152 139 122 153 140 123
153 140 122 152 139 122 153 140 123 154 141 123 154 141 124
155 142 124 156 143 125 157 144 125 156 144 124 157 144 124
157 144 125 156 143 124 155 142 124 155 142 125 153 140 124
152 139 122 150 137 121 148 135 119 148 135 119 148 134 118
155 140 117 155 140 117 157 142 119 158 143 120 158 142 119
159 144 121 159 144 121 159 144 121 161 146 123 162 147 124
161 145 123 160 145 123 159 144 123 159 144 122 159 144 121
159 144 122 159 144 122 158 143 122 158 143 123 157 142 121
157 142 121 156 141 121 156 140 122 154 139 121 154 139 121
153 138 121 152 137 121 153 137 121 152 138 120 155 140 122
156 142 121 157 143 123 158 143 124 159 143 124 158 144 124
158 143 123 157 143 122 158 143 122 159 144 124 159 144 125
160 145 126 159 146 126 159 146 126 161 146 125 159 147 125
159 146 126 158 145 124 158 146 123 157 145 123 157 144 124
157 144 125 157 144 125 157 144 125 157 144 125 157 144 125
156 143 125 156 143 125 157 144 125 157 144 124 157 144 124
156 143 124 157 143 124 157 142 123 158 143 123 159 144 125
156 143 123 156 143 123 157 144 125 156 143 124 156 143 124
155 142 123 153 140 121 152 139 122 152 139 123 152 139 123
153 140 124 153 140 124 153 140 124 153 140 123 154 139 123
153 140 123 155 140 124 155 142 125 155 141 124 155 141 122
154 141 122 155 141 122 156 141 121 155 140 122 155 141 122
154 141 123 153 140 123 154 141 124 154 141 123 155 142 124
155 142 125 155 142 123 154 141 123 153 140 121 152 140 121
153 140 121 153 140 123 153 140 122 154 140 123 153 140 122
154 141 124 155 142 124 156 143 125 156 144 122 156 143 124
156 143 124 156 143 124 154 141 124 154 141 124 153 140 122
151 138 121 151 137 121 148 135 119 147 134 119 147 134 118
155 140 118 156 141 119 158 144 118 160 145 120 158 143 120
159 145 122 159 144 121 159 145 121 161 146 123 161 146 123
161 146 123 160 145 121 159 144 122 159 144 122 158 143 120
159 144 121 159 144 123 159 144 123 159 144 122 158 143 120
158 143 122 158 143 122 157 143 122 157 142 124 157 141 124
156 141 123 155 139 123 155 139 123 153 139 122 155 140 122
153 140 122 154 141 123 156 143 124 156 143 124 155 142 124
155 143 124 155 142 125 156 143 124 157 143 124 158 144 125
157 144 125 158 145 125 158 145 127 159 146 127 159 146 127
159 146 127 158 145 125 158 145 124 157 145 124 156 144 124
157 144 125 157 144 125 156 143 124 156 143 125 155 142 124
156 143 125 156 143 125 156 143 124 155 142 124 155 142 124
155 142 123 155 140 123 156 141 123 156 142 123 156 142 123
155 142 123 156 143 124 156 143 124 157 144 125 157 144 125
156 143 124 154 141 122 154 141 123 153 140 124 154 141 124
153 140 124 154 140 124 153 140 124 153 141 123 153 140 123
153 140 123 155 142 124 155 141 124 155 142 124 155 143 123
155 142 123 157 143 124 157 142 125 157 143 126 156 143 124
157 144 124 155 142 124 156 143 125 156 143 125 156 143 125
156 143 124 156 143 124 156 142 124 157 143 124 155 142 123
154 141 123 154 140 124 153 140 123 153 140 121 153 140 121
153 140 122 154 141 122 153 141 121 153 140 121 153 140 121
153 140 121 153 140 121 152 139 122 152 139 122 151 138 119
150 137 121 150 137 121 148 135 118 147 134 117 146 133 117
155 140 120 157 142 120 158 144 120 160 146 121 161 146 123
160 145 123 160 145 122 161 147 121 161 146 122 161 146 123
161 146 123 162 147 124 160 145 122 160 145 122 159 144 120
159 144 121 160 145 122 160 145 122 160 145 121 160 145 122
160 145 124 160 145 124 161 146 125 160 145 126 159 145 126
158 144 125 158 143 124 157 141 125 154 141 124 155 141 124
153 140 124 154 141 124 153 140 123 152 139 123 152 139 123
154 140 124 154 141 124 154 142 125 155 142 125 155 142 125
155 142 125 156 143 126 158 145 128 158 145 127 157 146 126
159 146 128 158 145 127 158 145 127 157 144 125 156 143 123
156 143 124 155 142 123 154 141 122 154 141 124 154 141 124
156 143 123 156 143 124 156 143 124 155 142 125 154 141 124
153 140 122 152 139 122 152 139 122 152 140 123 153 140 121
153 140 121 154 141 123 155 142 124 156 143 125 156 143 125
156 143 124 155 142 123 154 141 124 154 141 124 153 140 123
154 141 124 154 141 125 154 141 125 153 140 124 154 141 124
155 142 125 157 143 127 157 144 128 158 145 126 157 144 125
158 145 126 158 145 126 157 144 127 158 145 127 157 144 126
157 144 127 157 144 126 157 144 126 158 145 126 157 144 125
157 144 125 156 144 124 156 143 123 157 144 125 156 143 124
156 143 124 154 141 124 153 140 123 153 140 122 152 139 120
152 139 120 151 138 120 151 138 120 150 137 118 150 137 118
150 137 119 149 136 118 149 136 119 151 138 120 150 137 120
150 137 120 150 137 119 149 136 117 147 134 116 145 132 116
157 142 120 157 142 120 159 144 121 160 145 122 162 147 123
163 148 123 162 148 123 161 147 123 162 147 124 162 147 124
161 146 123 162 147 124 162 147 124 161 146 123 161 146 123
161 146 123 159 144 121 161 146 123 161 146 123 161 146 123
162 147 124 163 148 127 163 148 127 163 148 129 161 148 128
160 147 127 160 146 127 159 145 127 157 144 125 156 144 125
155 142 125 154 141 124 152 139 122 151 138 122 150 138 121
153 138 122 152 138 122 152 139 123 152 139 123 153 140 124
153 140 124 153 140 124 155 142 125 155 142 126 155 142 126
156 143 127 156 143 126 156 143 126 155 142 124 155 142 123
155 142 124 155 142 124 154 141 123 153 140 123 153 140 124
153 141 123 154 143 124 155 142 125 153 140 124 152 139 122
151 138 121 150 137 121 149 136 120 150 137 121 151 138 120
152 139 121 152 139 122 154 141 122 155 142 123 155 143 124
155 142 123 154 141 123 153 140 124 153 140 123 153 140 123
154 141 124 155 142 125 155 142 126 156 142 126 157 142 127
157 143 127 157 144 128 158 145 129 159 146 128 159 146 126
159 146 127 159 146 127 159 146 127 158 145 128 158 145 128
159 146 128 158 145 127 158 145 128 158 145 126 158 145 126
157 144 125 158 145 126 157 144 125 157 144 125 156 143 124
155 142 124 153 140 122 152 139 121 151 138 120 150 137 120
150 137 120 150 137 118 150 137 120 149 136 119 148 135 117
148 135 118 148 135 118 150 137 120 151 138 120 153 140 121
152 139 121 152 139 121 149 136 117 147 135 117 147 132 117
160 145 121 160 145 120 160 146 120 162 147 124 163 148 125
163 149 124 163 149 125 163 148 125 162 147 124 162 147 124
162 147 124 162 147 124 162 147 125 162 146 124 160 145 124
160 145 122 160 145 123 161 146 123 161 146 123 161 146 124
162 147 124 164 148 127 164 149 129 163 149 129 162 150 128
163 149 127 162 148 126 160 147 127 158 145 127 157 144 125
156 143 125 154 141 124 152 139 123 151 138 122 150 137 121
150 138 122 151 138 122 152 139 123 152 139 124 153 140 123
152 139 123 152 140 124 153 140 124 154 141 125 154 141 126
155 142 126 156 143 126 155 142 125 154 141 124 154 141 124
153 140 124 151 138 123 151 138 122 153 141 123 153 141 123
153 142 124 154 142 124 153 140 124 152 139 122 150 137 121
149 136 120 149 136 120 149 136 120 149 136 120 149 136 119
150 136 120 152 139 120 153 140 121 155 141 124 155 142 125
155 142 124 155 142 123 154 141 124 153 140 124 154 141 124
155 142 125 156 143 126 156 143 126 159 144 128 159 145 130
158 145 129 160 147 130 160 147 129 160 147 128 159 146 127
160 147 128 160 147 128 161 148 128 160 148 129 159 146 127
158 145 126 159 146 126 158 145 126 158 145 127 158 145 126
158 145 126 158 145 126 157 145 125 157 144 125 157 144 125
156 144 124 155 142 123 153 140 121 152 139 120 152 138 120
151 138 121 151 138 120 152 139 122 151 138 120 150 137 118
149 136 117 151 138 119 152 140 121 154 141 122 156 143 124
156 143 124 154 141 123 152 139 122 149 138 119 148 134 119
161 147 122 161 147 121 162 148 122 163 149 123 165 150 125
165 150 128 165 150 127 163 148 125 163 148 125 163 148 124
162 147 124 162 147 124 161 146 125 161 146 125 161 146 124
161 146 123 161 146 125 161 146 123 160 145 123 160 145 123
162 147 125 163 148 127 162 149 128 162 149 130 163 149 129
162 150 128 161 149 127 160 148 126 160 147 127 159 146 127
157 144 126 155 142 125 153 140 123 152 139 122 151 138 122
151 138 122 151 139 122 151 139 122 153 140 124 154 141 125
153 141 125 153 141 124 154 141 125 154 142 125 154 143 125
157 144 128 155 144 127 156 144 127 154 143 126 154 142 125
154 142 124 159 145 127 161 147 129 153 142 124 155 142 124
155 143 123 154 143 124 153 141 123 151 140 122 150 138 121
150 137 120 150 137 120 149 136 120 148 135 118 149 136 119
149 136 120 150 137 120 153 140 121 154 141 124 155 142 125
156 143 125 155 142 123 155 142 124 155 142 125 155 142 125
156 143 126 159 145 127 159 146 127 160 148 128 161 149 129
162 149 130 163 150 131 163 150 131 162 149 130 161 148 130
161 148 129 162 149 130 161 149 128 160 147 127 161 147 129
159 146 127 159 146 127 158 145 126 159 146 127 159 146 127
159 146 126 158 145 126 158 144 126 158 146 126 159 147 128
158 147 127 158 147 127 157 146 125 157 145 125 155 144 123
156 143 124 157 144 126 156 145 127 156 144 125 156 144 124
155 144 125 156 145 125 158 147 127 159 147 128 161 149 130
162 150 130 160 149 129 157 147 127 155 144 125 152 140 123
163 148 124 162 148 122 163 149 123 164 150 124 166 152 125
166 151 126 166 151 126 166 151 128 165 150 127 165 151 125
164 149 126 164 149 125 162 147 124 160 147 124 162 148 125
162 148 125 161 146 123 162 147 124 162 147 125 162 147 124
161 148 126 161 149 127 161 149 127 162 149 129 162 149 130
162 150 128 161 149 127 162 149 128 161 149 127 161 148 128
159 146 129 157 145 128 155 142 125 154 141 124 152 140 123
153 140 124 154 141 124 153 141 124 155 142 126 155 143 126
155 144 126 155 144 126 156 144 128 156 144 126 157 144 127
158 146 127 157 146 127 157 146 128 157 146 127 154 144 125
164 153 130 93 82 80 84 74 77 162 151 129 154 142 124 155 142 124
154 142 123 154 142 123 153 140 122 152 139 121 152 139 121
153 140 123 153 140 123 153 140 121 153 140 121 153 140 122
153 140 123 155 142 123 156 143 124 156 143 125 156 143 124
156 143 124 156 143 124 156 143 124 157 144 126 159 146 127
161 147 128 163 150 130 163 151 128 164 152 129 165 152 130
164 151 130 163 150 129 162 150 131 162 149 131 162 149 130
162 149 130 161 148 129 161 148 129 160 147 128 159 147 128
159 146 127 159 146 127 160 147 128 161 148 129 159 147 128
159 146 127 159 146 127 159 148 128 159 148 128 160 149 129
161 148 131 160 148 129 159 148 128 159 148 129 159 148 129
160 149 130 162 151 132 162 151 131 163 152 130 164 152 132
163 153 132 164 154 133 166 156 134 167 156 133 166 155 133
165 153 132 161 151 131 158 148 128 156 144 125 164 150 125
164 150 124 165 151 125 166 152 126 166 152 126 166 153 126
167 153 127 166 152 127 166 152 126 166 151 127 165 150 126
165 150 126 164 149 124 163 148 125 163 148 125 163 148 125
164 149 126 164 149 126 164 149 126 163 148 125 163 149 126
162 150 128 162 150 128 161 149 127 162 150 129 162 150 128
162 150 128 163 150 130 162 150 129 161 149 127 162 149 130
160 147 128 159 146 127 158 145 128 157 145 128 156 144 127
156 145 127 156 144 128 157 145 127 158 146 128 158 147 128
159 147 129 158 146 129 159 147 129 160 148 129 161 148 128
161 148 129 161 149 131 161 149 129 159 147 127 169 157 133 49 40 41
32 25 34 162 151 129 158 147 125 158 145 126 156 143 125 156 143 124
155 142 124 156 143 123 157 144 124 157 145 125 157 145 125
158 146 126 159 146 127 159 146 126 157 145 125 158 145 126
158 145 126 158 145 126 159 146 127 159 146 127 158 145 126
159 146 128 160 147 128 161 148 129 162 150 129 165 153 131
167 153 132 165 153 131 167 152 130 166 152 130 164 151 130
162 149 130 161 148 130 161 148 129 161 148 129 161 148 129
160 148 128 159 146 127 158 145 126 158 144 125 159 146 127
160 147 128 161 148 131 160 149 131 161 150 131 161 149 129
161 150 129 161 150 130 162 150 130 161 149 131 160 149 130
160 149 129 160 149 130 161 150 132 162 151 132 165 154 135
165 156 135 167 158 136 167 157 135 167 159 136 168 161 138
169 161 138 168 160 136 169 161 136 167 157 134 165 153 132
163 152 132 159 148 129 166 152 125 167 152 126 168 152 126
167 152 126 167 151 126 168 152 127 168 154 128 168 154 128
168 154 128 168 154 128 167 153 127 166 152 126 165 151 125
165 150 126 166 151 129 167 153 129 168 153 128 167 154 128
165 153 128 166 151 128 164 151 128 163 151 129 163 151 130
163 151 130 163 151 130 164 151 132 165 152 131 165 152 132
165 152 131 165 152 131 165 152 130 164 151 129 165 151 129
165 151 129 162 149 130 160 149 128 159 147 127 160 147 129
159 148 128 159 149 129 161 150 130 161 149 129 160 149 130
161 150 131 162 150 131 163 151 131 163 151 131 164 151 132
164 152 131 163 152 129 166 155 130 44 34 37 32 24 34 158 146 126
162 151 129 160 148 128 160 147 129 160 147 128 160 147 127
160 148 127 161 150 128 162 150 128 164 152 130 164 152 130
164 152 130 164 152 130 163 151 129 162 150 128 161 149 129
161 148 129 161 148 129 162 149 129 161 148 129 162 149 129
162 148 129 162 149 130 164 151 132 165 153 133 165 153 132
167 154 135 166 153 132 165 152 131 164 151 131 162 149 130
161 148 130 161 149 131 161 150 131 161 150 130 161 149 129
161 148 129 159 147 128 159 147 127 160 147 128 160 148 128
161 150 130 161 150 131 161 150 131 160 149 129 160 149 129
161 150 130 160 149 130 160 149 130 161 150 130 161 150 130
159 148 128 158 147 128 159 147 130 162 151 133 164 156 135
166 157 136 167 158 135 168 160 136 169 161 138 171 163 140
171 164 139 171 164 137 170 161 135 168 157 134 165 154 132
162 151 130 166 151 125 167 151 125 167 151 125 167 151 124
168 152 125 168 152 126 168 154 127 169 155 128 168 154 126
169 155 128 169 155 129 168 155 127 168 154 127 169 154 129
169 155 129 170 156 130 169 156 130 171 157 131 169 158 131
168 156 130 167 154 131 166 153 132 167 154 133 167 154 133
167 154 133 167 155 133 168 156 134 167 155 133 170 155 132
168 156 133 169 156 132 169 155 131 167 154 130 168 153 130
166 152 129 163 151 128 162 149 128 161 148 128 160 148 127
160 148 128 161 150 130 161 150 130 162 151 130 163 152 131
163 152 131 164 153 132 164 153 132 164 154 130 163 152 129
164 154 131 163 151 127 35 27 31 24 20 29 153 143 123 167 155 132
164 151 132 163 151 130 163 150 129 163 151 128 163 151 129
164 152 130 165 153 131 166 154 132 166 154 133 166 154 132
167 155 133 167 155 132 165 153 131 163 152 130 163 152 130
164 151 131 163 151 130 163 150 131 162 149 130 163 150 131
164 151 132 165 152 133 165 153 132 166 154 132 166 154 134
166 154 132 165 153 131 165 153 130 163 151 129 163 150 131
162 150 132 162 151 131 162 151 131 161 148 130 159 146 130
159 147 129 159 148 129 161 148 129 162 149 130 161 149 129
161 149 130 160 149 129 159 148 128 158 147 128 158 147 127
157 146 128 157 146 128 158 147 128 156 145 125 154 143 123
153 142 123 154 143 125 158 147 128 161 150 131 165 154 132
166 155 133 166 157 135 167 158 135 170 159 137 170 163 138
170 163 136 169 162 135 168 159 135 167 158 135 164 154 131
165 151 123 166 150 123 167 151 123 167 152 123 167 151 125
168 152 125 168 153 126 169 155 128 170 156 127 170 156 128
170 156 129 169 155 128 170 156 129 171 157 130 171 158 131
171 159 131 172 160 133 173 160 133 171 160 132 170 159 131
169 157 132 170 157 135 171 157 134 170 157 133 172 157 134
170 158 134 170 158 134 171 158 135 172 158 134 171 159 135
171 159 134 170 158 134 170 158 134 171 156 133 169 154 131
165 152 129 164 152 130 163 151 129 162 150 128 163 150 128
163 151 130 164 152 131 163 152 130 164 153 131 164 153 131
165 154 132 165 155 131 165 155 130 163 152 130 167 156 134
159 144 122 28 20 26 19 15 25 146 136 120 170 159 135 166 155 133
165 154 131 164 152 130 163 151 129 163 151 129 163 150 130
163 152 130 164 152 131 164 153 130 166 153 130 166 155 133
166 154 132 166 154 131 163 152 130 164 152 130 164 152 132
163 152 132 163 152 132 164 151 132 163 152 132 164 152 132
165 152 133 166 153 134 166 153 135 164 153 133 165 152 133
164 151 130 164 152 130 163 151 129 163 150 131 163 150 131
163 150 131 161 149 131 159 146 129 159 146 130 159 146 130
159 148 130 161 148 129 161 148 129 161 148 129 161 150 130
160 149 129 160 148 129 158 147 127 157 146 126 156 145 126
156 145 127 155 144 125 153 142 123 152 141 122 151 139 121
152 139 122 154 143 126 158 147 128 161 150 130 164 153 133
164 153 133 164 153 133 164 156 133 166 157 135 167 160 137
168 160 137 169 158 136 168 160 135 166 157 132 165 150 124
166 150 124 166 151 124 167 152 126 167 153 126 168 152 127
170 155 128 169 155 128 170 156 129 170 156 129 171 157 130
171 157 130 172 158 131 173 159 132 171 160 132 171 160 132
172 161 132 172 161 133 172 161 133 172 161 132 171 160 133
173 160 134 171 159 133 171 160 134 172 160 134 173 161 135
171 159 134 173 159 135 173 159 136 172 160 135 172 160 136
173 161 135 172 160 136 172 158 135 169 156 132 167 155 132
166 155 133 166 154 132 166 155 133 166 154 133 165 154 133
166 155 134 164 154 131 166 155 133 167 156 133 167 156 133
167 156 132 166 156 131 164 154 130 169 158 136 150 135 116 17 10 20
15 11 21 137 127 113 172 162 135 164 155 130 165 154 131 165 153 131
164 152 130 162 149 130 161 150 130 162 150 128 162 149 130
163 150 130 163 151 129 165 153 131 166 154 133 165 153 132
164 152 130 163 152 130 163 152 130 164 153 132 163 152 131
163 152 133 164 152 133 164 152 133 165 152 133 165 153 134
165 152 133 165 152 133 164 152 133 163 151 130 164 152 130
162 151 129 162 150 130 161 150 130 161 150 131 160 149 129
158 147 128 157 145 128 158 145 129 159 146 129 161 148 129
161 148 129 161 148 129 161 149 129 161 150 130 161 148 129
160 147 127 158 146 127 158 147 128 157 146 126 158 146 127
156 145 125 155 144 126 154 142 124 154 141 123 157 145 126
160 149 129 162 150 131 162 151 131 160 152 131 160 152 131
160 153 129 162 154 130 165 155 134 167 156 134 168 157 135
167 156 134 166 155 133 166 152 125 167 151 125 166 152 125
166 152 125 167 154 127 169 153 128 169 154 128 170 156 129
170 157 129 172 158 130 171 159 131 171 158 131 170 159 131
171 159 132 171 160 132 172 161 133 172 161 133 172 161 133
172 161 133 172 161 132 172 161 134 173 162 135 173 161 135
173 161 135 173 161 135 172 161 135 173 161 135 173 161 136
172 160 135 173 161 135 173 161 135 172 160 135 171 159 135
170 158 134 169 157 133 167 155 133 167 156 133 168 156 135
168 157 134 168 158 134 168 157 135 168 158 134 168 158 133
169 159 135 169 159 135 169 159 134 169 159 134 169 158 133
166 156 131 174 163 139 136 122 106 10 3 15 16 10 18 124 115 104
173 163 139 164 153 130 166 154 132 164 153 130 163 151 130
163 151 132 161 150 129 162 151 128 163 151 131 163 151 132
164 153 131 165 154 131 166 155 132 165 154 132 164 153 131
164 153 133 163 152 131 164 153 131 164 153 132 165 154 135
165 154 133 165 154 134 165 154 134 165 154 132 165 154 133
166 154 134 165 154 134 164 153 131 164 154 131 163 152 130
164 153 131 162 153 131 162 153 132 162 151 131 160 149 128
158 148 129 160 149 129 161 150 131 163 150 131 162 149 130
163 150 130 164 152 131 166 154 132 165 154 132 163 152 130
162 151 130 160 149 129 159 149 129 160 148 129 160 149 129
160 149 129 159 148 129 158 147 129 157 148 128 160 149 129
160 149 129 161 150 131 160 152 132 160 151 131 159 151 130
160 150 129 161 150 128 162 152 131 162 151 131 161 150 130
161 150 130 167 153 126 167 153 126 166 152 125 166 152 126
168 154 127 168 154 127 169 156 129 171 157 130 169 158 130
172 159 132 172 160 134 172 161 133 171 160 132 171 160 132
172 161 133 171 160 132 172 161 133 172 161 133 171 160 132
171 160 132 172 160 134 172 160 134 173 161 135 172 160 135
171 159 134 172 160 134 171 159 133 172 160 134 171 159 133
171 159 133 171 160 133 171 159 133 170 158 133 169 157 133
167 155 131 167 154 132 167 155 132 166 156 132 167 157 133
168 157 134 168 158 133 169 159 134 170 160 134 171 161 136
170 160 135 170 160 135 170 160 134 171 159 135 168 156 133
179 167 141 115 101 90 4 0 12 12 9 16 103 95 89 176 165 139
164 153 131 167 156 133 167 155 133 166 155 133 166 155 133
166 155 132 167 157 132 167 157 133 169 158 135 169 158 135
169 158 134 169 159 134 169 159 133 169 158 134 169 158 136
168 158 135 169 158 135 168 158 135 169 158 138 168 158 135
167 156 133 167 156 135 168 158 135 169 159 136 170 159 137
170 159 137 170 159 137 170 160 137 170 159 136 169 158 136
167 158 135 168 159 136 166 157 136 166 155 134 165 154 134
166 155 134 167 156 135 167 157 137 166 158 136 167 158 135
168 157 134 169 159 135 169 158 134 166 155 133 163 152 130
162 151 129 161 150 130 160 149 129 162 151 132 161 150 131
160 149 129 159 148 128 156 147 127 157 148 128 159 148 128
158 147 129 159 148 130 160 150 132 160 152 132 160 152 131
159 150 128 158 148 127 157 147 127 158 147 128 158 146 126
167 153 127 169 155 129 168 154 127 168 154 127 168 154 127
169 156 129 168 157 129 169 157 129 170 157 131 171 160 132
172 161 133 172 161 133 173 162 134 172 161 133 172 161 133
172 161 133 172 161 133 172 161 133 171 160 132 170 159 131
170 159 131 172 160 134 171 159 133 171 160 133 170 159 132
171 159 133 171 159 133 171 159 133 171 159 133 170 158 132
170 158 132 169 157 132 166 154 130 166 153 129 164 151 128
164 152 130 164 153 131 166 156 131 167 157 132 168 158 134
169 159 133 171 159 134 172 162 136 172 162 135 173 163 136
172 162 135 172 161 135 172 161 135 168 157 132 181 170 142 85 74 69
3 0 13 13 10 17 79 71 70 178 169 142 168 157 133 170 160 135
171 161 136 171 161 137 172 162 137 172 162 137 173 163 138
173 163 138 174 163 140 174 163 139 174 163 141 174 164 140
174 164 138 173 163 138 173 163 137 173 163 137 174 164 138
173 163 138 171 160 138 171 160 138 170 159 137 171 160 137
172 161 138 173 162 139 174 163 140 173 162 139 172 162 139
173 162 140 172 163 141 172 163 141 170 161 139 170 160 138
170 159 137 169 158 138 168 158 138 169 160 139 170 162 139
170 162 139 170 162 139 170 162 139 172 162 139 172 162 137
169 159 134 166 156 131 164 153 131 161 150 129 160 149 130
161 150 130 161 150 130 160 149 129 159 148 128 158 147 127
157 146 126 157 146 127 155 144 126 156 145 126 158 146 127
159 149 129 161 153 132 161 153 132 160 152 131 157 148 128
157 146 126 159 148 128 159 148 129 168 154 128 169 155 128
170 156 129 170 156 129 170 156 129 171 156 130 170 157 130
169 157 129 170 156 129 172 158 129 173 159 130 173 160 132
171 160 131 172 160 131 172 161 132 172 161 133 172 161 133
172 161 133 170 159 131 169 158 130 169 158 131 170 159 132
171 159 133 171 159 132 170 159 132 170 158 132 170 158 132
171 159 132 171 159 133 170 158 133 169 155 132 167 153 130
163 150 128 162 150 128 162 150 128 162 150 126 166 154 131
168 158 135 170 160 135 171 161 136 172 161 136 173 162 136
173 162 137 173 163 137 174 164 137 173 163 137 173 163 138
173 163 137 172 162 136 177 167 139 51 42 44 5 0 14 15 12 19 51 44 48
171 162 140 174 164 138 173 163 138 173 163 138 174 164 138
175 165 140 174 164 139 174 164 139 174 164 139 175 165 140
175 165 140 175 165 140 176 166 141 175 166 141 175 165 139
175 165 138 174 166 138 176 165 140 175 166 140 173 163 138
173 162 139 173 162 140 172 162 139 174 163 140 174 164 139
173 163 139 173 162 140 173 162 139 172 162 139 172 164 141
171 164 142 170 162 139 169 159 137 167 156 134 167 156 135
166 158 136 168 160 139 170 162 141 171 163 140 170 161 138
171 160 138 169 158 136 168 158 135 166 155 133 163 152 131
162 151 130 161 150 130 160 149 129 160 149 129 160 149 130
159 148 128 155 144 124 154 143 123 154 144 125 154 143 124
155 144 125 157 146 126 159 148 128 159 148 128 157 150 129
159 151 131 159 151 131 159 150 131 160 151 130 160 152 131
159 151 130 168 154 128 169 155 128 169 155 129 169 155 128
170 156 129 171 157 130 170 156 129 171 156 129 170 156 129
171 156 129 172 158 130 171 158 131 170 158 128 170 158 129
170 159 131 170 159 131 171 159 132 170 158 130 169 158 129
170 156 129 168 157 129 169 157 131 170 157 131 170 158 132
170 158 132 170 158 133 170 158 133 169 157 132 168 156 131
166 154 132 165 152 132 162 150 130 161 149 127 161 148 127
162 150 128 165 153 131 170 158 134 172 162 137 175 165 138
175 165 140 175 164 139 175 164 137 174 164 137 174 164 138
174 164 137 173 165 137 173 165 137 173 162 138 177 167 140
156 144 122 17 10 23 5 2 14 14 11 20 27 21 29 147 138 123 178 168 141
171 162 137 172 163 138 173 163 138 174 164 138 173 163 138
173 163 138 173 163 138 173 163 137 173 163 138 174 164 139
175 165 140 173 166 140 174 165 140 174 164 138 173 164 138
175 165 140 175 165 141 174 164 139 173 163 138 173 162 139
172 162 138 172 162 137 170 160 135 169 158 136 169 158 136
170 159 137 170 159 136 171 160 137 169 160 137 168 159 136
167 156 134 165 154 133 164 153 132 166 155 135 168 157 137
169 160 139 169 159 138 169 158 136 167 156 134 165 154 132
164 154 132 162 151 132 160 149 130 160 150 130 160 151 130
161 150 130 161 149 129 161 150 130 160 149 129 156 145 125
155 144 124 154 143 125 156 145 125 160 149 129 163 152 131
164 153 132 161 150 130 155 147 127 157 149 130 159 151 130
161 153 132 162 154 133 162 154 133 160 151 130 165 151 125
166 152 126 167 153 127 167 153 126 167 154 127 167 153 126
166 152 126 166 153 127 167 153 127 165 152 127 165 153 127
165 154 127 165 153 127 165 154 127 167 155 129 168 156 129
167 155 129 168 155 130 166 154 129 166 154 129 168 154 130
167 154 130 167 154 131 167 155 131 167 155 130 167 155 132
167 155 133 165 153 131 162 149 129 159 148 128 160 147 128
159 146 127 158 146 126 160 147 127 161 149 129 166 154 131
171 160 138 172 163 140 173 163 140 172 163 140 173 163 138
172 163 136 171 161 136 171 161 136 173 163 137 171 163 139
172 162 137 169 158 134 181 169 143 107 96 85 0 0 11 9 6 18 14 11 20
19 15 22 106 97 90 178 167 143 166 157 134 169 161 138 170 159 137
171 160 138 171 160 136 172 162 136 171 161 137 172 162 136
172 162 137 172 161 139 173 163 138 174 164 137 174 164 139
173 163 138 172 162 136 172 164 138 174 164 141 173 162 140
174 164 139 173 163 139 171 160 137 169 158 136 169 158 135
169 158 136 169 158 137 169 158 136 167 156 135 167 156 135
168 157 135 166 156 134 166 155 133 166 155 133 166 155 133
166 155 133 167 156 135 167 157 135 168 157 135 167 157 134
164 154 131 163 152 131 165 154 133 165 154 134 164 153 133
164 153 133 162 153 131 162 151 129 162 151 129 162 151 129
162 151 129 161 150 130 161 150 130 160 149 129 162 151 131
165 154 133 169 158 136 169 159 136 165 154 132 159 151 130
159 149 129 160 151 130 161 153 133 162 154 133 162 154 132
158 150 130 163 148 125 165 150 126 165 150 127 165 151 126
165 150 126 163 149 125 162 149 125 162 150 126 163 151 127
163 151 127 162 150 126 163 151 127 163 152 127 164 152 129
165 153 129 166 154 129 165 153 129 166 154 129 165 153 129
164 152 128 165 153 130 164 152 131 164 152 131 165 153 131
165 153 131 163 152 130 163 152 132 162 150 131 160 148 128
157 146 127 158 146 126 158 147 127 160 149 128 162 150 131
162 151 131 164 155 132 166 157 136 165 157 137 166 158 137
166 158 135 166 158 134 167 157 135 166 155 134 165 155 133
165 154 132 165 156 135 165 155 133 166 158 135 168 157 134 41 34 39
1 0 14 8 5 18 12 9 20 16 13 19 60 53 55 168 159 137 171 160 137
169 159 137 169 158 136 170 159 136 171 161 137 173 162 138
172 162 137 172 162 137 171 161 136 170 159 135 171 161 136
171 161 136 172 162 137 171 161 136 170 161 135 170 163 137
172 164 140 174 164 140 174 164 138 173 163 139 171 161 137
170 159 136 169 158 138 169 158 137 168 158 137 167 156 134
166 155 133 166 155 133 167 156 135 167 156 135 167 156 134
166 155 134 166 155 134 167 156 134 167 155 133 167 155 132
166 155 134 166 156 132 166 155 132 165 154 132 166 156 133
168 158 133 167 156 132 166 155 132 165 153 132 164 152 131
163 153 130 164 153 131 164 152 130 164 154 131 166 155 133
165 155 133 165 154 134 165 154 132 165 155 132 166 158 135
167 156 135 165 157 134 163 154 133 163 152 131 161 151 131
160 150 130 160 151 131 160 151 132 162 147 125 162 148 126
164 149 128 164 150 128 164 151 128 163 150 128 162 150 126
164 152 128 164 152 130 164 153 129 164 154 129 165 153 130
164 153 129 165 153 131 168 156 132 169 158 133 168 158 133
170 159 134 169 158 133 167 156 131 166 155 133 167 155 134
166 154 133 167 156 133 167 156 134 167 156 134 165 154 133
165 156 135 165 156 136 163 153 133 164 153 132 166 155 135
168 158 137 168 157 137 168 158 137 168 160 139 168 158 138
165 157 134 165 156 134 165 156 135 166 155 134 166 155 134
166 155 135 165 154 134 164 153 133 164 154 132 166 155 134
175 164 140 100 91 83 8 5 17 6 5 19 5 4 18 8 5 17 12 11 19 30 25 33
143 133 121 176 165 141 171 161 136 173 163 138 173 163 138
174 164 139 174 164 140 173 163 139 173 163 138 171 161 136
169 159 134 169 158 134 169 158 133 168 158 133 168 158 133
169 158 135 170 160 136 171 163 140 173 164 139 174 164 139
173 163 140 172 161 138 169 158 136 168 157 134 167 156 134
167 156 134 167 156 134 167 156 134 168 157 135 169 158 137
169 159 136 169 158 135 169 158 136 169 158 136 169 158 136
169 157 134 167 155 131 168 157 134 169 159 135 167 157 133
167 156 132 167 156 132 167 157 132 165 155 131 162 151 130
162 151 131 163 151 131 163 152 130 162 151 129 161 150 129
164 152 129 166 155 131 165 155 131 164 154 130 163 152 128
160 149 126 161 150 130 165 154 133 167 157 135 167 156 134
166 156 131 163 152 129 160 149 128 162 151 131 164 153 135
160 148 126 161 149 127 165 150 129 165 152 128 164 152 128
164 152 127 165 153 129 166 154 130 166 156 131 167 156 131
167 156 130 167 155 130 169 157 132 170 158 133 172 160 134
173 161 135 173 163 136 173 164 137 173 163 136 171 161 136
171 161 137 172 161 138 172 161 139 171 160 140 171 160 138
171 160 138 171 162 139 172 165 142 172 165 144 170 160 139
169 158 136 171 160 138 172 161 140 172 161 139 172 161 137
173 163 140 173 165 140 173 162 140 171 162 139 170 161 137
169 158 137 168 157 135 170 159 135 173 162 138 173 162 140
169 161 139 168 159 138 134 123 111 45 40 45 13 12 21 7 5 18 6 5 17
8 6 17 14 12 21 27 23 28 120 110 103 200 190 168 178 168 145
171 161 138 173 163 138 175 164 140 175 165 140 175 165 140
174 163 140 173 163 140 172 161 139 170 161 137 170 160 135
170 160 135 169 160 136 169 161 135 171 163 137 172 164 141
173 166 141 173 164 140 173 164 139 172 162 140 170 159 137
168 157 135 168 158 135 169 158 136 169 158 136 170 159 136
171 160 137 170 159 137 169 158 136 169 158 134 170 159 137
170 159 138 170 159 137 170 159 138 169 158 135 171 160 137
171 160 138 168 159 136 167 156 132 166 157 132 166 156 131
164 153 132 163 151 132 162 151 131 162 151 129 162 151 129
161 150 127 159 148 127 162 150 128 166 154 131 165 154 131
166 155 129 166 154 130 165 153 129 164 153 130 165 154 132
166 156 133 167 156 134 168 157 134 167 157 134 164 153 129
162 151 128 162 151 131 157 145 124 161 149 128 165 151 130
165 153 129 164 152 128 165 152 128 167 155 129 167 156 131
168 156 132 168 157 133 169 157 131 169 157 133 171 159 133
173 162 136 173 162 137 174 162 136 173 163 136 173 163 136
173 163 137 172 162 138 173 162 140 174 163 140 174 163 140
173 162 141 173 163 139 175 164 140 174 166 142 175 167 144
173 165 142 171 161 138 170 159 137 172 161 138 173 162 139
172 162 137 173 163 138 174 164 138 174 164 139 174 164 140
173 166 140 172 165 139 172 162 137 174 164 138 171 161 137
166 157 135 159 151 131 157 149 133 152 143 132 115 108 103 66 62 64
38 36 42 23 22 30 11 10 19 15 13 21 39 35 39 79 72 71 147 137 126
205 197 175 215 207 184 200 192 171 186 177 154 176 167 144
171 162 140 168 159 136 170 162 137 173 166 140 174 166 142
174 166 142 175 167 143 174 167 141 172 165 141 172 164 140
172 165 141 173 165 142 174 166 144 172 164 142 172 165 141
173 165 142 174 163 141 174 163 141 175 164 141 173 163 139
171 162 139 173 162 140 171 160 137 169 159 134 168 157 135
169 159 135 170 160 137 170 159 137 170 159 137 170 159 138
168 158 135 168 158 135 170 161 136 170 160 136 169 159 135
168 160 137 167 158 135 165 156 134 166 156 135 166 155 134
167 156 134 168 158 134 169 159 134 169 159 135 169 158 134
170 159 137 171 160 136 169 159 132 170 160 134 171 161 136
170 160 134 168 158 131 166 156 129 162 152 128 164 153 130
168 157 134 169 158 135 164 154 130 161 150 129 155 143 123
158 145 126 160 148 126 161 149 127 162 150 128 166 154 130
167 155 131 165 154 130 165 153 130 167 156 132 168 156 131
169 157 132 170 158 133 172 161 134 172 160 134 172 160 134
172 161 135 172 162 135 173 161 135 171 161 135 170 160 135
171 160 135 170 160 135 170 160 135 172 162 137 174 164 139
174 164 139 173 163 139 171 161 136 169 158 136 170 160 136
170 160 135 171 161 136 172 162 137 173 163 138 173 163 138
172 161 137 172 162 137 173 164 139 174 166 140 176 167 141
163 154 132 160 150 134 160 152 136 163 157 141 164 157 142
148 140 128 123 115 106 97 90 86 71 66 68 41 39 44 18 18 25 23 22 28
68 61 62 135 125 116 172 163 146 191 183 162 207 199 178 219 211 188
221 213 190 217 209 186 213 207 183 206 198 175 179 171 147
173 165 142 176 168 145 175 167 145 175 167 144 174 166 141
171 164 139 170 162 140 170 162 139 169 161 139 169 161 139
170 162 139 171 163 140 172 163 141 173 162 140 173 163 141
173 162 141 172 162 140 172 164 141 173 164 142 174 163 142
171 162 139 169 159 137 170 161 139 170 163 139 171 162 139
173 162 140 173 163 139 170 160 136 166 158 135 169 161 136
170 162 138 171 163 140 170 162 140 169 162 141 167 161 138
168 160 139 170 161 140 172 161 138 172 163 140 173 165 141
173 165 142 174 164 140 174 163 141 174 165 142 173 165 140
172 164 140 173 165 140 169 162 136 167 159 134 163 154 130
161 151 129 162 153 131 164 155 134 165 156 134 165 157 134
162 152 131 153 140 122 156 143 125 157 145 123 159 147 125
162 150 128 167 156 131 166 155 131 164 152 130 163 151 130
165 153 129 168 156 132 169 159 134 169 158 134 170 158 133
170 157 133 170 158 132 170 159 132 171 159 133 173 162 135
172 163 136 172 162 136 171 161 136 170 160 135 169 159 135
168 159 133 171 161 136 173 162 138 172 162 137 173 163 138
172 162 139 173 163 138 173 163 138 173 163 138 173 163 139
176 166 140 174 166 140 174 165 138 176 166 141 177 167 142
176 166 142 123 113 106 151 145 132 179 174 155 185 179 158
182 175 156 173 166 146 163 156 136 154 146 131 141 134 122
118 110 102 64 60 60 35 32 37 48 43 46 111 105 99 179 170 152
192 186 162 199 193 170 205 198 175 207 200 176 207 200 177
203 195 177 192 185 171 177 167 156 158 148 135 173 164 143
174 166 143 173 165 143 173 165 142 171 163 140 170 162 139
170 163 139 170 162 139 168 160 139 166 158 137 168 159 138
169 160 140 169 160 139 170 159 138 170 161 138 169 159 136
169 158 138 173 165 142 172 164 141 174 164 141 171 162 140
169 158 138 168 159 138 170 162 139 171 163 140 173 165 141
174 164 140 171 160 138 169 160 138 170 162 139 169 161 138
168 160 137 167 159 137 167 160 138 168 161 138 166 158 137
167 159 138 167 159 136 167 159 136 168 159 137 169 160 137
170 160 136 169 161 138 167 159 136 168 161 137 169 161 138
169 161 137 167 159 136 166 158 135 164 156 136 163 155 133
164 156 134 165 157 136 164 156 135 166 158 136 160 152 131
153 140 124 154 141 122 155 143 121 162 149 128 166 154 131
166 154 130 163 151 131 163 150 130 162 150 128 161 149 126
165 153 131 168 158 134 168 157 133 166 154 131 165 154 132
168 156 131 168 157 131 171 161 135 170 160 133 168 159 132
169 158 134 168 156 134 168 157 135 169 159 135 170 160 136
171 161 136 171 161 136 174 164 139 176 166 142 176 166 141
176 166 141 176 165 142 176 165 141 178 167 144 178 168 143
176 169 143 177 167 142 177 167 142 176 166 141 180 170 146
142 130 117 90 81 81 67 60 64 60 55 60 65 59 63 72 65 67 74 67 69
73 67 69 72 65 67 70 64 65 56 50 52 37 33 36 43 39 42 68 62 62
78 70 71 75 68 69 74 66 65 71 62 62 71 61 61 77 65 66 93 81 82
116 105 99 141 130 115 169 159 136 173 166 141 175 168 143
176 169 143 176 168 143 174 166 141 176 167 142 178 168 143
175 168 142 172 164 142 170 162 141 171 160 140 170 159 139
169 159 138 170 160 136 171 160 137 171 160 138 171 160 138
172 162 140 172 161 139 171 160 137 169 160 137 168 159 136
168 157 137 168 160 138 171 162 139 173 163 140 173 163 139
170 161 138 169 159 137 168 160 137 164 155 133 163 154 133
166 156 134 166 155 133 168 158 136 163 155 132 161 153 130
162 153 131 164 153 132 166 155 133 167 156 134 162 151 130
162 152 131 162 152 130 161 153 130 163 155 131 165 155 132
161 153 131 159 151 130 158 149 129 159 151 130 161 153 130
162 153 132 165 154 132 165 154 134 160 150 130 159 146 129
159 146 127 160 148 126 162 150 128 161 149 127 162 150 128
162 150 129 163 151 128 163 151 128 163 151 128 164 152 128
163 151 128 161 149 127 160 148 127 162 151 128 162 151 128
165 153 131 167 157 132 167 157 133 167 156 133 166 154 131
168 155 135 170 158 136 169 158 136 170 159 137 171 160 137
172 161 136 175 163 139 175 164 140 171 161 136 170 160 135
171 160 136 172 161 136 172 162 137 174 164 139 173 165 140
175 165 140 175 165 141 174 164 138 175 165 139 184 174 145
182 172 147 162 150 132 131 119 106 95 83 76 63 52 50 50 38 37
44 35 37 37 30 33 31 24 26 23 17 20 20 15 18 20 16 18 26 21 22
41 32 32 55 44 44 69 56 53 94 80 71 129 115 98 157 145 122
176 165 139 185 174 148 183 173 146 178 168 142 177 169 145
179 172 146 178 170 144 176 167 141 176 166 141 176 167 142
176 166 141 172 165 139 170 162 139 170 162 139 172 163 140
171 160 139 171 160 137 172 161 137 170 159 137 170 159 138
171 160 139 173 162 140 172 161 139 172 162 138 170 161 138
168 161 138 172 164 141 172 162 139 172 162 139 174 163 139
173 163 141 173 165 141 171 161 137 169 159 136 167 157 135
167 157 135 168 158 135 169 159 136 171 160 137 170 162 137
168 161 137 167 157 135 166 155 133 164 154 131 166 155 132
163 152 131 163 152 132 169 158 136 168 157 135 168 159 135
167 156 133 163 154 131 161 153 131 159 149 129 160 152 131
164 156 133 162 153 131 160 148 130 163 152 131 163 153 131
160 147 129 159 147 127 158 145 125 154 141 123 154 141 122
160 147 127 158 146 125 154 142 121 155 143 120 161 149 125
164 153 128 165 153 130 162 152 130 165 154 132 168 157 133
164 153 130 160 149 127 164 153 130 167 156 134 166 155 133
166 155 135 167 155 135 169 158 137 168 157 135 168 157 135
169 158 135 169 158 135 171 161 137 175 165 139 174 164 139
172 163 139 171 163 137 171 162 138 172 162 138 175 165 139
176 166 140 176 166 141 176 166 141 174 167 140 174 165 140
173 164 139 173 166 140 177 169 145 184 176 150 185 175 149
171 158 138 124 109 94 80 67 59 69 58 52 52 43 36 33 25 24 23 17 20
25 19 21 37 31 28 59 50 43 82 69 61 131 115 101 177 163 139
182 170 143 179 169 141 175 165 139 173 163 138 174 164 139
175 165 141 175 167 143 177 170 144 173 163 141 170 161 138
173 162 140 172 162 137 171 161 136 169 160 134 168 157 135
169 158 136 171 161 139 170 159 137 171 160 137 174 163 141
174 163 141 172 161 139 172 161 138 174 164 139 173 162 140
172 163 140 171 164 140 170 162 140 173 165 141 172 165 140
171 161 138 169 160 137 169 160 136 173 166 140 175 167 141
173 166 141 172 164 141 171 162 139 170 162 138 170 159 136
171 160 136 172 162 136 171 161 137 172 162 139 172 162 138
171 161 136 170 163 138 171 163 140 171 161 141 171 162 140
172 164 140 171 164 138 172 163 138 171 162 140 171 163 140
169 161 137 167 159 136 169 161 138 168 159 136 168 158 136
166 157 135 166 156 133 151 138 120 152 139 120 152 139 121
151 139 121 157 146 126 162 151 131 161 149 129 157 145 124
161 149 126 165 153 131 166 156 132 169 158 135 168 160 135
170 160 135 168 157 133 165 155 131 161 150 128 163 152 130
165 155 132 162 150 129 159 147 127 163 151 130 168 157 135
169 158 137 169 159 138 170 159 137 174 165 141 174 166 142
174 167 142 175 167 143 175 168 142 172 165 140 174 164 142
175 165 140 175 165 138 175 165 140 175 165 140 174 165 140
170 162 138 171 163 140 178 171 146 178 170 146 175 167 144
173 166 141 175 168 143 178 170 146 175 165 143 126 114 101 54 42 40
39 31 28 31 22 22 22 16 19 26 19 22 36 28 28 41 32 29 85 73 65
174 162 140 176 166 141 173 162 137 175 165 139 174 164 138
175 165 140 174 164 138 175 165 140 174 165 139 174 164 139
172 161 139 171 160 138 169 159 137 170 160 137 172 162 137
173 164 139 172 161 139 172 161 139 171 160 138 172 161 139
174 163 141 175 164 142 175 165 142 176 166 140 173 163 138
174 164 139 173 162 139 170 161 139 171 163 140 174 166 143
171 163 139 171 162 137 171 163 139 171 163 140 169 162 139
173 166 142 176 169 144 175 167 144 175 167 144 175 168 144
174 167 142 174 165 139 175 165 140 174 165 139 174 164 140
173 165 140 173 165 139 174 166 140 174 167 142 173 165 141
172 164 141 169 162 138 169 161 138 171 164 138 171 163 140
172 164 141 173 165 141 173 166 141 173 165 140 172 164 139
173 165 140 173 167 140 169 162 137 170 161 138 157 144 125
162 150 130 161 148 130 162 150 131 164 152 132 167 155 133
169 158 135 168 158 134 169 160 135 171 161 136 169 159 134
168 158 133 168 159 134 167 157 132 167 157 133 166 155 133
167 157 134 167 156 134 171 160 138 172 162 139 169 159 136
167 156 136 170 159 137 171 160 139 169 160 138 171 163 140
178 168 143 177 167 143 171 163 141 172 164 140 173 166 140
175 166 142 177 167 143 176 169 143 179 169 143 178 170 144
177 170 145 177 167 142 175 164 141 176 166 141 176 168 142
176 168 144 177 168 143 177 169 143 177 168 144 170 162 137
168 161 135 184 173 149 96 83 76 26 18 20 27 19 21 20 14 20 23 17 20
33 25 25 35 26 27 131 119 107 178 168 143 168 160 137 178 168 145
178 168 142 177 167 141 178 167 143 177 167 142 175 165 140
175 164 142 176 165 143 170 160 136 174 165 142 177 167 142
172 164 139 175 164 142 174 166 142 173 163 140 172 161 139
173 164 139 173 163 139 172 161 138 171 161 139 171 162 138
175 165 140 177 167 142 173 162 140 173 162 141 171 160 138
169 160 137 171 164 140 174 165 141 174 164 139 175 167 143
175 166 142 174 165 142 173 164 141 176 168 143 176 169 142
174 165 140 174 165 141 174 167 141 174 167 141 175 168 142
176 169 143 177 170 143 175 168 142 174 167 141 174 167 140
175 168 140 175 168 142 175 168 142 175 168 141 172 165 140
172 165 139 173 165 142 172 165 139 172 165 139 173 166 140
173 166 141 172 165 139 171 164 138 172 163 139 170 162 138
168 161 137 165 156 135 165 153 133 165 152 133 162 151 130
164 155 132 164 155 132 168 159 136 168 160 136 168 162 135
173 165 141 170 161 138 173 166 140 176 169 142 175 168 142
173 166 141 172 165 139 175 167 142 171 161 138 169 158 135
171 164 137 170 163 139 168 157 138 167 157 137 170 161 138
166 156 135 168 158 136 173 162 139 171 160 138 169 159 137
170 163 139 172 163 139 173 165 140 177 168 143 176 168 142
177 170 145 178 171 146 177 170 144 176 166 141 175 165 140
175 164 139 173 163 138 175 165 139 177 167 142 179 169 144
176 166 140 177 167 141 175 165 140 176 168 141 162 152 132 42 33 33
22 16 18 17 12 20 22 16 23 26 18 20 68 57 56 176 167 146 173 164 140
173 163 142 174 166 143 173 166 140 170 161 137 170 159 137
169 161 137 164 154 131 164 153 131 168 158 135 166 156 134
170 162 139 175 166 141 174 166 140 170 161 138 170 161 138
174 166 143 178 169 146 177 170 145 174 166 141 175 166 141
178 170 147 177 166 144 173 162 140 174 163 141 172 161 139
172 160 138 169 159 137 167 159 136 168 159 137 171 161 137
173 163 138 173 163 137 171 162 137 171 163 139 171 161 139
174 164 139 175 167 140 175 165 140 175 165 140 174 166 143
175 167 143 175 168 142 174 168 141 175 168 142 174 167 141
173 166 140 176 169 142 175 168 139 175 168 143 175 168 142
174 166 141 174 167 141 174 166 141 173 165 141 169 161 138
171 164 139 170 163 137 167 159 135 170 162 139 170 163 139
165 157 136 165 157 137 162 155 134 165 157 137 165 156 136
168 159 137 170 161 139 168 160 138 167 160 138 170 162 141
172 165 144 176 168 145 177 170 146 176 168 144 179 173 149
178 171 146 177 170 146 174 167 143 171 162 136 174 165 139
175 168 142 171 160 135 167 158 133 169 161 138 171 161 139
169 158 138 167 159 137 171 162 140 173 163 141 166 154 134
167 156 136 170 162 139 173 165 142 174 166 142 170 161 138
169 162 138 173 165 141 174 166 143 173 165 142 174 164 140
177 167 142 176 168 141 175 165 139 176 166 141 176 166 140
178 168 142 177 167 142 176 166 141 178 168 141 177 167 141
172 164 139 187 176 153 100 89 79 21 13 16 23 17 21 27 20 25 30 21 24
132 124 110 185 178 153 174 167 142 178 170 147 173 165 140
180 172 148 183 175 152 179 172 147 178 170 146 175 167 144
172 163 140 175 166 144 174 166 142 174 166 143 171 163 140
173 166 140 172 164 141 171 163 139 171 163 140 176 166 144
178 170 145 174 166 141 175 165 142 175 164 142 170 159 138
171 162 141 175 167 144 174 165 143 175 165 143 177 167 145
175 168 143 173 165 141 174 165 141 172 162 138 173 162 140
170 161 138 171 164 139 173 166 142 172 163 139 174 167 141
176 168 143 171 163 140 166 158 137 169 161 138 172 165 139
171 164 139 172 165 140 172 165 140 172 165 140 171 164 139
171 165 140 173 165 141 168 161 138 166 160 137 169 162 139
171 163 141 174 166 143 171 164 140 169 163 140 172 165 141
172 165 141 168 159 135 165 156 134 163 154 131 163 154 132
161 152 131 169 160 139 173 165 141 175 167 143 177 169 146
177 169 146 172 163 141 171 164 142 176 169 146 178 171 147
178 170 145 175 168 143 169 163 138 168 160 136 168 160 136
169 162 135 170 161 135 166 156 131 169 159 133 172 162 135
167 156 133 166 155 135 171 160 140 169 158 138 168 158 136
168 158 135 170 159 137 172 161 139 171 160 138 170 160 138
170 160 137 170 161 139 170 162 139 166 158 137 169 161 138
172 164 141 173 164 142 173 163 139 170 160 137 173 163 138
175 165 139 172 161 138 174 164 140 175 168 142 178 168 143
177 169 143 176 167 141 174 166 140 174 166 141 179 170 145
164 154 133 42 32 34 24 16 19 25 16 18 71 61 58 171 162 142
169 160 138 169 161 138 170 161 138 171 163 140 174 167 143
177 171 146 178 171 144 175 168 142 174 165 141 173 163 140
172 164 140 170 162 139 171 163 139 176 167 143 176 166 143
176 169 144 173 165 142 174 166 143 178 170 147 179 172 147
175 167 143 172 164 142 173 165 143 174 165 143 171 163 142
174 167 143 177 169 146 177 169 146 177 169 144 179 171 148
177 169 146 174 166 143 173 165 141 170 162 139 173 165 144
171 163 141 168 160 141 169 162 141 171 165 142 173 165 143
167 161 140 167 160 139 170 163 142 171 164 142 168 161 139
167 160 139 172 165 144 172 166 143 174 167 146 175 169 148
174 167 146 174 168 147 175 169 145 175 168 145 173 165 143
170 162 141 170 164 141 170 163 139 169 160 136 169 160 135
167 156 131 163 151 129 167 156 133 168 158 133 165 155 133
152 140 122 158 146 126 165 153 131 164 152 131 162 150 128
161 149 127 164 153 131 160 150 127 161 151 128 157 146 124
156 145 123 163 153 129 162 151 128 168 157 133 167 157 134
166 156 132 171 161 135 169 159 135 171 160 137 172 161 139
169 158 138 170 159 139 169 158 138 170 161 139 166 157 135
162 151 132 165 153 134 169 160 138 168 160 138 168 159 139
166 159 137 168 160 139 172 164 142 175 167 144 173 165 142
174 167 144 176 167 144 175 164 140 176 165 141 177 168 142
175 166 141 171 162 138 173 164 139 174 165 140 173 166 142
171 162 139 171 164 141 171 163 140 168 160 138 179 172 147
126 115 102 33 23 24 54 44 41 156 146 130 174 164 143 169 158 136
169 161 137 167 157 134 170 162 140 171 163 140 171 160 137
170 162 139 171 163 140 174 165 142 175 167 143 175 167 144
177 169 145 175 167 144 177 168 145 175 167 144 174 166 143
180 172 149 177 171 147 173 166 144 175 167 146 174 166 143
172 164 143 169 161 141 172 165 143 166 156 136 169 161 140
176 168 144 174 166 143 173 165 142 175 167 144 171 163 142
168 160 140 171 163 141 174 166 144 172 164 143 171 163 143
171 164 143 173 167 145 174 167 146 173 167 146 177 171 149
176 170 147 175 169 146 175 168 146 175 168 147 178 172 150
181 174 152 176 169 149 176 169 149 181 175 153 179 173 152
180 174 153 178 172 147 177 170 146 171 164 140 166 158 136
169 161 139 169 159 137 171 161 138 170 160 137 166 157 134
168 160 137 170 162 139 167 160 138 169 161 139 165 152 132
159 146 126 159 147 124 158 146 126 149 136 118 157 145 126
159 147 127 156 144 123 160 148 127 159 147 126 163 152 130
169 158 134 167 156 133 166 155 133 164 153 133 161 150 130
163 152 130 167 155 134 166 156 133 170 160 136 170 158 137
168 157 136 167 156 136 166 155 134 167 156 136 168 157 137
161 150 131 166 157 136 171 164 143 167 159 139 170 162 142
168 160 140 171 163 140 171 163 140 162 153 132 167 158 137
172 161 139 173 164 139 172 162 137 170 160 135 173 164 138
173 162 137 170 159 136 167 156 133 165 154 133 166 156 133
169 159 138 164 155 135 155 146 128 146 135 119 114 102 87 62 48 39
84 71 58 148 135 115 163 151 131 162 150 130 166 155 132 168 157 136
169 158 135 169 158 137 172 161 139 173 164 142 170 162 139
168 160 139 168 161 138 170 162 138 175 168 143 175 165 143
172 163 141 167 160 139 169 161 140 174 167 142 175 167 143
170 163 141 166 158 137 170 162 141 170 162 140 167 159 138
168 160 140 167 158 138 164 156 135 169 161 140 170 162 141
170 162 140 167 159 136 161 153 132 163 156 135 167 159 137
170 162 140 171 163 140 174 166 143 175 168 144 175 167 144
174 166 144 176 169 145 177 170 145 175 167 144 176 169 144
178 169 144 178 170 144 177 171 144 178 170 145 176 169 144
175 168 144 177 170 145 177 169 144 174 167 143 170 163 139
170 163 139 169 160 135 167 157 134 168 156 132 160 148 127
166 156 134 168 159 136 165 155 135 166 157 134 169 162 138
168 161 138 171 164 141 159 146 128 161 148 129 162 150 129
162 150 131 162 150 131 158 147 127 153 142 124 160 147 129
161 150 128 165 153 132 168 157 135 163 152 132 164 153 133
163 152 132 158 147 127 160 149 130 162 151 130 165 154 132
166 155 133 165 155 132 170 160 139 167 156 135 168 157 136
167 155 135 165 154 134 167 158 137 171 163 142 172 162 142
166 157 137 167 159 138 163 155 137 165 157 137 166 158 137
168 160 138 166 157 136 161 150 130 168 158 137 160 151 132
158 148 129 157 147 128 158 146 127 147 135 116 144 132 115
145 132 116 141 129 113 133 121 107 131 121 107 127 117 105
114 103 92 79 68 60 47 35 29 53 40 33 60 45 37 77 62 52 120 108 95
140 128 113 144 131 115 150 136 119 155 142 122 154 142 123
157 144 127 160 148 129 160 150 130 157 149 129 160 151 133
163 154 134 166 156 135 166 155 135 165 154 134 164 155 135
164 154 134 159 149 131 166 158 138 171 163 141 168 158 138
167 159 138 166 158 137 167 159 138 168 160 139 170 162 142
171 163 143 174 166 145 172 164 143 173 165 144 176 169 145
172 164 141 171 163 142 171 163 142 175 167 144 177 169 146
178 171 146 177 169 144 178 170 147 176 168 144 176 167 142
176 169 143 173 166 141 173 166 140 177 167 140 177 166 139
175 166 138 170 161 134 169 160 135 172 162 138 172 161 137
172 163 137 174 166 140 175 166 140 174 165 139 171 161 135
168 156 133 170 158 131 170 158 132 171 160 135 169 158 134
169 158 135 171 161 136 172 164 139 170 163 139 170 163 137
147 135 118 156 144 125 165 154 132 162 150 130 156 144 126
158 147 128 153 142 124 156 145 127 161 150 130 167 158 134
170 159 136 167 157 134 170 159 138 165 155 134 168 160 136
172 162 139 169 158 134 167 157 132 172 162 138 165 157 135
164 156 135 166 156 136 170 159 139 166 154 135 166 155 135
171 163 141 174 165 143 164 153 134 160 149 131 166 158 137
161 153 134 158 149 132 164 156 137 166 158 138 167 159 139
163 155 136 154 145 129 153 144 128 151 142 126 152 143 126
143 131 116 133 120 107 120 108 98 115 105 96 114 102 92 111 101 92
109 100 91 95 85 79 74 64 59 54 44 40 53 43 38 53 43 38 59 47 42
67 54 46 81 68 60 105 91 81 121 107 95 129 116 101 134 121 105
142 129 112 149 135 119 145 133 118 144 134 119 149 139 124
156 144 128 165 154 135 168 157 135 172 161 137 172 162 137
173 163 138 175 164 140 173 162 140 173 165 143 172 164 142
175 165 142 174 164 140 175 167 143 178 170 147 179 171 148
182 174 152 184 177 154 181 175 153 175 169 149 178 172 150
178 171 150 178 171 151 172 165 146 175 168 147 177 169 147
175 167 144 177 169 146 175 167 144 178 170 147 179 172 146
175 166 141 172 164 137 171 163 137 175 166 140 177 167 140
174 165 138 175 165 138 175 164 138 175 165 140 174 163 138
170 159 136 172 161 138 175 165 140 173 163 136 166 154 129
165 153 128 164 152 129 165 153 131 164 154 131 169 159 135
171 161 136 171 161 137 172 163 138 174 167 141 174 167 140
173 163 139 158 147 127 162 151 131 162 151 131 163 152 132
157 146 126 161 150 131 163 152 131 163 152 131 162 152 130
166 155 132 168 157 134 165 155 132 165 154 133 166 155 133
165 154 133 167 156 134 166 156 132 167 157 133 173 164 138
169 159 136 163 153 133 165 157 137 174 163 142 170 159 139
170 159 139 173 165 142 171 161 139 168 157 136 167 158 138
166 158 137 163 154 134 162 153 134 166 158 138 164 156 136
166 159 138 165 157 137 163 154 137 154 144 127 141 132 117
137 126 112 133 121 107 123 112 99 113 101 90 102 91 80 97 84 75
99 87 78 91 81 73 83 73 69 67 57 53 61 51 47 63 53 48 66 55 51
69 58 54 79 65 59 91 76 67 98 83 73 118 102 89 127 112 97 131 117 102
140 126 110 142 129 113 146 134 117 152 139 122 162 150 132
168 158 138 169 161 138 167 158 136 170 159 137 173 163 139
173 163 139 170 160 137 171 161 138 170 162 140 171 161 140
173 165 142 175 166 143 178 170 146 177 169 146 176 168 146
181 173 150 179 171 150 176 170 149 173 167 147 176 170 148
177 169 149 173 166 146 174 167 147 177 171 149 177 171 150
175 168 147 176 168 146 175 167 144 179 171 147 179 171 146
179 171 147 176 168 144 173 165 141 170 162 138 166 157 134
174 167 142 174 166 140 164 155 133 162 152 132 166 157 134
167 157 134 169 158 135 167 155 131 168 156 131 166 153 130
166 155 131 169 158 135 168 158 135 165 157 134 169 159 135
171 162 136 168 160 137 166 158 135 167 159 137 167 159 136
167 159 137 159 148 130 159 148 130 154 143 125 158 147 127
159 147 129 158 147 128 160 149 130 163 152 131 165 154 134
163 153 133 162 151 131 164 153 133 165 154 133 163 152 131
166 155 134 165 154 132 168 157 135 170 159 136 171 161 136
167 156 133 167 156 135 167 157 136 170 159 139 168 157 137
167 156 137 168 160 138 170 162 139 169 161 139 169 161 140
164 156 135 170 161 140 169 158 138 164 155 134 166 158 137
162 154 135 160 152 134 161 152 134 154 145 128 153 141 126
151 139 123 142 128 115 135 123 109 126 114 101 118 105 92 114 101 91
108 95 85 103 90 81 101 88 79 99 86 78 93 81 74 88 77 72 90 79 73
94 82 75 99 85 78 110 94 84 118 101 89 121 106 92 128 115 100
137 122 108 139 124 110 145 132 117 155 143 127 161 150 133
169 161 140 174 166 144 171 163 141 173 165 142 172 161 140
174 165 141 173 166 142 173 164 144 176 169 145 171 163 141
172 164 143 174 166 144 177 168 145 176 168 145 177 169 147
178 171 147 175 167 144 170 162 141 170 163 141 172 164 142
174 168 145 176 168 146 175 168 144 175 168 143 175 167 143
176 169 145 181 173 150 179 171 148 175 168 145 174 166 144
176 168 145 175 168 144 172 164 142 172 164 142 169 161 141
168 160 138 172 165 141 169 161 137 167 160 135 167 158 135
172 162 137 173 163 137 170 159 133 169 156 131 168 155 131
168 156 132 173 162 138 175 165 140 170 161 135 168 158 133
165 154 132 166 156 133 172 164 138 167 157 135 170 161 139
169 160 137 165 155 134 163 153 133 159 148 130 159 148 128
164 153 133 164 153 133 166 155 134 165 154 132 163 153 132
164 155 134 164 153 133 162 151 132 164 153 133 162 151 131
163 152 132 165 154 132 161 152 131 163 155 133 165 156 135
167 159 136 169 160 137 167 159 138 167 156 138 164 155 136
162 154 134 163 152 134 166 157 137 165 155 135 165 155 137
166 155 136 171 160 140 165 156 136 168 158 138 168 159 137
166 158 137 163 155 135 162 154 135 161 153 134 162 154 135
166 156 137 156 144 129 147 134 122 146 134 120 143 131 118
137 125 113 130 119 107 128 117 104 129 116 103 121 108 96 122 110 98
121 108 97 117 104 95 113 100 91 115 101 92 119 105 96 120 107 98
132 118 105 132 117 106 138 126 113 147 135 119 153 139 123
161 149 132 163 154 135 165 157 137 167 160 138 173 165 142
175 167 144 174 167 144 173 165 143 175 167 145 175 168 145
174 167 144 178 170 146 178 170 147 175 167 144 178 170 148
178 170 147 176 169 144 176 169 145 170 161 139 170 160 140
176 168 145 180 172 148 180 172 147 177 169 146 173 165 143
176 169 144 175 167 143 175 164 142 178 168 145 178 169 144
173 164 141 171 162 138 173 164 140 176 167 142 175 166 142
172 163 140 172 164 139 174 167 141 173 164 140 175 165 140
173 164 138 173 164 136 172 161 135 173 161 135 174 163 136
170 158 133 172 161 136 169 158 134 169 158 135 171 161 137
170 159 135 167 159 134 170 161 138 171 160 139 167 156 134
167 158 134 171 161 138 170 162 138 169 161 137 168 158 136
153 143 126 157 146 129 154 143 126 151 139 124 150 139 123
155 144 125 155 144 125 161 153 132 164 155 134 157 146 129
154 144 127 160 149 130 161 150 132 163 152 133 166 155 133
166 156 134 170 159 137 170 161 137 168 160 137 172 164 140
172 163 140 166 158 138 164 156 137 166 156 136 167 157 137
167 156 138 165 155 136 163 154 135 159 149 132 162 154 135
162 154 135 164 156 135 165 157 136 165 158 137 161 153 135
155 146 130 159 151 133 162 154 136 162 154 134 160 150 134
158 146 130 155 143 127 150 138 123 145 133 119 143 131 117
138 126 112 133 122 108 130 118 107 131 117 106 134 121 108
128 116 103 125 112 102 129 116 105 139 125 112 146 133 119
153 140 124 162 148 130 158 145 128 157 146 128 162 151 132
166 155 135 164 155 135 163 156 136 168 160 139 171 163 141
170 164 142 175 168 146 174 168 146 172 164 144 169 162 141
173 165 142 175 167 145 176 168 145 175 167 145 177 169 146
175 167 145 176 168 146 174 166 143 167 157 137 170 161 142
176 168 147 176 168 146 178 170 148 177 169 148 172 164 142
175 166 142 179 168 143 177 167 141 176 166 141 176 165 140
172 163 138 175 166 141 177 169 143 177 169 142 176 166 142
175 167 142 172 165 139 170 163 138 170 163 138 176 167 141
176 166 140 170 160 135 168 158 133 170 159 134 170 160 133
162 152 130 163 155 133 161 153 133 158 150 131 159 149 130
161 151 132 161 154 134 167 160 138 167 160 138 169 161 138
172 164 141 169 161 138 169 162 138 172 165 139 170 162 136
158 145 128 161 150 131 165 154 134 162 150 132 160 148 131
161 150 132 160 149 130 167 156 135 173 162 140 172 161 138
169 159 136 168 157 134 167 156 135 169 159 137 170 159 137
168 157 135 166 154 132 169 160 135 170 163 136 172 162 137
171 160 136 166 157 135 164 153 135 164 153 135 167 156 137
168 156 137 167 157 138 166 159 138 168 160 139 166 158 138
164 157 136 165 157 137 164 156 137 167 159 139 167 159 139
165 157 137 166 158 138 163 155 136 160 152 134 163 154 134
162 151 133 160 150 132 157 146 128 156 144 127 157 144 127
157 143 126 153 140 122 153 141 124 156 143 126 156 143 124
155 142 123 153 140 123 153 140 123 155 143 126 160 147 129
164 152 131 167 155 133 170 158 136 170 159 138 168 158 138
163 155 135 166 158 138 166 159 138 171 163 142 173 165 144
177 169 146 178 170 147 175 167 145 169 161 141 167 159 139
167 159 137 168 160 137 171 163 142 169 161 140 173 165 143
176 168 145 176 168 148 180 173 150 177 169 146 176 168 146
178 169 148 177 169 146 176 168 145 173 165 143 169 161 140
172 164 140 177 169 143 175 166 142 176 166 143 177 168 144
174 165 141 175 168 143 176 166 141 176 166 141 173 162 139
175 165 140 175 166 141 170 162 138 172 164 140 171 164 139
168 160 137 166 155 133 168 158 132 169 159 133 169 157 133
160 151 130 158 150 131 163 154 135 161 153 133 163 155 134
167 159 138 170 163 141 173 166 142 168 162 139 167 160 137
171 164 138 171 163 140 168 160 139 171 161 137 171 161 136
162 151 132 164 153 132 167 156 134 167 156 135 168 157 137
169 158 137 170 159 137 172 162 137 173 163 138 174 164 139
172 162 137 170 160 135 172 162 137 173 162 138 171 160 136
169 159 135 169 159 134 171 160 135 170 161 134 171 161 135
171 161 137 170 158 137 165 154 135 166 155 136 169 158 139
172 161 141 171 162 140 170 162 142 172 163 142 171 163 142
170 163 141 172 165 143 173 165 143 174 166 145 173 165 143
174 166 143 176 168 145 174 166 144 171 163 141 169 161 140
168 160 139 169 161 140 171 161 138 169 159 135 167 156 134
169 158 136 166 154 133 160 149 130 159 147 130 159 148 129
156 144 126 156 143 127 161 148 130 159 148 129 163 152 132
168 156 134 170 159 135 172 162 138 176 166 141 175 165 142
170 161 139 171 160 139 170 161 139 174 166 143 174 166 143
172 164 140 173 165 142 174 167 145 175 167 144 175 168 145
173 165 144 173 165 143 173 166 144 173 165 144 175 167 145
178 170 146 175 167 145 171 163 142 174 166 143 176 168 146
179 171 148 178 170 149 178 170 149 174 166 144 163 155 136
166 158 138 171 162 141 175 166 143 174 166 144 178 170 148
180 172 149 177 170 145 176 168 145 172 164 142 167 157 137
173 163 139 177 167 141 175 166 140 175 166 140 175 165 140
171 160 137 170 159 134 167 156 130 169 157 131 174 163 138
173 165 140 169 161 139 170 162 140 169 161 139 168 160 139
167 159 138 169 160 139 173 166 142 169 162 140 165 156 136
165 157 135 166 156 135 163 154 134 169 158 137 171 162 138
159 148 131 162 150 132 166 155 135 165 154 134 165 154 134
167 158 136 169 160 137 167 159 135 168 160 136 172 163 140
172 162 138 169 158 135 170 160 136 171 161 136 171 161 136
172 162 136 172 162 137 171 161 137 171 161 136 171 160 136
171 161 137 173 163 138 172 162 138 173 162 137 173 162 140
173 162 141 174 164 141 174 165 144 175 167 144 175 167 145
174 166 143 174 166 143 174 166 143 174 166 144 174 166 144
176 168 144 174 166 143 173 162 140 168 160 137 170 162 140
174 164 142 174 166 143 173 163 138 171 161 136 172 161 137
173 163 138 169 159 136 166 155 135 164 153 133 162 150 131
159 147 129 159 146 129 164 154 133 165 157 135 169 158 137
168 158 137 170 162 139 175 167 142 177 169 143 178 170 144
179 171 145 178 168 143 176 165 141 171 163 140 168 161 139
167 157 136 169 158 138 167 159 137 169 161 138 172 164 141
173 166 144 169 161 140 171 165 143 176 168 147 175 167 146
175 167 146 176 168 146 170 162 141 169 161 139 172 164 143
178 170 147 179 171 149 178 171 149 177 169 146 172 164 143
167 159 139 162 153 134 164 155 136 167 158 139 174 166 145
174 166 143 171 163 140 171 164 141 169 160 138 168 159 137
171 164 141 173 164 140 174 166 141 172 164 140 166 157 136
168 158 136 171 162 138 171 160 135 172 162 138 172 165 140
171 164 140 170 163 139 170 162 140 170 162 140 169 161 138
168 160 138 170 163 140 171 164 140 169 162 139 169 161 139
168 160 137 165 154 132 163 151 131 165 154 133 170 160 136
160 148 131 166 155 137 169 158 137 167 157 136 166 158 136
169 159 137 169 161 138 168 160 139 166 158 136 169 161 138
170 163 139 170 160 138 170 159 137 171 160 138 172 162 137
171 162 137 171 162 137 171 162 139 171 161 138 169 160 137
169 158 136 171 160 137 172 161 138 172 161 138 172 162 139
174 163 142 174 165 142 174 167 144 176 168 145 176 168 145
175 167 144 173 165 142 174 166 143 174 166 143 175 168 144
175 168 143 174 166 143 174 166 143 175 166 144 176 167 144
175 167 143 175 167 143 173 165 140 172 162 137 172 160 136
171 160 136 170 159 135 170 159 137 167 156 134 166 154 132
166 154 132 165 153 132 166 154 131 168 158 134 171 159 138
173 162 141 174 163 141 175 167 141 176 169 144 177 170 145
178 170 146 177 169 145 175 167 144 174 166 143 168 160 139
167 157 137 169 158 138 166 156 135 167 158 136 170 161 138
169 160 137 168 157 136 166 157 136 169 158 138 168 158 138
168 161 140 171 163 142 170 162 141 171 162 141 171 163 141
172 164 141 172 164 142 172 164 143 174 166 143 177 169 146
175 167 144 170 162 141 164 156 136 165 157 138 173 166 145
172 164 143 170 162 140 167 159 138 169 160 139 174 165 144
174 167 142 172 162 138 172 164 141 169 161 139 160 152 132
164 156 137 170 162 141 173 165 140 175 167 143 169 161 139
168 161 137 171 164 140 173 165 141 172 165 139 170 162 138
169 159 137 171 161 139 170 161 139 170 162 139 169 161 138
168 160 136 168 157 135 166 154 132 165 154 132 166 155 132
164 152 135 164 153 135 167 156 136 168 157 136 167 159 137
166 158 137 166 158 137 168 160 139 170 162 140 171 163 140
171 163 140 171 163 140 170 160 138 170 159 137 171 163 137
173 166 140 172 165 140 173 166 142 173 163 141 172 162 139
171 160 138 170 160 138 173 162 140 173 163 141 169 161 138
172 163 140 174 165 142 173 165 142 173 166 142 174 167 142
175 167 144 177 168 145 175 166 143 172 163 140 173 164 141
174 166 141 175 166 142 175 167 142 178 168 146 176 167 143
176 169 143 176 168 144 176 168 144 175 167 142 169 159 136
168 156 135 170 158 136 171 160 138 168 158 135 167 155 134
169 157 134 171 160 136 169 158 135 166 158 135 172 163 140
173 164 141 170 162 139 171 163 140 176 168 145 176 168 146
173 165 144 171 163 142 172 164 142 171 163 142 170 161 139
173 162 141 171 162 140 170 159 138 169 157 136 168 158 135
168 157 136 168 157 135 168 157 135 168 157 136 168 157 137
167 157 136 167 157 136 166 157 136 170 159 137 170 159 138
168 159 137 170 161 138 172 164 141 175 167 144 173 165 142
170 163 142 174 166 143 172 164 142 170 162 143 173 166 145
174 166 144 173 165 143 170 162 141 170 161 140 172 164 141
173 165 141 173 165 140 171 163 140 170 162 139 170 162 139
171 162 139 169 160 138 171 161 138 171 163 139 167 159 137
166 158 137 167 158 136 170 162 139 174 165 140 173 163 138
170 160 136 169 158 136 169 158 136 169 162 138 169 160 135
169 158 135 168 156 132 165 153 130 165 153 131 166 153 131
167 156 136 166 155 134 168 157 136 168 160 139 169 161 140
168 160 139 168 160 138 168 160 138 170 162 140 171 163 140
171 162 138 169 160 137 167 156 134 166 154 133 167 158 133
170 160 136 171 161 139 171 162 138 173 163 138 173 163 138
172 161 139 170 161 138 172 161 139 171 160 138 169 160 137
169 159 137 170 159 137 168 159 138 168 158 135 169 160 135
170 159 137 168 158 134 167 155 132 166 154 131 166 154 131
165 154 130 165 153 130 165 154 130 167 157 134 168 157 134
169 159 135 171 161 137 170 162 139 171 164 140 173 165 142
174 165 143 175 167 143 176 166 141 172 162 137 169 158 135
169 158 136 172 163 140 175 165 141 172 162 140 172 164 141
173 166 143 172 164 143 176 168 145 177 169 146 177 169 146
174 166 144 169 160 141 167 159 139 166 158 136 169 161 139
174 164 141 171 163 140 167 157 137 167 156 134 166 155 134
167 156 134 166 154 132 164 152 130 167 155 133 166 154 132
166 154 132 168 157 134 167 156 134 168 157 136 166 155 135
165 154 134 165 154 134 166 156 135 166 157 136 164 156 135
162 155 135 166 157 136 166 158 137 166 157 138 166 158 137
167 159 138 168 160 138 167 159 137 166 155 133 165 155 133
167 157 134 168 158 135 166 156 134 169 159 136 171 161 138
170 160 137 168 157 133 167 156 134 168 158 138 169 161 139
172 164 141 168 159 136 170 159 137 171 160 138 169 158 135
167 156 133 166 155 133 167 156 135 170 160 136 169 159 134
167 157 133 165 153 130 165 151 130 164 151 129 165 150 127
163 152 130 164 153 131 163 153 130 166 156 135 167 158 137
166 155 134 165 155 134 166 155 133 166 158 135 167 159 136
167 157 135 166 155 133 165 154 133 164 153 131 166 155 132
167 156 134 167 156 135 169 158 134 168 158 134 168 158 134
168 158 135 169 157 136 169 158 136 169 157 135 169 158 136
169 158 136 169 158 136 164 156 135 164 155 133 166 154 133
165 154 134 164 153 133 164 152 130 164 153 131 161 149 128
164 152 131 167 155 132 165 154 132 165 156 133 166 154 133
167 156 134 166 156 135 168 159 136 170 161 138 170 161 138
171 162 138 171 161 137 169 159 136 166 157 133 168 157 133
168 156 132 172 161 137 178 170 144 177 167 144 175 165 143
173 165 142 173 165 143 172 164 141 172 163 140 173 165 142
173 166 144 175 167 144 175 167 145 173 165 143 173 163 142
170 161 138 170 161 138 168 160 137 171 159 137 170 159 137
171 160 136 170 159 137 166 154 133 166 154 132 166 154 132
167 155 133 168 156 134 167 156 134 166 155 135 166 155 133
165 155 134 164 155 132 163 154 132 161 153 132 163 153 132
163 152 130 163 154 132 165 156 133 167 156 135 166 157 135
164 157 134 164 156 135 164 155 133 164 153 133 164 153 132
163 153 131 163 153 131 164 155 134 166 155 134 166 155 134
168 157 135 166 155 134 166 155 134 167 156 136 169 158 138
170 160 137 169 158 136 167 156 134 167 156 135 167 156 134
166 156 132 164 153 132 165 154 132 167 156 134 167 157 134
166 156 131 164 153 131 164 152 131 163 151 131 164 151 128
157 146 126 159 148 128 162 151 131 162 153 132 163 153 133
161 152 131 159 151 130 161 152 130 161 153 130 166 155 133
167 156 134 166 155 133 166 155 133 166 156 134 166 155 134
167 156 134 168 158 135 170 159 134 170 160 135 170 160 137
170 160 136 171 160 137 170 159 137 169 158 138 168 157 136
167 156 134 168 157 135 169 159 137 168 158 136 168 157 135
168 157 135 169 158 135 168 157 134 169 160 136 167 157 135
169 159 138 172 162 139 172 162 138 171 162 136 169 159 136
170 159 137 170 159 137 170 159 136 170 159 134 169 158 136
168 157 135 166 155 133 164 153 131 163 153 132 164 153 133
163 152 130 165 154 131 173 163 138 173 164 141 174 166 143
173 165 142 170 162 139 168 158 137 168 157 137 168 159 138
167 159 137 169 161 138 172 164 140 173 165 142 172 164 143
173 165 143 175 167 144 169 161 139 172 162 139 174 164 142
173 163 139 171 160 136 170 160 135 169 159 135 170 160 135
169 158 135 171 159 137 170 159 137 169 158 136 171 161 137
171 160 138 170 161 138 169 160 137 168 158 137 169 158 136
170 160 137 170 159 137 169 159 135 168 159 135 170 159 137
169 160 137 168 158 136 169 158 135 169 158 136 169 157 136
168 157 135 167 158 135 166 156 134 168 158 134 169 159 137
170 161 138 170 161 138 170 159 137 168 159 137 168 157 135
167 156 134 168 157 135 167 156 134 168 157 135 168 158 134
168 157 134 167 156 134 167 155 131 167 155 132 168 157 133
167 158 134 166 158 135 167 158 136 168 157 136 170 159 136
158 147 128 161 150 130 162 151 131 160 151 131 159 151 130
159 151 132 160 152 132 159 151 130 159 150 129 162 150 129
165 154 132 168 157 134 167 156 133 166 156 132 167 156 133
168 157 133 169 158 132 172 161 136 171 161 135 171 161 134
171 161 137 170 158 134 169 158 135 169 158 136 169 158 136
169 158 136 170 160 137 173 165 140 171 163 137 171 161 136
172 163 137 173 164 138 174 166 141 173 166 140 173 165 141
171 163 141 170 162 139 171 164 140 171 164 139 171 163 138
170 159 137 169 158 134 170 159 134 169 158 134 168 157 135
167 156 133 164 153 131 164 153 131 165 154 134 164 153 133
162 152 132 164 153 132 167 157 134 166 157 135 167 159 137
170 162 138 172 164 141 170 162 140 169 159 139 166 157 137
165 156 135 168 161 138 171 163 142 173 165 144 175 167 145
176 168 144 179 172 147 178 170 147 174 166 143 173 165 142
171 161 137 171 161 136 170 159 136 169 158 135 169 159 135
170 159 136 171 160 138 174 163 141 173 162 140 174 164 139
174 164 140 172 161 139 172 162 137 172 163 139 172 162 140
172 164 141 172 164 139 171 164 138 171 163 138 170 160 136
170 159 136 171 161 136 173 163 138 174 164 139 174 164 140
173 163 141 171 163 140 169 160 137 169 161 136 170 159 135
172 163 140 174 166 144 174 165 143 174 166 142 173 163 138
170 159 137 171 161 137 173 162 139 173 162 140 172 161 139
171 160 137 169 158 136 169 157 133 169 158 135 171 159 136
170 161 138 168 162 139 168 160 139 170 162 140 171 161 138
158 148 129 160 149 129 161 150 130 161 151 131 160 151 131
161 150 131 161 150 131 162 151 131 163 152 131 164 152 129
164 152 128 165 153 130 163 151 130 161 150 128 162 151 128
164 153 130 167 155 132 169 158 134 167 157 133 166 155 131
165 153 130 167 154 133 169 157 135 169 158 135 171 159 137
171 160 137 171 161 136 174 164 139 173 165 139 173 163 138
173 165 140 174 167 141 175 168 142 175 168 142 173 166 140
173 166 140 172 164 138 170 163 138 170 162 139 169 159 137
168 157 135 168 157 132 169 157 133 166 154 131 164 153 131
163 152 132 163 150 130 163 151 131 166 155 133 165 154 132
165 154 133 168 157 136 168 157 136 168 158 137 170 159 137
169 160 137 173 165 142 177 169 146 176 168 145 171 163 142
171 164 143 176 170 147 174 167 146 172 165 144 171 163 142
174 166 143 175 167 145 177 169 147 174 166 144 169 161 140
169 161 138 170 161 136 170 160 135 169 159 134 169 159 135
169 159 136 173 162 140 175 164 142 176 165 143 176 165 141
173 163 138 173 163 139 174 164 140 172 162 139 171 164 141
172 164 141 170 163 139 172 162 137 173 163 139 171 164 139
169 161 138 172 164 140 176 167 143 176 167 142 175 168 142
174 167 143 174 167 142 175 167 142 174 166 141 173 165 139
173 165 141 175 166 144 175 168 143 174 166 142 175 164 142
174 163 141 172 163 138 173 163 140 174 163 142 174 163 141
172 163 140 173 162 140 171 160 138 170 160 137 171 160 138
170 161 138 169 161 138 169 160 139 170 161 139 172 162 138
157 148 128 157 148 127 158 147 128 157 145 126 156 143 123
161 148 128 160 148 127 157 145 124 157 145 123 161 150 126
163 152 128 161 150 127 160 149 127 162 151 129 165 154 132
162 150 129 160 149 127 166 154 131 168 157 134 167 156 135
168 156 135 168 157 136 169 158 137 168 157 135 168 157 135
169 159 135 169 158 136 172 162 137 174 164 139 175 165 140
174 164 139 174 165 140 172 166 140 173 166 142 176 168 143
176 169 142 175 168 141 174 167 142 171 161 139 167 156 133
164 154 131 165 153 132 164 152 132 161 149 129 158 147 128
159 146 127 158 145 126 157 146 126 161 150 129 162 151 129
166 155 133 167 156 134 164 153 131 165 154 132 167 156 134
165 154 133 169 159 137 171 163 140 171 163 140 173 166 143
177 169 145 178 170 147 173 165 144 168 160 140 167 159 139
167 159 137 169 161 140 173 165 144 173 165 144 170 162 141
170 163 140 171 162 138 171 159 137 170 160 137 170 162 139
170 162 139 172 162 140 171 161 138 171 161 137 174 164 139
176 166 141 173 163 139 173 162 140 171 161 138 169 159 137
172 164 141 173 164 141 173 163 138 175 167 142 174 166 143
174 164 142 174 165 142 176 168 143 176 169 143 174 166 140
175 166 142 174 167 142 174 167 141 173 166 141 171 163 140
170 163 139 171 162 140 174 163 141 170 161 138 170 159 137
173 162 140 172 163 140 170 162 139 170 160 137 170 159 138
172 164 141 174 165 142 174 164 142 172 163 141 170 158 138
169 160 138 170 162 139 172 163 140 173 165 141 175 165 140
153 140 122 152 140 121 152 140 122 151 138 120 157 144 125
160 149 129 158 145 124 154 141 122 157 145 122 163 152 129
166 156 131 169 159 136 168 160 135 170 160 137 169 158 135
166 155 132 160 149 127 164 153 131 165 155 131 161 150 128
160 147 127 162 151 130 168 157 136 170 159 139 169 158 137
168 157 135 170 162 139 173 165 140 175 166 142 175 165 140
174 164 138 172 162 137 169 160 138 168 157 136 171 162 140
174 166 142 173 165 140 172 164 141 170 160 138 166 154 132
165 154 132 163 152 133 162 151 132 161 150 130 160 149 129
159 147 128 160 148 129 162 151 132 163 152 132 163 152 131
167 157 134 165 155 131 164 153 130 164 153 131 164 153 131
164 153 132 165 155 134 164 153 133 164 154 133 169 160 137
171 163 139 174 166 144 174 167 145 174 166 145 173 165 144
170 160 138 167 159 137 167 158 136 168 158 138 169 159 139
171 161 140 170 159 137 170 158 137 169 159 138 169 161 139
171 162 139 174 164 140 177 169 146 177 168 144 175 164 140
174 163 141 174 163 140 172 160 138 170 160 137 166 158 135
168 160 137 172 161 138 173 163 139 174 163 140 171 162 138
171 163 140 171 161 139 174 164 139 175 167 140 175 165 140
175 165 140 174 166 142 175 168 142 173 165 140 170 162 139
169 161 138 169 159 137 171 159 138 171 160 138 169 158 136
172 161 140 172 163 139 171 160 136 170 160 138 169 159 137
173 163 141 172 162 140 171 161 137 169 161 138 169 159 137
167 156 136 167 160 137 171 163 139 174 164 140 174 164 139
154 141 122 158 146 127 157 144 126 159 147 128 163 151 132
167 156 134 168 157 134 166 155 133 170 159 134 170 159 135
168 158 133 167 157 133 167 158 133 167 157 133 166 156 132
164 154 131 165 154 132 166 155 132 169 159 135 169 157 137
166 154 134 167 155 135 170 159 138 171 160 138 171 161 138
172 163 140 178 168 144 176 167 143 173 165 142 173 164 140
174 163 140 171 161 137 171 160 138 170 159 137 172 161 139
172 161 139 171 161 138 169 160 137 169 160 137 167 157 136
168 157 136 168 157 136 168 158 136 168 160 138 166 158 137
166 156 134 167 157 136 170 159 137 168 157 135 164 153 132
163 151 132 163 150 131 161 149 129 163 152 132 163 151 130
166 155 133 165 154 134 163 152 132 160 149 129 163 152 132
168 158 137 167 158 137 165 157 137 168 160 139 169 159 138
170 160 137 168 158 135 167 156 134 166 155 133 168 156 135
169 158 136 170 159 138 167 156 136 165 154 134 167 158 137
169 161 138 175 166 142 176 167 144 171 160 138 170 159 138
174 164 141 173 164 141 174 164 141 175 165 142 174 166 142
171 163 140 173 163 140 171 162 138 173 162 140 170 161 138
170 162 138 173 165 141 171 164 139 174 166 141 176 168 143
173 165 141 168 160 138 169 161 139 173 165 141 172 164 139
170 160 137 172 161 139 171 160 137 171 160 138 172 161 140
173 162 140 171 161 138 171 160 137 171 160 139 172 161 139
174 162 140 171 160 138 171 161 137 170 161 137 169 161 138
171 162 139 171 160 139 172 161 139 174 163 140 174 163 141
164 154 133 166 154 134 167 154 135 164 152 131 164 154 132
165 155 132 168 159 135 167 160 135 170 162 136 174 166 141
170 161 136 172 163 138 173 165 139 171 162 137 170 162 137
172 164 139 173 163 141 171 159 137 171 161 138 173 164 139
171 161 139 167 156 136 168 158 138 170 161 138 167 156 134
168 159 137 175 164 140 173 163 140 168 159 137 168 161 137
171 161 138 171 161 136 170 160 137 171 160 138 173 162 140
172 161 139 172 161 139 170 161 139 169 161 138 170 163 140
173 162 140 173 164 141 173 166 143 174 166 145 172 163 141
170 159 136 171 160 138 172 161 138 169 158 136 163 152 131
156 145 127 155 144 126 154 142 125 156 144 126 159 147 127
160 150 129 162 154 134 162 153 133 154 143 125 156 145 126
160 149 129 160 149 131 163 154 134 165 155 134 164 154 133
168 158 136 170 159 137 167 158 135 168 160 136 170 162 139
167 158 137 164 154 136 166 155 135 166 155 135 168 157 137
170 162 139 173 165 142 172 164 142 173 165 142 174 165 144
176 169 145 177 169 146 177 169 147 179 171 145 180 172 147
177 169 146 175 168 143 173 165 140 169 161 139 173 164 143
171 163 142 171 163 141 169 161 140 172 165 142 174 166 143
168 161 140 165 157 137 170 162 141 171 163 141 169 161 138
170 159 137 172 161 138 172 162 139 171 160 137 169 158 137
172 162 138 174 163 139 171 160 139 170 159 137 170 159 137
173 162 139 173 162 140 172 163 139 170 163 139 169 161 138
173 165 142 174 165 141 171 162 139 171 160 138 169 159 136
