P3
50 37
255
28 29 24 28 28 23 30 29 23 31 31 25 37 35 27 34 32 25 33 32 25
30 31 25 27 28 24 27 28 23 29 30 24 31 32 26 30 31 25 35 35 27
29 29 24 30 30 25 31 32 26 29 30 25 35 34 28 38 38 32 36 36 30
35 34 28 38 37 30 31 32 29 41 39 31 37 37 30 34 35 31 40 39 31
36 36 29 31 32 27 32 32 26 42 39 29 41 39 29 41 39 28 43 41 30
32 32 27 38 38 32 45 43 33 41 40 31 37 36 30 47 48 40 49 49 41
40 40 31 58 55 41 59 54 37 60 58 45 50 50 39 50 49 37 59 59 47
63 62 49 28 28 23 32 31 23 30 30 24 26 27 22 27 28 23 32 31 24
35 32 24 32 33 25 28 28 23 30 31 25 27 28 23 27 28 23 30 30 24
30 31 24 29 30 23 29 29 24 28 28 24 26 27 22 31 31 25 35 35 28
42 40 28 40 39 29 36 35 30 38 37 30 44 41 30 39 37 30 39 37 30
48 44 31 45 41 29 42 39 30 32 33 27 35 34 28 47 44 30 48 44 29
41 38 28 44 42 32 42 41 33 40 39 31 48 45 33 43 39 27 48 46 34
53 51 36 47 44 30 47 45 33 51 50 38 50 47 33 53 51 37 67 69 64
54 54 46 68 70 62 27 26 22 33 32 25 33 32 25 30 30 23 30 30 24
36 34 26 36 34 26 35 34 27 35 33 27 32 32 27 28 28 25 27 28 23
29 30 24 33 33 26 33 33 26 32 31 25 32 31 24 29 29 24 26 26 24
26 26 23 32 31 24 43 39 27 42 36 28 39 35 27 42 38 28 42 39 28
41 38 28 44 40 29 44 39 27 50 44 29 46 42 29 46 44 34 50 46 34
54 48 30 44 40 25 46 42 27 41 37 26 40 37 24 43 40 28 42 38 25
42 39 24 61 58 42 58 54 39 40 38 27 40 38 26 42 40 28 54 51 35
89 96 107 88 97 110 100 107 118 32 30 24 32 31 24 36 33 24 44 39 25
43 38 26 37 34 25 35 31 24 35 31 25 39 37 28 34 34 28 34 33 27
29 29 24 30 30 24 33 33 27 37 35 27 37 35 26 37 35 25 35 33 25
28 27 22 27 27 22 32 31 24 37 32 24 47 42 30 42 38 28 55 48 30
57 51 31 42 38 26 46 40 27 46 40 25 53 46 27 54 48 29 52 48 35
65 58 36 75 66 39 68 61 38 49 45 28 45 41 26 60 56 40 59 54 39
58 54 42 74 69 58 83 79 70 77 74 61 73 68 50 63 58 42 52 48 32
62 59 46 80 83 84 95 98 109 121 121 125 34 31 25 30 29 23 29 29 22
35 32 22 33 31 22 30 28 22 39 34 23 41 38 25 36 34 25 35 34 27
29 29 25 31 31 25 30 30 24 38 37 27 40 38 27 33 32 24 32 31 23
39 36 25 33 33 24 37 34 24 40 36 26 54 45 27 41 37 27 38 34 26
57 50 34 59 50 33 45 37 23 53 45 28 57 50 33 46 41 29 42 38 27
66 60 38 69 63 44 72 66 48 71 65 49 72 67 56 66 60 44 57 51 37
72 67 54 84 78 66 91 84 75 93 88 82 71 67 52 81 77 60 83 79 62
69 65 51 63 59 46 50 45 29 69 67 57 110 114 127 32 31 24 29 29 23
29 28 22 39 34 23 35 31 22 34 30 22 45 39 25 51 47 35 55 52 42
44 39 28 42 37 27 43 38 27 43 40 28 43 41 28 55 50 33 39 35 24
40 35 24 39 36 25 32 30 24 34 31 23 35 33 24 44 39 25 34 31 23
34 31 23 42 38 26 47 42 28 45 39 26 48 42 28 41 38 28 51 47 37
46 42 29 73 66 45 94 88 79 87 81 69 56 49 31 50 45 32 83 75 62
65 60 44 66 62 47 88 83 66 86 82 69 97 91 83 108 102 98 76 70 55
68 61 42 81 75 60 73 70 58 59 53 34 77 74 62 93 95 97 29 29 23
30 29 23 31 29 23 34 32 23 38 34 23 33 30 22 35 32 23 40 36 27
45 39 29 38 35 25 43 38 27 42 36 25 58 53 38 63 56 35 58 51 30
37 33 23 38 33 23 39 34 23 44 39 26 42 38 27 33 31 22 35 32 24
34 31 24 45 39 27 39 35 24 39 35 23 51 44 25 54 47 31 45 39 23
44 38 23 49 43 27 54 47 29 81 72 60 109 98 90 115 105 102 117 109 108
102 95 84 122 115 108 152 147 146 170 159 154 169 158 154 169 156 152
166 152 147 121 111 99 66 59 41 98 87 69 108 98 83 112 109 106
111 113 124 118 123 143 28 28 22 25 25 21 25 25 22 26 26 22 28 27 22
29 28 21 31 29 23 30 29 23 30 29 22 27 27 22 36 34 25 40 35 25
45 40 29 43 38 27 41 36 24 41 36 24 31 29 22 32 31 23 31 31 24
37 34 25 35 32 23 33 31 24 34 31 23 37 33 21 44 38 22 63 55 37
78 68 47 91 80 60 98 85 63 96 81 56 92 78 58 90 79 61 113 100 86
105 93 81 104 93 83 101 90 72 126 114 102 170 156 167 172 159 168
173 161 166 183 166 160 171 160 163 192 174 163 186 172 168
128 121 115 157 145 142 166 152 151 150 147 153 145 142 153
135 135 150 33 30 23 27 27 22 27 26 22 27 27 22 26 26 21 28 27 21
28 27 21 27 26 21 33 31 23 36 33 24 41 36 25 35 32 24 30 27 21
36 31 21 36 33 25 41 38 25 45 42 27 42 37 24 35 31 21 28 27 20
32 29 22 41 34 20 50 41 21 65 54 32 59 49 28 84 74 54 112 101 89
93 80 63 98 82 59 93 77 49 131 111 93 134 117 97 165 143 140
139 119 108 108 90 65 108 91 69 138 119 103 175 154 160 178 160 174
174 157 169 166 154 167 156 150 167 162 154 164 178 162 158
180 167 170 183 165 159 172 156 153 152 145 150 142 140 152
135 136 152 33 31 23 29 28 22 31 29 22 28 28 21 27 27 21 30 29 21
34 31 22 35 32 23 42 36 23 48 42 29 36 33 25 34 28 22 44 34 23
52 44 28 40 36 25 37 34 25 43 39 24 52 44 29 72 64 49 52 46 28
47 40 23 70 59 40 100 84 59 100 84 60 97 83 64 126 110 100
139 121 114 105 86 67 85 69 44 86 71 43 116 97 68 159 133 118
192 159 155 202 167 164 201 166 162 200 166 165 194 162 164
191 160 163 189 161 165 184 161 169 181 160 171 179 159 163
168 153 161 165 153 164 168 156 159 165 157 162 158 153 162
151 147 154 145 140 152 136 135 150 25 26 22 30 28 22 31 30 23
27 27 21 28 28 22 29 28 23 30 29 23 38 34 24 46 43 28 50 44 30
35 30 23 33 28 20 37 31 20 44 38 25 40 35 24 35 32 23 42 37 23
64 56 37 111 98 73 105 92 73 99 82 62 109 94 75 118 102 82 96 80 58
91 76 57 105 86 60 128 104 79 140 117 96 134 112 87 165 137 123
190 156 144 201 165 155 204 168 155 190 160 149 168 145 144
167 143 138 208 171 151 195 162 149 192 159 154 194 162 156
195 163 150 202 167 146 187 162 156 183 161 157 174 159 164
175 160 163 162 154 162 178 159 155 154 135 139 140 124 131 32 28 22
34 32 25 36 34 25 29 29 23 25 25 21 27 26 22 26 26 21 36 33 23
60 57 43 37 34 24 31 25 18 52 41 28 67 58 40 63 53 32 56 47 29
52 44 28 74 61 38 95 81 63 99 83 73 110 92 83 119 101 88 105 86 65
112 94 81 95 76 53 88 74 53 75 62 38 96 81 62 100 81 53 113 93 67
163 141 142 183 156 154 177 150 143 170 143 135 150 130 132
153 134 135 158 138 137 168 142 133 153 135 137 153 137 140
200 165 141 204 167 148 187 158 146 200 168 146 203 172 156
196 169 162 165 142 140 146 129 134 154 133 135 142 126 136
141 126 136 34 32 24 29 30 24 38 35 24 38 35 24 32 30 22 29 27 21
35 30 22 37 32 21 41 36 23 40 34 20 42 31 20 57 41 26 67 52 31
64 51 31 68 54 31 68 54 34 63 50 30 90 74 54 116 98 82 117 100 83
128 111 104 139 121 117 154 135 137 132 111 95 137 118 107
140 121 110 148 132 133 139 120 113 158 135 127 180 153 146
185 151 137 190 159 143 187 154 137 195 154 130 197 152 128
193 149 125 185 141 120 169 139 128 159 135 130 164 136 126
159 134 128 162 139 131 165 140 129 168 146 147 171 148 146
136 121 133 134 120 131 138 123 135 145 133 144 145 133 143 47 41 26
42 39 26 35 34 24 31 29 20 29 25 18 42 33 21 51 39 23 41 33 22
38 32 21 50 39 21 73 55 32 89 73 60 96 83 74 104 90 74 114 100 85
116 101 87 129 113 103 111 96 78 73 61 35 83 68 43 95 77 50
140 118 106 183 157 167 182 157 163 190 164 162 198 169 156
208 173 149 214 177 160 216 181 172 223 187 171 228 192 169
232 198 167 239 207 170 242 216 174 239 209 169 228 192 157
217 177 144 214 174 142 210 169 140 206 164 138 196 159 140
191 155 136 172 142 133 156 132 130 154 133 135 157 136 141
161 140 145 162 142 145 162 143 146 159 141 146 51 44 27 38 34 24
27 25 21 42 33 22 49 38 24 49 41 24 46 38 22 28 26 20 36 31 23
52 41 20 96 81 58 114 100 78 105 92 70 124 110 88 152 138 136
164 153 164 160 149 159 152 140 145 123 111 105 129 116 113
147 130 130 163 143 145 178 156 163 178 155 158 178 154 155
183 156 149 188 158 147 201 167 154 212 178 165 216 183 167
219 187 164 226 196 167 202 179 156 189 171 155 182 164 152
233 208 171 239 209 171 223 191 165 216 183 161 209 179 164
204 175 161 198 164 144 186 155 142 165 146 147 162 144 148
159 142 148 161 142 145 161 144 145 158 142 146 156 142 149 30 27 23
39 33 23 64 49 26 60 48 26 54 46 26 42 36 23 18 19 17 27 24 19
44 32 18 104 85 60 89 75 50 65 56 34 73 60 34 129 110 86 166 146 140
171 150 151 171 150 151 170 151 153 171 154 158 168 154 159
169 155 159 168 153 158 165 149 152 169 152 155 171 152 154
173 154 155 172 154 156 169 153 154 172 155 155 174 154 153
172 152 152 170 152 154 165 150 152 159 145 146 156 142 147
177 158 152 187 168 156 168 151 148 161 146 146 159 146 149
161 146 151 174 155 154 173 153 154 170 150 153 168 148 154
160 144 152 157 142 149 153 140 148 151 139 150 151 139 149 53 44 27
76 58 29 62 51 26 58 48 24 50 40 22 21 21 17 24 24 19 49 35 19
101 79 63 129 111 97 137 117 108 107 90 71 100 83 53 144 126 111
169 154 159 168 150 153 167 149 153 165 149 151 159 145 147
158 145 145 171 151 147 181 157 154 184 159 158 190 160 158
194 163 158 182 157 153 190 164 157 208 178 163 213 183 163
220 187 162 219 185 157 223 189 155 232 205 162 234 213 172
235 212 170 228 204 167 222 196 163 225 194 159 222 185 154
220 184 155 216 183 162 214 181 165 202 172 162 191 161 156
182 155 154 175 153 152 172 152 153 168 151 155 165 148 155
163 147 153 61 47 26 64 49 26 47 39 24 36 30 20 23 22 17 30 26 20
46 36 23 77 54 22 119 108 97 133 126 131 145 132 130 152 136 131
151 134 129 153 136 133 151 136 135 153 138 137 151 137 137
153 140 141 157 143 144 159 142 140 158 142 141 162 143 139
161 142 139 170 146 144 171 146 142 151 132 129 162 140 137
211 178 164 229 195 172 228 192 163 231 195 162 238 206 170
240 212 172 240 215 171 238 210 165 239 208 162 240 210 169
228 193 155 133 104 86 199 165 139 231 196 170 219 186 169
216 182 169 206 172 163 198 164 160 195 162 160 195 164 164
189 163 168 183 161 171 181 160 170 55 45 27 48 41 25 41 33 23
36 29 22 47 36 23 62 45 26 71 52 25 90 73 46 96 90 82 103 100 105
106 103 109 115 111 114 128 120 121 127 118 121 133 120 120
151 133 128 158 140 131 157 138 132 153 135 132 151 135 134
151 135 134 147 132 131 147 130 127 149 130 124 151 131 125
154 134 127 165 142 131 171 148 138 193 162 140 204 170 143
218 184 154 223 191 155 218 185 148 222 187 147 221 187 145
222 186 145 235 200 159 150 117 93 38 26 27 92 76 67 220 185 157
217 185 163 215 183 166 209 177 163 202 170 157 198 168 160
192 163 162 187 161 164 179 157 163 178 157 161 39 33 24 40 34 25
46 37 26 47 37 25 49 38 24 63 46 27 80 60 27 87 74 51 93 87 86
98 89 83 104 93 85 115 102 92 100 94 93 107 99 95 113 101 91
113 103 97 117 107 101 114 106 105 127 115 110 126 115 112
131 118 114 132 118 113 127 114 110 133 117 107 129 114 105
136 118 106 139 119 112 140 120 114 145 121 109 161 132 113
175 141 120 172 135 113 173 133 106 190 147 112 197 153 116
188 147 114 181 139 109 87 65 54 53 43 42 50 40 38 139 116 100
174 148 132 163 140 128 161 139 128 161 142 129 139 122 112
150 135 129 146 134 132 143 132 130 142 131 126 34 29 23 36 30 24
48 38 26 49 38 25 54 41 25 50 39 25 73 54 27 103 76 29 92 80 62
88 86 88 100 93 84 102 93 86 99 92 89 105 96 90 115 104 91 98 91 85
95 88 85 100 93 91 108 98 94 119 105 93 116 103 96 122 108 101
113 101 97 116 102 91 123 107 93 114 101 89 119 105 95 121 108 103
126 110 100 142 119 102 142 114 94 157 124 104 165 129 104 130 94 69
131 92 68 131 91 67 121 86 66 87 63 51 55 43 41 56 45 42 80 61 53
92 70 60 97 74 66 100 78 70 103 83 77 87 66 57 108 91 82 95 84 77
89 78 71 80 73 72 34 29 22 37 30 23 40 32 24 50 37 24 52 39 24
49 38 24 53 38 23 68 47 22 88 67 38 82 79 80 85 83 88 92 86 85
93 89 88 90 84 82 95 87 80 102 92 82 101 92 81 97 89 79 88 82 79
84 78 76 92 84 78 103 91 80 119 105 90 118 110 106 96 89 86 99 89 74
119 105 80 145 125 100 176 152 131 152 126 103 98 74 56 127 98 70
140 107 73 109 75 51 105 70 50 114 76 54 106 77 57 90 69 56 83 64 54
82 66 55 69 58 50 62 52 46 66 56 50 62 52 48 64 50 47 68 54 50
65 50 47 63 48 45 66 51 45 71 57 50 32 26 20 40 32 23 59 40 25
75 48 25 64 44 23 69 44 25 61 42 25 75 47 24 97 65 34 74 73 75
74 73 80 79 76 81 71 71 80 64 62 67 65 64 70 71 69 75 82 77 78
94 86 78 97 89 77 84 78 75 68 66 70 81 73 65 84 76 67 73 68 71
66 62 65 80 72 65 90 80 62 127 110 80 151 132 115 89 74 60 74 59 49
88 67 49 95 71 50 121 90 59 116 82 56 96 68 54 88 66 56 80 63 54
71 58 52 66 55 51 62 53 49 63 54 50 61 52 49 61 53 52 64 55 54
62 52 50 60 51 49 56 47 44 66 56 48 60 52 50 36 28 21 43 34 23
72 48 25 92 54 25 80 52 24 82 49 27 69 47 27 77 51 27 75 52 26
76 66 48 66 64 69 72 69 73 82 76 71 81 76 68 74 70 65 53 53 62
59 58 65 66 64 70 76 72 72 69 68 71 70 68 73 86 79 73 86 79 71
64 62 66 65 61 64 76 70 65 74 67 59 118 107 92 98 90 89 67 55 50
69 59 53 71 59 51 79 64 51 86 68 53 95 74 57 97 71 52 72 54 49
67 53 50 59 49 47 58 49 46 58 48 46 58 49 46 61 51 48 64 54 50
59 50 48 55 47 46 62 51 48 58 48 46 65 55 48 58 50 50 33 27 21
40 31 22 58 42 25 78 47 24 91 55 25 65 44 25 44 35 25 45 35 24
43 35 23 55 45 23 67 56 34 62 58 57 66 64 68 77 73 69 80 73 62
54 53 56 54 53 61 57 55 63 57 56 63 57 57 64 60 58 63 63 60 66
70 66 66 84 75 65 64 60 59 74 68 59 78 70 58 92 83 71 65 59 60
60 53 53 67 57 52 63 54 51 61 52 48 60 52 48 61 52 50 77 64 52
87 66 55 69 52 50 65 51 46 63 50 45 57 48 44 55 48 45 56 47 45
53 46 46 50 45 47 60 51 50 64 54 51 57 47 46 58 48 43 64 55 50
32 27 21 35 29 24 46 36 26 42 35 25 64 42 26 61 42 25 33 30 24
34 29 23 45 34 23 48 40 24 66 57 29 65 59 52 64 61 64 75 68 62
81 72 59 56 54 55 56 51 49 49 47 50 54 51 53 55 52 54 59 56 57
60 56 57 57 54 57 71 64 61 59 56 56 63 58 56 68 61 56 58 55 57
62 55 52 57 50 49 60 52 49 58 51 50 57 49 48 49 44 46 53 45 43
56 47 43 88 68 57 82 61 56 79 60 55 69 53 49 69 54 48 62 49 44
67 55 44 75 61 48 67 55 48 63 52 48 66 53 50 75 61 52 72 62 51
62 54 51 32 28 22 36 31 25 39 33 26 34 31 25 40 33 24 51 39 24
36 32 24 31 29 24 42 36 26 48 40 24 58 49 27 55 49 29 49 45 31
49 45 30 64 55 32 64 57 39 72 59 29 55 50 47 54 49 51 59 53 52
60 58 60 57 55 60 55 52 54 61 58 58 53 51 57 52 48 52 50 47 49
54 48 48 58 50 46 50 46 48 52 49 51 52 47 48 56 50 49 51 45 48
49 44 46 55 48 48 82 62 51 90 64 54 95 72 53 88 69 50 81 62 47
81 61 48 90 73 50 87 73 53 79 65 52 79 63 50 79 64 51 76 65 53
68 60 52 64 56 50 27 26 24 33 30 25 37 32 26 32 30 25 36 32 25
34 30 23 34 30 23 32 30 25 33 31 25 40 33 23 62 49 24 41 36 26
26 26 22 27 27 22 36 33 22 41 38 23 58 50 26 65 57 40 63 53 43
66 54 43 67 61 59 58 56 62 48 47 55 55 53 56 58 54 58 43 41 49
48 46 47 56 49 46 52 47 48 51 47 52 53 48 53 51 47 49 49 45 47
49 43 45 49 43 48 70 59 57 91 70 61 109 77 59 103 80 49 73 60 42
78 63 46 92 73 52 81 69 51 68 59 48 61 53 48 66 57 51 69 59 51
67 58 51 68 60 53 59 53 51 29 28 25 35 32 27 33 30 26 29 28 25
38 34 27 37 33 26 37 33 26 32 30 24 30 28 23 34 30 23 48 39 25
53 45 27 33 31 27 36 34 27 36 33 26 25 25 22 41 38 26 59 52 29
73 59 28 71 58 34 73 59 41 75 61 37 68 56 43 59 52 49 54 50 51
50 45 47 58 51 48 50 44 44 48 44 48 49 45 50 51 46 49 52 47 47
49 45 45 48 42 42 53 43 41 57 47 46 66 54 54 95 74 59 101 81 50
55 48 41 59 50 44 77 65 50 71 61 51 56 49 47 61 53 48 60 52 47
73 62 49 71 61 50 52 47 48 51 47 48 35 33 27 35 32 27 35 33 27
33 31 26 34 32 27 35 33 26 31 29 23 29 27 23 33 30 24 40 34 26
37 34 27 37 34 27 53 44 28 46 39 29 36 33 29 30 30 25 31 29 24
33 31 24 39 36 24 50 44 27 76 61 36 73 58 27 81 61 26 69 55 39
44 41 45 54 47 44 52 46 44 46 43 45 47 44 49 45 43 50 47 44 50
48 44 47 50 46 47 49 43 43 53 42 39 57 46 41 56 47 41 70 57 43
62 53 44 58 52 44 66 57 44 64 56 45 57 49 44 59 51 45 56 48 45
58 51 46 56 50 47 50 46 46 48 45 46 47 44 44 33 31 27 32 31 26
36 33 28 37 34 28 36 34 27 31 29 24 30 29 24 29 28 24 34 30 24
36 31 24 32 30 25 32 30 25 45 39 28 54 45 27 54 45 27 44 38 25
35 32 24 38 35 27 43 39 25 48 41 24 48 41 25 55 47 29 64 52 25
74 57 27 79 59 30 63 53 43 47 45 48 45 43 45 45 43 46 48 45 49
51 46 49 52 44 46 50 45 47 50 43 43 55 44 39 61 48 41 54 45 40
52 44 40 49 43 40 53 47 41 52 46 42 48 43 41 48 43 40 54 47 43
57 50 46 56 50 46 50 46 44 50 44 43 49 45 47 42 39 41 33 32 28
30 29 25 32 30 26 36 34 28 35 32 26 29 28 23 31 30 26 32 30 25
25 24 22 24 23 22 28 27 24 39 34 26 46 39 27 43 38 27 46 38 24
48 40 24 42 37 26 41 37 26 38 35 25 44 38 26 33 30 23 45 39 24
54 45 25 56 46 25 60 48 23 70 57 30 65 55 42 48 43 45 50 45 44
53 42 36 62 47 40 49 43 42 48 43 42 48 41 40 50 42 39 57 46 42
50 43 41 42 38 37 47 42 39 45 40 39 48 43 40 46 41 40 49 43 41
57 50 44 54 47 44 49 44 43 50 45 43 51 45 42 46 41 42 39 36 38
29 29 25 29 28 25 28 27 25 39 35 29 35 32 25 29 28 23 33 31 25
30 28 24 27 26 23 25 25 23 26 25 23 33 31 25 44 38 27 48 40 26
51 42 25 47 40 25 55 46 26 62 50 26 53 43 26 59 48 26 60 50 27
50 43 26 48 41 24 50 44 26 53 45 26 60 49 24 77 59 30 54 46 43
46 42 44 36 29 24 54 39 32 51 44 42 46 41 41 48 43 44 46 41 39
52 44 40 56 47 41 60 49 35 54 45 39 45 41 41 48 43 40 45 42 43
51 46 45 52 46 44 53 46 44 48 43 43 50 45 44 52 46 45 43 39 40
38 35 37 28 27 24 29 28 25 30 29 27 38 35 28 39 35 29 31 29 25
36 32 27 36 33 27 33 31 26 29 29 25 31 31 28 32 30 27 36 34 27
43 38 28 49 42 28 50 41 26 61 49 26 82 62 27 58 47 27 62 51 28
96 72 27 72 58 28 52 46 32 42 37 27 44 40 24 51 44 26 78 60 29
73 57 39 63 52 43 30 27 25 41 31 22 62 50 40 47 45 51 54 50 53
49 46 48 53 42 35 80 61 28 63 52 26 65 51 32 50 42 39 41 38 43
46 43 43 54 46 41 57 48 42 46 41 43 48 43 41 51 45 43 45 41 42
45 42 43 46 43 45 29 29 26 32 31 27 37 34 29 37 35 30 38 35 29
34 32 27 34 31 26 36 33 28 37 34 29 35 33 27 39 37 31 37 35 30
38 35 30 38 34 27 40 35 26 44 37 28 48 40 27 56 45 28 39 35 26
60 46 25 73 56 27 78 62 28 87 69 33 56 49 39 61 49 33 75 57 36
82 62 37 94 70 33 62 51 27 29 31 25 53 48 27 76 63 30 70 61 46
70 66 66 72 61 49 63 48 28 65 51 26 43 38 25 46 39 24 70 55 31
54 45 38 62 51 38 77 61 29 76 60 29 60 51 40 50 47 47 53 47 45
54 48 47 54 50 51 51 48 47 31 30 26 33 31 27 37 34 29 34 33 28
39 35 29 35 32 27 31 29 25 29 27 23 30 29 24 33 31 25 36 32 26
34 32 27 36 33 27 40 34 26 37 33 25 34 31 25 45 38 27 39 34 26
35 31 25 55 41 25 57 43 26 62 49 27 70 55 27 81 64 34 75 57 27
69 53 26 66 52 30 57 49 28 32 31 26 40 38 27 51 46 29 53 47 28
55 49 27 61 54 31 56 48 27 58 48 25 50 42 25 53 43 26 50 42 26
53 46 25 54 46 26 75 59 34 60 51 28 55 47 27 74 59 31 58 50 47
47 46 50 55 51 52 52 48 50 47 43 43 34 32 28 29 28 25 30 29 24
30 29 24 33 30 25 33 30 25 26 25 20 26 25 21 26 25 21 28 27 22
29 28 23 29 28 23 36 33 26 35 31 24 28 27 22 29 27 22 42 35 26
35 31 25 28 27 23 41 34 25 46 36 24 40 34 24 48 40 26 62 49 27
53 45 25 44 40 26 45 40 24 47 42 26 44 40 27 48 43 26 45 41 26
41 38 26 45 41 27 39 34 24 34 32 24 43 39 25 57 47 26 49 43 26
48 42 26 48 42 26 37 34 26 56 45 29 53 45 29 48 42 27 65 53 31
52 47 46 45 44 48 49 45 47 47 44 46 43 40 42
